(Generated by PartKam Version 0.05)

G20 G90 G40

(Holes)
G0 Z0.1
T0 M6
G17
M3
G0 X-19.8167 Y-5.0777
G1 Z-0.1 F30
G3 X-19.8915 Y-5.1396 I0.2899 J-0.4265 F20
G3 X-19.9534 Y-5.2143 I0.3647 J-0.3647
G3 X-19.9941 Y-5.2899 I0.3482 J-0.2367
G3 X-20.0187 Y-5.3721 I0.389 J-0.1611
G3 X-20.0278 Y-5.4688 I0.5066 J-0.0966
G3 X-20.0187 Y-5.5654 I0.5157 J0
G3 X-19.9941 Y-5.6476 I0.4136 J0.0789
G3 X-19.9534 Y-5.7232 I0.389 J0.1611
G3 X-19.8915 Y-5.798 I0.4265 J0.2899
G3 X-19.8167 Y-5.8598 I0.3647 J0.3647
G3 X-19.7412 Y-5.9006 I0.2367 J0.3482
G3 X-19.6589 Y-5.9252 I0.1611 J0.389
G3 X-19.5623 Y-5.9343 I0.0966 J0.5066
G3 X-19.4657 Y-5.9252 I0 J0.5157
G3 X-19.3834 Y-5.9006 I-0.0789 J0.4136
G3 X-19.3079 Y-5.8598 I-0.1611 J0.389
G3 X-19.2331 Y-5.798 I-0.2899 J0.4265
G3 X-19.1712 Y-5.7232 I-0.3647 J0.3647
G3 X-19.1305 Y-5.6476 I-0.3482 J0.2367
G3 X-19.1059 Y-5.5654 I-0.389 J0.1611
G3 X-19.0967 Y-5.4688 I-0.5066 J0.0966
G3 X-19.1059 Y-5.3721 I-0.5157 J0
G3 X-19.1305 Y-5.2899 I-0.4136 J-0.0789
G3 X-19.1712 Y-5.2143 I-0.389 J-0.1611
G3 X-19.2331 Y-5.1396 I-0.4265 J-0.2899
G3 X-19.3079 Y-5.0777 I-0.3647 J-0.3647
G3 X-19.3834 Y-5.0369 I-0.2367 J-0.3482
G3 X-19.4657 Y-5.0123 I-0.1611 J-0.389
G3 X-19.5623 Y-5.0032 I-0.0966 J-0.5066
G3 X-19.6589 Y-5.0123 I0 J-0.5157
G3 X-19.7412 Y-5.0369 I0.0789 J-0.4136
G3 X-19.8167 Y-5.0777 I0.1611 J-0.389
G1 Z-0.2 F30
G3 X-19.8915 Y-5.1396 I0.2899 J-0.4265 F20
G3 X-19.9534 Y-5.2143 I0.3647 J-0.3647
G3 X-19.9941 Y-5.2899 I0.3482 J-0.2367
G3 X-20.0187 Y-5.3721 I0.389 J-0.1611
G3 X-20.0278 Y-5.4688 I0.5066 J-0.0966
G3 X-20.0187 Y-5.5654 I0.5157 J0
G3 X-19.9941 Y-5.6476 I0.4136 J0.0789
G3 X-19.9534 Y-5.7232 I0.389 J0.1611
G3 X-19.8915 Y-5.798 I0.4265 J0.2899
G3 X-19.8167 Y-5.8598 I0.3647 J0.3647
G3 X-19.7412 Y-5.9006 I0.2367 J0.3482
G3 X-19.6589 Y-5.9252 I0.1611 J0.389
G3 X-19.5623 Y-5.9343 I0.0966 J0.5066
G3 X-19.4657 Y-5.9252 I0 J0.5157
G3 X-19.3834 Y-5.9006 I-0.0789 J0.4136
G3 X-19.3079 Y-5.8598 I-0.1611 J0.389
G3 X-19.2331 Y-5.798 I-0.2899 J0.4265
G3 X-19.1712 Y-5.7232 I-0.3647 J0.3647
G3 X-19.1305 Y-5.6476 I-0.3482 J0.2367
G3 X-19.1059 Y-5.5654 I-0.389 J0.1611
G3 X-19.0967 Y-5.4688 I-0.5066 J0.0966
G3 X-19.1059 Y-5.3721 I-0.5157 J0
G3 X-19.1305 Y-5.2899 I-0.4136 J-0.0789
G3 X-19.1712 Y-5.2143 I-0.389 J-0.1611
G3 X-19.2331 Y-5.1396 I-0.4265 J-0.2899
G3 X-19.3079 Y-5.0777 I-0.3647 J-0.3647
G3 X-19.3834 Y-5.0369 I-0.2367 J-0.3482
G3 X-19.4657 Y-5.0123 I-0.1611 J-0.389
G3 X-19.5623 Y-5.0032 I-0.0966 J-0.5066
G3 X-19.6589 Y-5.0123 I0 J-0.5157
G3 X-19.7412 Y-5.0369 I0.0789 J-0.4136
G3 X-19.8167 Y-5.0777 I0.1611 J-0.389
G1 Z-0.3 F30
G3 X-19.8915 Y-5.1396 I0.2899 J-0.4265 F20
G3 X-19.9534 Y-5.2143 I0.3647 J-0.3647
G3 X-19.9941 Y-5.2899 I0.3482 J-0.2367
G3 X-20.0187 Y-5.3721 I0.389 J-0.1611
G3 X-20.0278 Y-5.4688 I0.5066 J-0.0966
G3 X-20.0187 Y-5.5654 I0.5157 J0
G3 X-19.9941 Y-5.6476 I0.4136 J0.0789
G3 X-19.9534 Y-5.7232 I0.389 J0.1611
G3 X-19.8915 Y-5.798 I0.4265 J0.2899
G3 X-19.8167 Y-5.8598 I0.3647 J0.3647
G3 X-19.7412 Y-5.9006 I0.2367 J0.3482
G3 X-19.6589 Y-5.9252 I0.1611 J0.389
G3 X-19.5623 Y-5.9343 I0.0966 J0.5066
G3 X-19.4657 Y-5.9252 I0 J0.5157
G3 X-19.3834 Y-5.9006 I-0.0789 J0.4136
G3 X-19.3079 Y-5.8598 I-0.1611 J0.389
G3 X-19.2331 Y-5.798 I-0.2899 J0.4265
G3 X-19.1712 Y-5.7232 I-0.3647 J0.3647
G3 X-19.1305 Y-5.6476 I-0.3482 J0.2367
G3 X-19.1059 Y-5.5654 I-0.389 J0.1611
G3 X-19.0967 Y-5.4688 I-0.5066 J0.0966
G3 X-19.1059 Y-5.3721 I-0.5157 J0
G3 X-19.1305 Y-5.2899 I-0.4136 J-0.0789
G3 X-19.1712 Y-5.2143 I-0.389 J-0.1611
G3 X-19.2331 Y-5.1396 I-0.4265 J-0.2899
G3 X-19.3079 Y-5.0777 I-0.3647 J-0.3647
G3 X-19.3834 Y-5.0369 I-0.2367 J-0.3482
G3 X-19.4657 Y-5.0123 I-0.1611 J-0.389
G3 X-19.5623 Y-5.0032 I-0.0966 J-0.5066
G3 X-19.6589 Y-5.0123 I0 J-0.5157
G3 X-19.7412 Y-5.0369 I0.0789 J-0.4136
G3 X-19.8167 Y-5.0777 I0.1611 J-0.389
G1 Z-0.4 F30
G3 X-19.8915 Y-5.1396 I0.2899 J-0.4265 F20
G3 X-19.9534 Y-5.2143 I0.3647 J-0.3647
G3 X-19.9941 Y-5.2899 I0.3482 J-0.2367
G3 X-20.0187 Y-5.3721 I0.389 J-0.1611
G3 X-20.0278 Y-5.4688 I0.5066 J-0.0966
G3 X-20.0187 Y-5.5654 I0.5157 J0
G3 X-19.9941 Y-5.6476 I0.4136 J0.0789
G3 X-19.9534 Y-5.7232 I0.389 J0.1611
G3 X-19.8915 Y-5.798 I0.4265 J0.2899
G3 X-19.8167 Y-5.8598 I0.3647 J0.3647
G3 X-19.7412 Y-5.9006 I0.2367 J0.3482
G3 X-19.6589 Y-5.9252 I0.1611 J0.389
G3 X-19.5623 Y-5.9343 I0.0966 J0.5066
G3 X-19.4657 Y-5.9252 I0 J0.5157
G3 X-19.3834 Y-5.9006 I-0.0789 J0.4136
G3 X-19.3079 Y-5.8598 I-0.1611 J0.389
G3 X-19.2331 Y-5.798 I-0.2899 J0.4265
G3 X-19.1712 Y-5.7232 I-0.3647 J0.3647
G3 X-19.1305 Y-5.6476 I-0.3482 J0.2367
G3 X-19.1059 Y-5.5654 I-0.389 J0.1611
G3 X-19.0967 Y-5.4688 I-0.5066 J0.0966
G3 X-19.1059 Y-5.3721 I-0.5157 J0
G3 X-19.1305 Y-5.2899 I-0.4136 J-0.0789
G3 X-19.1712 Y-5.2143 I-0.389 J-0.1611
G3 X-19.2331 Y-5.1396 I-0.4265 J-0.2899
G3 X-19.3079 Y-5.0777 I-0.3647 J-0.3647
G3 X-19.3834 Y-5.0369 I-0.2367 J-0.3482
G3 X-19.4657 Y-5.0123 I-0.1611 J-0.389
G3 X-19.5623 Y-5.0032 I-0.0966 J-0.5066
G3 X-19.6589 Y-5.0123 I0 J-0.5157
G3 X-19.7412 Y-5.0369 I0.0789 J-0.4136
G3 X-19.8167 Y-5.0777 I0.1611 J-0.389
G1 Z-0.5 F30
G3 X-19.8915 Y-5.1396 I0.2899 J-0.4265 F20
G3 X-19.9534 Y-5.2143 I0.3647 J-0.3647
G3 X-19.9941 Y-5.2899 I0.3482 J-0.2367
G3 X-20.0187 Y-5.3721 I0.389 J-0.1611
G3 X-20.0278 Y-5.4688 I0.5066 J-0.0966
G3 X-20.0187 Y-5.5654 I0.5157 J0
G3 X-19.9941 Y-5.6476 I0.4136 J0.0789
G3 X-19.9534 Y-5.7232 I0.389 J0.1611
G3 X-19.8915 Y-5.798 I0.4265 J0.2899
G3 X-19.8167 Y-5.8598 I0.3647 J0.3647
G3 X-19.7412 Y-5.9006 I0.2367 J0.3482
G3 X-19.6589 Y-5.9252 I0.1611 J0.389
G3 X-19.5623 Y-5.9343 I0.0966 J0.5066
G3 X-19.4657 Y-5.9252 I0 J0.5157
G3 X-19.3834 Y-5.9006 I-0.0789 J0.4136
G3 X-19.3079 Y-5.8598 I-0.1611 J0.389
G3 X-19.2331 Y-5.798 I-0.2899 J0.4265
G3 X-19.1712 Y-5.7232 I-0.3647 J0.3647
G3 X-19.1305 Y-5.6476 I-0.3482 J0.2367
G3 X-19.1059 Y-5.5654 I-0.389 J0.1611
G3 X-19.0967 Y-5.4688 I-0.5066 J0.0966
G3 X-19.1059 Y-5.3721 I-0.5157 J0
G3 X-19.1305 Y-5.2899 I-0.4136 J-0.0789
G3 X-19.1712 Y-5.2143 I-0.389 J-0.1611
G3 X-19.2331 Y-5.1396 I-0.4265 J-0.2899
G3 X-19.3079 Y-5.0777 I-0.3647 J-0.3647
G3 X-19.3834 Y-5.0369 I-0.2367 J-0.3482
G3 X-19.4657 Y-5.0123 I-0.1611 J-0.389
G3 X-19.5623 Y-5.0032 I-0.0966 J-0.5066
G3 X-19.6589 Y-5.0123 I0 J-0.5157
G3 X-19.7412 Y-5.0369 I0.0789 J-0.4136
G3 X-19.8167 Y-5.0777 I0.1611 J-0.389
G1 Z-0.6 F30
G3 X-19.8915 Y-5.1396 I0.2899 J-0.4265 F20
G3 X-19.9534 Y-5.2143 I0.3647 J-0.3647
G3 X-19.9941 Y-5.2899 I0.3482 J-0.2367
G3 X-20.0187 Y-5.3721 I0.389 J-0.1611
G3 X-20.0278 Y-5.4688 I0.5066 J-0.0966
G3 X-20.0187 Y-5.5654 I0.5157 J0
G3 X-19.9941 Y-5.6476 I0.4136 J0.0789
G3 X-19.9534 Y-5.7232 I0.389 J0.1611
G3 X-19.8915 Y-5.798 I0.4265 J0.2899
G3 X-19.8167 Y-5.8598 I0.3647 J0.3647
G3 X-19.7412 Y-5.9006 I0.2367 J0.3482
G3 X-19.6589 Y-5.9252 I0.1611 J0.389
G3 X-19.5623 Y-5.9343 I0.0966 J0.5066
G3 X-19.4657 Y-5.9252 I0 J0.5157
G3 X-19.3834 Y-5.9006 I-0.0789 J0.4136
G3 X-19.3079 Y-5.8598 I-0.1611 J0.389
G3 X-19.2331 Y-5.798 I-0.2899 J0.4265
G3 X-19.1712 Y-5.7232 I-0.3647 J0.3647
G3 X-19.1305 Y-5.6476 I-0.3482 J0.2367
G3 X-19.1059 Y-5.5654 I-0.389 J0.1611
G3 X-19.0967 Y-5.4688 I-0.5066 J0.0966
G3 X-19.1059 Y-5.3721 I-0.5157 J0
G3 X-19.1305 Y-5.2899 I-0.4136 J-0.0789
G3 X-19.1712 Y-5.2143 I-0.389 J-0.1611
G3 X-19.2331 Y-5.1396 I-0.4265 J-0.2899
G3 X-19.3079 Y-5.0777 I-0.3647 J-0.3647
G3 X-19.3834 Y-5.0369 I-0.2367 J-0.3482
G3 X-19.4657 Y-5.0123 I-0.1611 J-0.389
G3 X-19.5623 Y-5.0032 I-0.0966 J-0.5066
G3 X-19.6589 Y-5.0123 I0 J-0.5157
G3 X-19.7412 Y-5.0369 I0.0789 J-0.4136
G3 X-19.8167 Y-5.0777 I0.1611 J-0.389
G1 Z-0.7 F30
G3 X-19.8915 Y-5.1396 I0.2899 J-0.4265 F20
G3 X-19.9534 Y-5.2143 I0.3647 J-0.3647
G3 X-19.9941 Y-5.2899 I0.3482 J-0.2367
G3 X-20.0187 Y-5.3721 I0.389 J-0.1611
G3 X-20.0278 Y-5.4688 I0.5066 J-0.0966
G3 X-20.0187 Y-5.5654 I0.5157 J0
G3 X-19.9941 Y-5.6476 I0.4136 J0.0789
G3 X-19.9534 Y-5.7232 I0.389 J0.1611
G3 X-19.8915 Y-5.798 I0.4265 J0.2899
G3 X-19.8167 Y-5.8598 I0.3647 J0.3647
G3 X-19.7412 Y-5.9006 I0.2367 J0.3482
G3 X-19.6589 Y-5.9252 I0.1611 J0.389
G3 X-19.5623 Y-5.9343 I0.0966 J0.5066
G3 X-19.4657 Y-5.9252 I0 J0.5157
G3 X-19.3834 Y-5.9006 I-0.0789 J0.4136
G3 X-19.3079 Y-5.8598 I-0.1611 J0.389
G3 X-19.2331 Y-5.798 I-0.2899 J0.4265
G3 X-19.1712 Y-5.7232 I-0.3647 J0.3647
G3 X-19.1305 Y-5.6476 I-0.3482 J0.2367
G3 X-19.1059 Y-5.5654 I-0.389 J0.1611
G3 X-19.0967 Y-5.4688 I-0.5066 J0.0966
G3 X-19.1059 Y-5.3721 I-0.5157 J0
G3 X-19.1305 Y-5.2899 I-0.4136 J-0.0789
G3 X-19.1712 Y-5.2143 I-0.389 J-0.1611
G3 X-19.2331 Y-5.1396 I-0.4265 J-0.2899
G3 X-19.3079 Y-5.0777 I-0.3647 J-0.3647
G3 X-19.3834 Y-5.0369 I-0.2367 J-0.3482
G3 X-19.4657 Y-5.0123 I-0.1611 J-0.389
G3 X-19.5623 Y-5.0032 I-0.0966 J-0.5066
G3 X-19.6589 Y-5.0123 I0 J-0.5157
G3 X-19.7412 Y-5.0369 I0.0789 J-0.4136
G3 X-19.8167 Y-5.0777 I0.1611 J-0.389
G1 Z-0.8 F30
G3 X-19.8915 Y-5.1396 I0.2899 J-0.4265 F20
G3 X-19.9534 Y-5.2143 I0.3647 J-0.3647
G3 X-19.9941 Y-5.2899 I0.3482 J-0.2367
G3 X-20.0187 Y-5.3721 I0.389 J-0.1611
G3 X-20.0278 Y-5.4688 I0.5066 J-0.0966
G3 X-20.0187 Y-5.5654 I0.5157 J0
G3 X-19.9941 Y-5.6476 I0.4136 J0.0789
G3 X-19.9534 Y-5.7232 I0.389 J0.1611
G3 X-19.8915 Y-5.798 I0.4265 J0.2899
G3 X-19.8167 Y-5.8598 I0.3647 J0.3647
G3 X-19.7412 Y-5.9006 I0.2367 J0.3482
G3 X-19.6589 Y-5.9252 I0.1611 J0.389
G3 X-19.5623 Y-5.9343 I0.0966 J0.5066
G3 X-19.4657 Y-5.9252 I0 J0.5157
G3 X-19.3834 Y-5.9006 I-0.0789 J0.4136
G3 X-19.3079 Y-5.8598 I-0.1611 J0.389
G3 X-19.2331 Y-5.798 I-0.2899 J0.4265
G3 X-19.1712 Y-5.7232 I-0.3647 J0.3647
G3 X-19.1305 Y-5.6476 I-0.3482 J0.2367
G3 X-19.1059 Y-5.5654 I-0.389 J0.1611
G3 X-19.0967 Y-5.4688 I-0.5066 J0.0966
G3 X-19.1059 Y-5.3721 I-0.5157 J0
G3 X-19.1305 Y-5.2899 I-0.4136 J-0.0789
G3 X-19.1712 Y-5.2143 I-0.389 J-0.1611
G3 X-19.2331 Y-5.1396 I-0.4265 J-0.2899
G3 X-19.3079 Y-5.0777 I-0.3647 J-0.3647
G3 X-19.3834 Y-5.0369 I-0.2367 J-0.3482
G3 X-19.4657 Y-5.0123 I-0.1611 J-0.389
G3 X-19.5623 Y-5.0032 I-0.0966 J-0.5066
G3 X-19.6589 Y-5.0123 I0 J-0.5157
G3 X-19.7412 Y-5.0369 I0.0789 J-0.4136
G3 X-19.8167 Y-5.0777 I0.1611 J-0.389
G0 Z0.1
G0 X-28.6032 Y-5.798
G1 Z-0.1 F30
G3 X-28.5413 Y-5.7232 I-0.3647 J0.3647 F20
G3 X-28.5006 Y-5.6476 I-0.3482 J0.2367
G3 X-28.476 Y-5.5654 I-0.389 J0.1611
G3 X-28.4668 Y-5.4688 I-0.5066 J0.0966
G3 X-28.476 Y-5.3721 I-0.5157 J0
G3 X-28.5006 Y-5.2899 I-0.4136 J-0.0789
G3 X-28.5413 Y-5.2143 I-0.389 J-0.1611
G3 X-28.6032 Y-5.1396 I-0.4265 J-0.2899
G3 X-28.678 Y-5.0777 I-0.3647 J-0.3647
G3 X-28.7535 Y-5.0369 I-0.2367 J-0.3482
G3 X-28.8357 Y-5.0123 I-0.1611 J-0.389
G3 X-28.9324 Y-5.0032 I-0.0966 J-0.5066
G3 X-29.029 Y-5.0123 I0 J-0.5157
G3 X-29.1112 Y-5.0369 I0.0789 J-0.4136
G3 X-29.1868 Y-5.0777 I0.1611 J-0.389
G3 X-29.2616 Y-5.1396 I0.2899 J-0.4265
G3 X-29.3234 Y-5.2143 I0.3647 J-0.3647
G3 X-29.3642 Y-5.2899 I0.3482 J-0.2367
G3 X-29.3888 Y-5.3721 I0.389 J-0.1611
G3 X-29.3979 Y-5.4688 I0.5066 J-0.0966
G3 X-29.3888 Y-5.5654 I0.5157 J0
G3 X-29.3642 Y-5.6476 I0.4136 J0.0789
G3 X-29.3234 Y-5.7232 I0.389 J0.1611
G3 X-29.2616 Y-5.798 I0.4265 J0.2899
G3 X-29.1868 Y-5.8598 I0.3647 J0.3647
G3 X-29.1112 Y-5.9006 I0.2367 J0.3482
G3 X-29.029 Y-5.9252 I0.1611 J0.389
G3 X-28.9324 Y-5.9343 I0.0966 J0.5066
G3 X-28.8357 Y-5.9252 I0 J0.5157
G3 X-28.7535 Y-5.9006 I-0.0789 J0.4136
G3 X-28.678 Y-5.8598 I-0.1611 J0.389
G3 X-28.6032 Y-5.798 I-0.2899 J0.4265
G1 Z-0.2 F30
G3 X-28.5413 Y-5.7232 I-0.3647 J0.3647 F20
G3 X-28.5006 Y-5.6476 I-0.3482 J0.2367
G3 X-28.476 Y-5.5654 I-0.389 J0.1611
G3 X-28.4668 Y-5.4688 I-0.5066 J0.0966
G3 X-28.476 Y-5.3721 I-0.5157 J0
G3 X-28.5006 Y-5.2899 I-0.4136 J-0.0789
G3 X-28.5413 Y-5.2143 I-0.389 J-0.1611
G3 X-28.6032 Y-5.1396 I-0.4265 J-0.2899
G3 X-28.678 Y-5.0777 I-0.3647 J-0.3647
G3 X-28.7535 Y-5.0369 I-0.2367 J-0.3482
G3 X-28.8357 Y-5.0123 I-0.1611 J-0.389
G3 X-28.9324 Y-5.0032 I-0.0966 J-0.5066
G3 X-29.029 Y-5.0123 I0 J-0.5157
G3 X-29.1112 Y-5.0369 I0.0789 J-0.4136
G3 X-29.1868 Y-5.0777 I0.1611 J-0.389
G3 X-29.2616 Y-5.1396 I0.2899 J-0.4265
G3 X-29.3234 Y-5.2143 I0.3647 J-0.3647
G3 X-29.3642 Y-5.2899 I0.3482 J-0.2367
G3 X-29.3888 Y-5.3721 I0.389 J-0.1611
G3 X-29.3979 Y-5.4688 I0.5066 J-0.0966
G3 X-29.3888 Y-5.5654 I0.5157 J0
G3 X-29.3642 Y-5.6476 I0.4136 J0.0789
G3 X-29.3234 Y-5.7232 I0.389 J0.1611
G3 X-29.2616 Y-5.798 I0.4265 J0.2899
G3 X-29.1868 Y-5.8598 I0.3647 J0.3647
G3 X-29.1112 Y-5.9006 I0.2367 J0.3482
G3 X-29.029 Y-5.9252 I0.1611 J0.389
G3 X-28.9324 Y-5.9343 I0.0966 J0.5066
G3 X-28.8357 Y-5.9252 I0 J0.5157
G3 X-28.7535 Y-5.9006 I-0.0789 J0.4136
G3 X-28.678 Y-5.8598 I-0.1611 J0.389
G3 X-28.6032 Y-5.798 I-0.2899 J0.4265
G1 Z-0.3 F30
G3 X-28.5413 Y-5.7232 I-0.3647 J0.3647 F20
G3 X-28.5006 Y-5.6476 I-0.3482 J0.2367
G3 X-28.476 Y-5.5654 I-0.389 J0.1611
G3 X-28.4668 Y-5.4688 I-0.5066 J0.0966
G3 X-28.476 Y-5.3721 I-0.5157 J0
G3 X-28.5006 Y-5.2899 I-0.4136 J-0.0789
G3 X-28.5413 Y-5.2143 I-0.389 J-0.1611
G3 X-28.6032 Y-5.1396 I-0.4265 J-0.2899
G3 X-28.678 Y-5.0777 I-0.3647 J-0.3647
G3 X-28.7535 Y-5.0369 I-0.2367 J-0.3482
G3 X-28.8357 Y-5.0123 I-0.1611 J-0.389
G3 X-28.9324 Y-5.0032 I-0.0966 J-0.5066
G3 X-29.029 Y-5.0123 I0 J-0.5157
G3 X-29.1112 Y-5.0369 I0.0789 J-0.4136
G3 X-29.1868 Y-5.0777 I0.1611 J-0.389
G3 X-29.2616 Y-5.1396 I0.2899 J-0.4265
G3 X-29.3234 Y-5.2143 I0.3647 J-0.3647
G3 X-29.3642 Y-5.2899 I0.3482 J-0.2367
G3 X-29.3888 Y-5.3721 I0.389 J-0.1611
G3 X-29.3979 Y-5.4688 I0.5066 J-0.0966
G3 X-29.3888 Y-5.5654 I0.5157 J0
G3 X-29.3642 Y-5.6476 I0.4136 J0.0789
G3 X-29.3234 Y-5.7232 I0.389 J0.1611
G3 X-29.2616 Y-5.798 I0.4265 J0.2899
G3 X-29.1868 Y-5.8598 I0.3647 J0.3647
G3 X-29.1112 Y-5.9006 I0.2367 J0.3482
G3 X-29.029 Y-5.9252 I0.1611 J0.389
G3 X-28.9324 Y-5.9343 I0.0966 J0.5066
G3 X-28.8357 Y-5.9252 I0 J0.5157
G3 X-28.7535 Y-5.9006 I-0.0789 J0.4136
G3 X-28.678 Y-5.8598 I-0.1611 J0.389
G3 X-28.6032 Y-5.798 I-0.2899 J0.4265
G1 Z-0.4 F30
G3 X-28.5413 Y-5.7232 I-0.3647 J0.3647 F20
G3 X-28.5006 Y-5.6476 I-0.3482 J0.2367
G3 X-28.476 Y-5.5654 I-0.389 J0.1611
G3 X-28.4668 Y-5.4688 I-0.5066 J0.0966
G3 X-28.476 Y-5.3721 I-0.5157 J0
G3 X-28.5006 Y-5.2899 I-0.4136 J-0.0789
G3 X-28.5413 Y-5.2143 I-0.389 J-0.1611
G3 X-28.6032 Y-5.1396 I-0.4265 J-0.2899
G3 X-28.678 Y-5.0777 I-0.3647 J-0.3647
G3 X-28.7535 Y-5.0369 I-0.2367 J-0.3482
G3 X-28.8357 Y-5.0123 I-0.1611 J-0.389
G3 X-28.9324 Y-5.0032 I-0.0966 J-0.5066
G3 X-29.029 Y-5.0123 I0 J-0.5157
G3 X-29.1112 Y-5.0369 I0.0789 J-0.4136
G3 X-29.1868 Y-5.0777 I0.1611 J-0.389
G3 X-29.2616 Y-5.1396 I0.2899 J-0.4265
G3 X-29.3234 Y-5.2143 I0.3647 J-0.3647
G3 X-29.3642 Y-5.2899 I0.3482 J-0.2367
G3 X-29.3888 Y-5.3721 I0.389 J-0.1611
G3 X-29.3979 Y-5.4688 I0.5066 J-0.0966
G3 X-29.3888 Y-5.5654 I0.5157 J0
G3 X-29.3642 Y-5.6476 I0.4136 J0.0789
G3 X-29.3234 Y-5.7232 I0.389 J0.1611
G3 X-29.2616 Y-5.798 I0.4265 J0.2899
G3 X-29.1868 Y-5.8598 I0.3647 J0.3647
G3 X-29.1112 Y-5.9006 I0.2367 J0.3482
G3 X-29.029 Y-5.9252 I0.1611 J0.389
G3 X-28.9324 Y-5.9343 I0.0966 J0.5066
G3 X-28.8357 Y-5.9252 I0 J0.5157
G3 X-28.7535 Y-5.9006 I-0.0789 J0.4136
G3 X-28.678 Y-5.8598 I-0.1611 J0.389
G3 X-28.6032 Y-5.798 I-0.2899 J0.4265
G1 Z-0.5 F30
G3 X-28.5413 Y-5.7232 I-0.3647 J0.3647 F20
G3 X-28.5006 Y-5.6476 I-0.3482 J0.2367
G3 X-28.476 Y-5.5654 I-0.389 J0.1611
G3 X-28.4668 Y-5.4688 I-0.5066 J0.0966
G3 X-28.476 Y-5.3721 I-0.5157 J0
G3 X-28.5006 Y-5.2899 I-0.4136 J-0.0789
G3 X-28.5413 Y-5.2143 I-0.389 J-0.1611
G3 X-28.6032 Y-5.1396 I-0.4265 J-0.2899
G3 X-28.678 Y-5.0777 I-0.3647 J-0.3647
G3 X-28.7535 Y-5.0369 I-0.2367 J-0.3482
G3 X-28.8357 Y-5.0123 I-0.1611 J-0.389
G3 X-28.9324 Y-5.0032 I-0.0966 J-0.5066
G3 X-29.029 Y-5.0123 I0 J-0.5157
G3 X-29.1112 Y-5.0369 I0.0789 J-0.4136
G3 X-29.1868 Y-5.0777 I0.1611 J-0.389
G3 X-29.2616 Y-5.1396 I0.2899 J-0.4265
G3 X-29.3234 Y-5.2143 I0.3647 J-0.3647
G3 X-29.3642 Y-5.2899 I0.3482 J-0.2367
G3 X-29.3888 Y-5.3721 I0.389 J-0.1611
G3 X-29.3979 Y-5.4688 I0.5066 J-0.0966
G3 X-29.3888 Y-5.5654 I0.5157 J0
G3 X-29.3642 Y-5.6476 I0.4136 J0.0789
G3 X-29.3234 Y-5.7232 I0.389 J0.1611
G3 X-29.2616 Y-5.798 I0.4265 J0.2899
G3 X-29.1868 Y-5.8598 I0.3647 J0.3647
G3 X-29.1112 Y-5.9006 I0.2367 J0.3482
G3 X-29.029 Y-5.9252 I0.1611 J0.389
G3 X-28.9324 Y-5.9343 I0.0966 J0.5066
G3 X-28.8357 Y-5.9252 I0 J0.5157
G3 X-28.7535 Y-5.9006 I-0.0789 J0.4136
G3 X-28.678 Y-5.8598 I-0.1611 J0.389
G3 X-28.6032 Y-5.798 I-0.2899 J0.4265
G1 Z-0.6 F30
G3 X-28.5413 Y-5.7232 I-0.3647 J0.3647 F20
G3 X-28.5006 Y-5.6476 I-0.3482 J0.2367
G3 X-28.476 Y-5.5654 I-0.389 J0.1611
G3 X-28.4668 Y-5.4688 I-0.5066 J0.0966
G3 X-28.476 Y-5.3721 I-0.5157 J0
G3 X-28.5006 Y-5.2899 I-0.4136 J-0.0789
G3 X-28.5413 Y-5.2143 I-0.389 J-0.1611
G3 X-28.6032 Y-5.1396 I-0.4265 J-0.2899
G3 X-28.678 Y-5.0777 I-0.3647 J-0.3647
G3 X-28.7535 Y-5.0369 I-0.2367 J-0.3482
G3 X-28.8357 Y-5.0123 I-0.1611 J-0.389
G3 X-28.9324 Y-5.0032 I-0.0966 J-0.5066
G3 X-29.029 Y-5.0123 I0 J-0.5157
G3 X-29.1112 Y-5.0369 I0.0789 J-0.4136
G3 X-29.1868 Y-5.0777 I0.1611 J-0.389
G3 X-29.2616 Y-5.1396 I0.2899 J-0.4265
G3 X-29.3234 Y-5.2143 I0.3647 J-0.3647
G3 X-29.3642 Y-5.2899 I0.3482 J-0.2367
G3 X-29.3888 Y-5.3721 I0.389 J-0.1611
G3 X-29.3979 Y-5.4688 I0.5066 J-0.0966
G3 X-29.3888 Y-5.5654 I0.5157 J0
G3 X-29.3642 Y-5.6476 I0.4136 J0.0789
G3 X-29.3234 Y-5.7232 I0.389 J0.1611
G3 X-29.2616 Y-5.798 I0.4265 J0.2899
G3 X-29.1868 Y-5.8598 I0.3647 J0.3647
G3 X-29.1112 Y-5.9006 I0.2367 J0.3482
G3 X-29.029 Y-5.9252 I0.1611 J0.389
G3 X-28.9324 Y-5.9343 I0.0966 J0.5066
G3 X-28.8357 Y-5.9252 I0 J0.5157
G3 X-28.7535 Y-5.9006 I-0.0789 J0.4136
G3 X-28.678 Y-5.8598 I-0.1611 J0.389
G3 X-28.6032 Y-5.798 I-0.2899 J0.4265
G1 Z-0.7 F30
G3 X-28.5413 Y-5.7232 I-0.3647 J0.3647 F20
G3 X-28.5006 Y-5.6476 I-0.3482 J0.2367
G3 X-28.476 Y-5.5654 I-0.389 J0.1611
G3 X-28.4668 Y-5.4688 I-0.5066 J0.0966
G3 X-28.476 Y-5.3721 I-0.5157 J0
G3 X-28.5006 Y-5.2899 I-0.4136 J-0.0789
G3 X-28.5413 Y-5.2143 I-0.389 J-0.1611
G3 X-28.6032 Y-5.1396 I-0.4265 J-0.2899
G3 X-28.678 Y-5.0777 I-0.3647 J-0.3647
G3 X-28.7535 Y-5.0369 I-0.2367 J-0.3482
G3 X-28.8357 Y-5.0123 I-0.1611 J-0.389
G3 X-28.9324 Y-5.0032 I-0.0966 J-0.5066
G3 X-29.029 Y-5.0123 I0 J-0.5157
G3 X-29.1112 Y-5.0369 I0.0789 J-0.4136
G3 X-29.1868 Y-5.0777 I0.1611 J-0.389
G3 X-29.2616 Y-5.1396 I0.2899 J-0.4265
G3 X-29.3234 Y-5.2143 I0.3647 J-0.3647
G3 X-29.3642 Y-5.2899 I0.3482 J-0.2367
G3 X-29.3888 Y-5.3721 I0.389 J-0.1611
G3 X-29.3979 Y-5.4688 I0.5066 J-0.0966
G3 X-29.3888 Y-5.5654 I0.5157 J0
G3 X-29.3642 Y-5.6476 I0.4136 J0.0789
G3 X-29.3234 Y-5.7232 I0.389 J0.1611
G3 X-29.2616 Y-5.798 I0.4265 J0.2899
G3 X-29.1868 Y-5.8598 I0.3647 J0.3647
G3 X-29.1112 Y-5.9006 I0.2367 J0.3482
G3 X-29.029 Y-5.9252 I0.1611 J0.389
G3 X-28.9324 Y-5.9343 I0.0966 J0.5066
G3 X-28.8357 Y-5.9252 I0 J0.5157
G3 X-28.7535 Y-5.9006 I-0.0789 J0.4136
G3 X-28.678 Y-5.8598 I-0.1611 J0.389
G3 X-28.6032 Y-5.798 I-0.2899 J0.4265
G1 Z-0.8 F30
G3 X-28.5413 Y-5.7232 I-0.3647 J0.3647 F20
G3 X-28.5006 Y-5.6476 I-0.3482 J0.2367
G3 X-28.476 Y-5.5654 I-0.389 J0.1611
G3 X-28.4668 Y-5.4688 I-0.5066 J0.0966
G3 X-28.476 Y-5.3721 I-0.5157 J0
G3 X-28.5006 Y-5.2899 I-0.4136 J-0.0789
G3 X-28.5413 Y-5.2143 I-0.389 J-0.1611
G3 X-28.6032 Y-5.1396 I-0.4265 J-0.2899
G3 X-28.678 Y-5.0777 I-0.3647 J-0.3647
G3 X-28.7535 Y-5.0369 I-0.2367 J-0.3482
G3 X-28.8357 Y-5.0123 I-0.1611 J-0.389
G3 X-28.9324 Y-5.0032 I-0.0966 J-0.5066
G3 X-29.029 Y-5.0123 I0 J-0.5157
G3 X-29.1112 Y-5.0369 I0.0789 J-0.4136
G3 X-29.1868 Y-5.0777 I0.1611 J-0.389
G3 X-29.2616 Y-5.1396 I0.2899 J-0.4265
G3 X-29.3234 Y-5.2143 I0.3647 J-0.3647
G3 X-29.3642 Y-5.2899 I0.3482 J-0.2367
G3 X-29.3888 Y-5.3721 I0.389 J-0.1611
G3 X-29.3979 Y-5.4688 I0.5066 J-0.0966
G3 X-29.3888 Y-5.5654 I0.5157 J0
G3 X-29.3642 Y-5.6476 I0.4136 J0.0789
G3 X-29.3234 Y-5.7232 I0.389 J0.1611
G3 X-29.2616 Y-5.798 I0.4265 J0.2899
G3 X-29.1868 Y-5.8598 I0.3647 J0.3647
G3 X-29.1112 Y-5.9006 I0.2367 J0.3482
G3 X-29.029 Y-5.9252 I0.1611 J0.389
G3 X-28.9324 Y-5.9343 I0.0966 J0.5066
G3 X-28.8357 Y-5.9252 I0 J0.5157
G3 X-28.7535 Y-5.9006 I-0.0789 J0.4136
G3 X-28.678 Y-5.8598 I-0.1611 J0.389
G3 X-28.6032 Y-5.798 I-0.2899 J0.4265

(Seat)
G0 Z0.1
G0 X-28.6488 Y-13.4678
G1 Z-0.16 F30
G1 X-19.8459 Y-13.4678 F60
G3 X-19.2351 Y-13.41 I0 J3.2601
G3 X-18.6888 Y-13.2467 I-0.524 J2.7473
G3 X-18.187 Y-12.9759 I-1.0703 J2.5839
G3 X-17.7143 Y-12.5848 I-1.8325 J2.6964
G3 X-17.3232 Y-12.1121 I-2.3053 J2.3053
G3 X-17.0524 Y-11.6103 I-2.3132 J1.5721
G3 X-16.889 Y-11.064 I-2.5839 J1.0703
G3 X-16.8313 Y-10.4532 I-3.2024 J0.6108
G1 X-16.8313 Y-7.9157
G1 X-16.8313 Y-7.3836
G1 X-16.8313 Y-7.1321
G3 X-16.8539 Y-6.7135 I-3.8921 J0
G3 X-16.9204 Y-6.309 I-3.6936 J-0.3996
G3 X-17.0311 Y-5.9143 I-3.627 J-0.8041
G3 X-17.1875 Y-5.5253 I-3.6839 J-1.2559
G3 X-17.3849 Y-5.1555 I-3.5274 J-1.6449
G3 X-17.6161 Y-4.817 I-3.1786 J-1.9231
G3 X-17.8833 Y-4.506 I-2.9474 J-2.2616
G3 X-18.1894 Y-4.2196 I-2.808 J-2.6951
G1 X-21.2658 Y-1.6382
G2 X-21.7153 Y-1.1687 I1.9191 J2.2871
G2 X-22.0526 Y-0.6129 I2.3686 J1.8175
G2 X-22.2615 Y0.0026 I2.7058 J1.2617
G2 X-22.3323 Y0.6488 I2.9148 J0.6462
G1 X-22.3323 Y1.9636
G3 X-22.4573 Y2.0886 I-0.125 J0
G1 X-26.0374 Y2.0886
G3 X-26.1624 Y1.9636 I0 J-0.125
G1 X-26.1624 Y0.6488
G2 X-26.2331 Y0.0026 I-2.9856 J0
G2 X-26.4421 Y-0.6129 I-2.9148 J0.6462
G2 X-26.7793 Y-1.1687 I-2.7058 J1.2617
G2 X-27.2289 Y-1.6382 I-2.3686 J1.8175
G1 X-30.3052 Y-4.2196
G3 X-30.6114 Y-4.506 I2.5018 J-2.9815
G3 X-30.8785 Y-4.817 I2.6803 J-2.5726
G3 X-31.1098 Y-5.1555 I2.9474 J-2.2616
G3 X-31.3071 Y-5.5253 I3.3301 J-2.0147
G3 X-31.4636 Y-5.9143 I3.5274 J-1.6449
G3 X-31.5743 Y-6.309 I3.5164 J-1.1988
G3 X-31.6408 Y-6.7135 I3.627 J-0.8041
G3 X-31.6634 Y-7.1321 I3.8695 J-0.4186
G1 X-31.6634 Y-7.5938
G1 X-31.6634 Y-8.0938
G1 X-31.6634 Y-10.4532
G3 X-31.6056 Y-11.064 I3.2601 J0
G3 X-31.4423 Y-11.6103 I2.7473 J0.524
G3 X-31.1715 Y-12.1121 I2.5839 J1.0703
G3 X-30.7804 Y-12.5848 I2.6964 J1.8325
G3 X-30.3077 Y-12.9759 I2.3053 J2.3053
G3 X-29.8059 Y-13.2467 I1.5721 J2.3132
G3 X-29.2596 Y-13.41 I1.0703 J2.5839
G3 X-28.6488 Y-13.4678 I0.6108 J3.2024
G1 Z-0.32 F30
G1 X-19.8459 Y-13.4678 F60
G3 X-19.2351 Y-13.41 I0 J3.2601
G3 X-18.6888 Y-13.2467 I-0.524 J2.7473
G3 X-18.187 Y-12.9759 I-1.0703 J2.5839
G3 X-17.7143 Y-12.5848 I-1.8325 J2.6964
G3 X-17.3232 Y-12.1121 I-2.3053 J2.3053
G3 X-17.0524 Y-11.6103 I-2.3132 J1.5721
G3 X-16.889 Y-11.064 I-2.5839 J1.0703
G3 X-16.8313 Y-10.4532 I-3.2024 J0.6108
G1 X-16.8313 Y-7.9157
G1 X-16.8313 Y-7.3836
G1 X-16.8313 Y-7.1321
G3 X-16.8539 Y-6.7135 I-3.8921 J0
G3 X-16.9204 Y-6.309 I-3.6936 J-0.3996
G3 X-17.0311 Y-5.9143 I-3.627 J-0.8041
G3 X-17.1875 Y-5.5253 I-3.6839 J-1.2559
G3 X-17.3849 Y-5.1555 I-3.5274 J-1.6449
G3 X-17.6161 Y-4.817 I-3.1786 J-1.9231
G3 X-17.8833 Y-4.506 I-2.9474 J-2.2616
G3 X-18.1894 Y-4.2196 I-2.808 J-2.6951
G1 X-21.2658 Y-1.6382
G2 X-21.7153 Y-1.1687 I1.9191 J2.2871
G2 X-22.0526 Y-0.6129 I2.3686 J1.8175
G2 X-22.2615 Y0.0026 I2.7058 J1.2617
G2 X-22.3323 Y0.6488 I2.9148 J0.6462
G1 X-22.3323 Y1.9636
G3 X-22.4573 Y2.0886 I-0.125 J0
G1 X-26.0374 Y2.0886
G3 X-26.1624 Y1.9636 I0 J-0.125
G1 X-26.1624 Y0.6488
G2 X-26.2331 Y0.0026 I-2.9856 J0
G2 X-26.4421 Y-0.6129 I-2.9148 J0.6462
G2 X-26.7793 Y-1.1687 I-2.7058 J1.2617
G2 X-27.2289 Y-1.6382 I-2.3686 J1.8175
G1 X-30.3052 Y-4.2196
G3 X-30.6114 Y-4.506 I2.5018 J-2.9815
G3 X-30.8785 Y-4.817 I2.6803 J-2.5726
G3 X-31.1098 Y-5.1555 I2.9474 J-2.2616
G3 X-31.3071 Y-5.5253 I3.3301 J-2.0147
G3 X-31.4636 Y-5.9143 I3.5274 J-1.6449
G3 X-31.5743 Y-6.309 I3.5164 J-1.1988
G3 X-31.6408 Y-6.7135 I3.627 J-0.8041
G3 X-31.6634 Y-7.1321 I3.8695 J-0.4186
G1 X-31.6634 Y-7.5938
G1 X-31.6634 Y-8.0938
G1 X-31.6634 Y-10.4532
G3 X-31.6056 Y-11.064 I3.2601 J0
G3 X-31.4423 Y-11.6103 I2.7473 J0.524
G3 X-31.1715 Y-12.1121 I2.5839 J1.0703
G3 X-30.7804 Y-12.5848 I2.6964 J1.8325
G3 X-30.3077 Y-12.9759 I2.3053 J2.3053
G3 X-29.8059 Y-13.2467 I1.5721 J2.3132
G3 X-29.2596 Y-13.41 I1.0703 J2.5839
G3 X-28.6488 Y-13.4678 I0.6108 J3.2024
G1 Z-0.48 F30
G1 X-19.8459 Y-13.4678 F60
G3 X-19.2351 Y-13.41 I0 J3.2601
G3 X-18.6888 Y-13.2467 I-0.524 J2.7473
G3 X-18.187 Y-12.9759 I-1.0703 J2.5839
G3 X-17.7143 Y-12.5848 I-1.8325 J2.6964
G3 X-17.3232 Y-12.1121 I-2.3053 J2.3053
G3 X-17.0524 Y-11.6103 I-2.3132 J1.5721
G3 X-16.889 Y-11.064 I-2.5839 J1.0703
G3 X-16.8313 Y-10.4532 I-3.2024 J0.6108
G1 X-16.8313 Y-7.9157
G1 X-16.8313 Y-7.3836
G1 X-16.8313 Y-7.1321
G3 X-16.8539 Y-6.7135 I-3.8921 J0
G3 X-16.9204 Y-6.309 I-3.6936 J-0.3996
G3 X-17.0311 Y-5.9143 I-3.627 J-0.8041
G3 X-17.1875 Y-5.5253 I-3.6839 J-1.2559
G3 X-17.3849 Y-5.1555 I-3.5274 J-1.6449
G3 X-17.6161 Y-4.817 I-3.1786 J-1.9231
G3 X-17.8833 Y-4.506 I-2.9474 J-2.2616
G3 X-18.1894 Y-4.2196 I-2.808 J-2.6951
G1 X-21.2658 Y-1.6382
G2 X-21.7153 Y-1.1687 I1.9191 J2.2871
G2 X-22.0526 Y-0.6129 I2.3686 J1.8175
G2 X-22.2615 Y0.0026 I2.7058 J1.2617
G2 X-22.3323 Y0.6488 I2.9148 J0.6462
G1 X-22.3323 Y1.9636
G3 X-22.4573 Y2.0886 I-0.125 J0
G1 X-26.0374 Y2.0886
G3 X-26.1624 Y1.9636 I0 J-0.125
G1 X-26.1624 Y0.6488
G2 X-26.2331 Y0.0026 I-2.9856 J0
G2 X-26.4421 Y-0.6129 I-2.9148 J0.6462
G2 X-26.7793 Y-1.1687 I-2.7058 J1.2617
G2 X-27.2289 Y-1.6382 I-2.3686 J1.8175
G1 X-30.3052 Y-4.2196
G3 X-30.6114 Y-4.506 I2.5018 J-2.9815
G3 X-30.8785 Y-4.817 I2.6803 J-2.5726
G3 X-31.1098 Y-5.1555 I2.9474 J-2.2616
G3 X-31.3071 Y-5.5253 I3.3301 J-2.0147
G3 X-31.4636 Y-5.9143 I3.5274 J-1.6449
G3 X-31.5743 Y-6.309 I3.5164 J-1.1988
G3 X-31.6408 Y-6.7135 I3.627 J-0.8041
G3 X-31.6634 Y-7.1321 I3.8695 J-0.4186
G1 X-31.6634 Y-7.5938
G1 X-31.6634 Y-8.0938
G1 X-31.6634 Y-10.4532
G3 X-31.6056 Y-11.064 I3.2601 J0
G3 X-31.4423 Y-11.6103 I2.7473 J0.524
G3 X-31.1715 Y-12.1121 I2.5839 J1.0703
G3 X-30.7804 Y-12.5848 I2.6964 J1.8325
G3 X-30.3077 Y-12.9759 I2.3053 J2.3053
G3 X-29.8059 Y-13.2467 I1.5721 J2.3132
G3 X-29.2596 Y-13.41 I1.0703 J2.5839
G3 X-28.6488 Y-13.4678 I0.6108 J3.2024
G1 Z-0.64 F30
G1 X-19.8459 Y-13.4678 F60
G3 X-19.2351 Y-13.41 I0 J3.2601
G3 X-18.6888 Y-13.2467 I-0.524 J2.7473
G3 X-18.187 Y-12.9759 I-1.0703 J2.5839
G3 X-17.7143 Y-12.5848 I-1.8325 J2.6964
G3 X-17.3232 Y-12.1121 I-2.3053 J2.3053
G3 X-17.0524 Y-11.6103 I-2.3132 J1.5721
G3 X-16.889 Y-11.064 I-2.5839 J1.0703
G3 X-16.8313 Y-10.4532 I-3.2024 J0.6108
G1 X-16.8313 Y-7.9157
G1 Z-0.55 F30
G1 X-16.8313 Y-7.3836 F60
G1 Z-0.64 F30
G1 X-16.8313 Y-7.1321 F60
G3 X-16.8539 Y-6.7135 I-3.8921 J0
G3 X-16.9204 Y-6.309 I-3.6936 J-0.3996
G3 X-17.0311 Y-5.9143 I-3.627 J-0.8041
G3 X-17.1875 Y-5.5253 I-3.6839 J-1.2559
G3 X-17.3849 Y-5.1555 I-3.5274 J-1.6449
G3 X-17.6161 Y-4.817 I-3.1786 J-1.9231
G3 X-17.8833 Y-4.506 I-2.9474 J-2.2616
G3 X-18.1894 Y-4.2196 I-2.808 J-2.6951
G1 X-21.2658 Y-1.6382
G2 X-21.7153 Y-1.1687 I1.9191 J2.2871
G2 X-22.0526 Y-0.6129 I2.3686 J1.8175
G2 X-22.2615 Y0.0026 I2.7058 J1.2617
G2 X-22.3323 Y0.6488 I2.9148 J0.6462
G1 X-22.3323 Y1.9636
G3 X-22.4573 Y2.0886 I-0.125 J0
G1 X-26.0374 Y2.0886
G3 X-26.1624 Y1.9636 I0 J-0.125
G1 X-26.1624 Y0.6488
G2 X-26.2331 Y0.0026 I-2.9856 J0
G2 X-26.4421 Y-0.6129 I-2.9148 J0.6462
G2 X-26.7793 Y-1.1687 I-2.7058 J1.2617
G2 X-27.2289 Y-1.6382 I-2.3686 J1.8175
G1 X-30.3052 Y-4.2196
G3 X-30.6114 Y-4.506 I2.5018 J-2.9815
G3 X-30.8785 Y-4.817 I2.6803 J-2.5726
G3 X-31.1098 Y-5.1555 I2.9474 J-2.2616
G3 X-31.3071 Y-5.5253 I3.3301 J-2.0147
G3 X-31.4636 Y-5.9143 I3.5274 J-1.6449
G3 X-31.5743 Y-6.309 I3.5164 J-1.1988
G3 X-31.6408 Y-6.7135 I3.627 J-0.8041
G3 X-31.6634 Y-7.1321 I3.8695 J-0.4186
G1 X-31.6634 Y-7.5938
G1 Z-0.55 F30
G1 X-31.6634 Y-8.0938 F60
G1 Z-0.64 F30
G1 X-31.6634 Y-10.4532 F60
G3 X-31.6056 Y-11.064 I3.2601 J0
G3 X-31.4423 Y-11.6103 I2.7473 J0.524
G3 X-31.1715 Y-12.1121 I2.5839 J1.0703
G3 X-30.7804 Y-12.5848 I2.6964 J1.8325
G3 X-30.3077 Y-12.9759 I2.3053 J2.3053
G3 X-29.8059 Y-13.2467 I1.5721 J2.3132
G3 X-29.2596 Y-13.41 I1.0703 J2.5839
G3 X-28.6488 Y-13.4678 I0.6108 J3.2024
G1 Z-0.8 F30
G1 X-19.8459 Y-13.4678 F60
G3 X-19.2351 Y-13.41 I0 J3.2601
G3 X-18.6888 Y-13.2467 I-0.524 J2.7473
G3 X-18.187 Y-12.9759 I-1.0703 J2.5839
G3 X-17.7143 Y-12.5848 I-1.8325 J2.6964
G3 X-17.3232 Y-12.1121 I-2.3053 J2.3053
G3 X-17.0524 Y-11.6103 I-2.3132 J1.5721
G3 X-16.889 Y-11.064 I-2.5839 J1.0703
G3 X-16.8313 Y-10.4532 I-3.2024 J0.6108
G1 X-16.8313 Y-7.9157
G1 Z-0.55 F30
G1 X-16.8313 Y-7.3836 F60
G1 Z-0.8 F30
G1 X-16.8313 Y-7.1321 F60
G3 X-16.8539 Y-6.7135 I-3.8921 J0
G3 X-16.9204 Y-6.309 I-3.6936 J-0.3996
G3 X-17.0311 Y-5.9143 I-3.627 J-0.8041
G3 X-17.1875 Y-5.5253 I-3.6839 J-1.2559
G3 X-17.3849 Y-5.1555 I-3.5274 J-1.6449
G3 X-17.6161 Y-4.817 I-3.1786 J-1.9231
G3 X-17.8833 Y-4.506 I-2.9474 J-2.2616
G3 X-18.1894 Y-4.2196 I-2.808 J-2.6951
G1 X-21.2658 Y-1.6382
G2 X-21.7153 Y-1.1687 I1.9191 J2.2871
G2 X-22.0526 Y-0.6129 I2.3686 J1.8175
G2 X-22.2615 Y0.0026 I2.7058 J1.2617
G2 X-22.3323 Y0.6488 I2.9148 J0.6462
G1 X-22.3323 Y1.9636
G3 X-22.4573 Y2.0886 I-0.125 J0
G1 X-26.0374 Y2.0886
G3 X-26.1624 Y1.9636 I0 J-0.125
G1 X-26.1624 Y0.6488
G2 X-26.2331 Y0.0026 I-2.9856 J0
G2 X-26.4421 Y-0.6129 I-2.9148 J0.6462
G2 X-26.7793 Y-1.1687 I-2.7058 J1.2617
G2 X-27.2289 Y-1.6382 I-2.3686 J1.8175
G1 X-30.3052 Y-4.2196
G3 X-30.6114 Y-4.506 I2.5018 J-2.9815
G3 X-30.8785 Y-4.817 I2.6803 J-2.5726
G3 X-31.1098 Y-5.1555 I2.9474 J-2.2616
G3 X-31.3071 Y-5.5253 I3.3301 J-2.0147
G3 X-31.4636 Y-5.9143 I3.5274 J-1.6449
G3 X-31.5743 Y-6.309 I3.5164 J-1.1988
G3 X-31.6408 Y-6.7135 I3.627 J-0.8041
G3 X-31.6634 Y-7.1321 I3.8695 J-0.4186
G1 X-31.6634 Y-7.5938
G1 Z-0.55 F30
G1 X-31.6634 Y-8.0938 F60
G1 Z-0.8 F30
G1 X-31.6634 Y-10.4532 F60
G3 X-31.6056 Y-11.064 I3.2601 J0
G3 X-31.4423 Y-11.6103 I2.7473 J0.524
G3 X-31.1715 Y-12.1121 I2.5839 J1.0703
G3 X-30.7804 Y-12.5848 I2.6964 J1.8325
G3 X-30.3077 Y-12.9759 I2.3053 J2.3053
G3 X-29.8059 Y-13.2467 I1.5721 J2.3132
G3 X-29.2596 Y-13.41 I1.0703 J2.5839
G3 X-28.6488 Y-13.4678 I0.6108 J3.2024

(Back Leg)
G0 Z0.1
G0 X-32.0584 Y-15.7278
G1 Z-0.16 F30
G1 X-17.6154 Y-15.7278 F60
G1 X-17.1154 Y-15.7278
G1 X-16.4363 Y-15.7278
G3 X-16.1891 Y-15.7119 I0 J1.9272
G3 X-15.9533 Y-15.6652 I-0.2316 J1.7911
G3 X-15.7258 Y-15.5877 I-0.4674 J1.7444
G3 X-15.5038 Y-15.4779 I-0.7416 J1.7788
G3 X-15.2977 Y-15.3405 I-0.9636 J1.669
G3 X-15.1168 Y-15.1823 I-1.0961 J1.4353
G3 X-14.9586 Y-15.0014 I-1.277 J1.277
G3 X-14.8212 Y-14.7953 I-1.5316 J1.1697
G3 X-14.7114 Y-14.5732 I-1.669 J0.9636
G3 X-14.6339 Y-14.3457 I-1.6669 J0.6949
G3 X-14.5872 Y-14.11 I-1.7444 J0.4674
G3 X-14.5713 Y-13.8628 I-1.9113 J0.2472
G1 X-14.5713 Y-5.8172
G1 X-14.5713 Y-5.3439
G1 X-14.5713 Y-5.3439
G3 X-14.5715 Y-5.3172 I-2.2272 J0
G3 X-14.6241 Y-4.8619 I-2.227 J-0.0268
G3 X-14.78 Y-4.4027 I-2.1744 J-0.4821
G3 X-15.0316 Y-3.9881 I-2.0185 J-0.9413
G3 X-15.3669 Y-3.6378 I-1.767 J-1.3558
G1 X-19.8131 Y0.093
G2 X-19.9224 Y0.2071 I0.4664 J0.5558
G2 X-20.0043 Y0.3422 I0.5756 J0.4417
G2 X-20.0551 Y0.4918 I0.6576 J0.3066
G2 X-20.0723 Y0.6488 I0.7084 J0.157
G1 X-20.0723 Y1.9266
G2 X-20.061 Y2.0125 I0.3319 J0
G2 X-20.0278 Y2.0925 I0.3205 J-0.0859
G2 X-19.9751 Y2.1613 I0.2874 J-0.1659
G2 X-19.9064 Y2.214 I0.2347 J-0.2347
G2 X-19.8263 Y2.2471 I0.1659 J-0.2874
G2 X-19.7404 Y2.2584 I0.0859 J-0.3205
G1 X-19.3841 Y2.2584
G2 X-19.3147 Y2.2519 I0 J-0.3707
G2 X-19.2566 Y2.2345 I-0.0557 J-0.2922
G2 X-19.2032 Y2.2057 I-0.1138 J-0.2748
G2 X-19.1495 Y2.1613 I-0.2084 J-0.3066
G2 X-19.105 Y2.1075 I-0.2621 J-0.2621
G2 X-19.0762 Y2.0541 I-0.246 J-0.1672
G2 X-19.0589 Y1.996 I-0.2748 J-0.1138
G2 X-19.0523 Y1.9266 I-0.3641 J-0.0695
G1 X-19.0523 Y1.6334
G3 X-18.9273 Y1.5084 I0.125 J0
G1 X-15.6174 Y1.5084
G3 X-15.4067 Y1.5284 I0 J1.1244
G3 X-15.216 Y1.5854 I-0.183 J0.9594
G3 X-15.0408 Y1.68 I-0.3738 J0.9023
G3 X-14.8777 Y1.8148 I-0.632 J0.9299
G3 X-14.7428 Y1.9779 I-0.795 J0.795
G3 X-14.6483 Y2.1531 I-0.8078 J0.549
G3 X-14.5912 Y2.3439 I-0.9023 J0.3738
G3 X-14.5713 Y2.5546 I-1.1045 J0.2107
G1 X-14.5713 Y13.6279
G1 X-14.5713 Y14.1279
G1 X-14.5713 Y14.8772
G3 X-14.6963 Y15.0022 I-0.125 J0
G1 X-17.9363 Y15.0022
G3 X-18.0613 Y14.8772 I0 J-0.125
G1 X-18.0613 Y7.5016
G2 X-18.0839 Y7.1515 I-2.7294 J0
G2 X-18.1494 Y6.8202 I-2.5165 J0.3255
G2 X-18.2583 Y6.5006 I-2.4509 J0.6567
G2 X-18.4138 Y6.1861 I-2.5193 J1.0503
G2 X-18.6084 Y5.8942 I-2.3637 J1.3647
G2 X-18.8307 Y5.6401 I-2.0166 J1.5401
G2 X-19.0849 Y5.4177 I-1.7942 J1.7942
G2 X-19.3768 Y5.2231 I-1.6566 J2.1692
G2 X-19.6912 Y5.0676 I-1.3647 J2.3637
G2 X-20.0109 Y4.9587 I-0.9764 J2.342
G2 X-20.3421 Y4.8932 I-0.6567 J2.4509
G2 X-20.6922 Y4.8707 I-0.3501 J2.7069
G1 X-27.8025 Y4.8707
G2 X-28.3393 Y4.9214 I0 J2.8651
G2 X-28.8126 Y5.0629 I0.454 J2.3803
G2 X-29.2473 Y5.2975 I0.9273 J2.2388
G2 X-29.6628 Y5.6412 I1.6104 J2.3696
G2 X-30.0065 Y6.0567 I2.0259 J2.0259
G2 X-30.2411 Y6.4914 I2.0042 J1.3621
G2 X-30.3826 Y6.9647 I2.2388 J0.9273
G2 X-30.4334 Y7.5016 I2.8143 J0.5368
G1 X-30.4334 Y14.8772
G3 X-30.5584 Y15.0022 I-0.125 J0
G1 X-33.7984 Y15.0022
G3 X-33.9234 Y14.8772 I0 J-0.125
G1 X-33.9234 Y13.856
G1 X-33.9234 Y13.356
G1 X-33.9234 Y2.5546
G3 X-33.8877 Y2.2838 I1.0461 J0
G3 X-33.7832 Y2.0315 I1.0105 J0.2708
G3 X-33.617 Y1.8148 I0.906 J0.5231
G3 X-33.4003 Y1.6486 I0.7397 J0.7397
G3 X-33.148 Y1.5441 I0.5231 J0.906
G3 X-32.8773 Y1.5084 I0.2708 J1.0105
G1 X-29.5674 Y1.5084
G3 X-29.4424 Y1.6334 I0 J0.125
G1 X-29.4424 Y1.9266
G2 X-29.4358 Y1.996 I0.3707 J0
G2 X-29.4184 Y2.0541 I0.2922 J-0.0557
G2 X-29.3896 Y2.1075 I0.2748 J-0.1138
G2 X-29.3452 Y2.1613 I0.3066 J-0.2084
G2 X-29.2914 Y2.2057 I0.2621 J-0.2621
G2 X-29.2381 Y2.2345 I0.1672 J-0.246
G2 X-29.18 Y2.2519 I0.1138 J-0.2748
G2 X-29.1105 Y2.2584 I0.0695 J-0.3641
G1 X-28.7542 Y2.2584
G2 X-28.6848 Y2.2519 I0 J-0.3707
G2 X-28.6267 Y2.2345 I-0.0557 J-0.2922
G2 X-28.5733 Y2.2057 I-0.1138 J-0.2748
G2 X-28.5196 Y2.1613 I-0.2084 J-0.3066
G2 X-28.4751 Y2.1075 I-0.2621 J-0.2621
G2 X-28.4463 Y2.0541 I-0.246 J-0.1672
G2 X-28.4289 Y1.996 I-0.2748 J-0.1138
G2 X-28.4224 Y1.9266 I-0.3641 J-0.0695
G1 X-28.4224 Y0.6488
G1 X-28.4224 Y0.6488
G2 X-28.4396 Y0.4918 I-0.7256 J0
G2 X-28.4904 Y0.3422 I-0.7084 J0.157
G2 X-28.5723 Y0.2071 I-0.6576 J0.3066
G2 X-28.6816 Y0.093 I-0.5756 J0.4417
G1 X-33.1278 Y-3.6378
G3 X-33.4631 Y-3.9881 I1.4316 J-1.7061
G3 X-33.7147 Y-4.4027 I1.767 J-1.3558
G3 X-33.8706 Y-4.8619 I2.0185 J-0.9413
G3 X-33.9234 Y-5.3439 I2.1744 J-0.4821
G1 X-33.9234 Y-6.5252
G1 X-33.9234 Y-7.0252
G1 X-33.9234 Y-13.8628
G3 X-33.9074 Y-14.11 I1.9272 J0
G3 X-33.8608 Y-14.3457 I1.7911 J0.2316
G3 X-33.7833 Y-14.5732 I1.7444 J0.4674
G3 X-33.6735 Y-14.7953 I1.7788 J0.7416
G3 X-33.5361 Y-15.0014 I1.669 J0.9636
G3 X-33.3779 Y-15.1823 I1.4353 J1.0961
G3 X-33.197 Y-15.3405 I1.277 J1.277
G3 X-32.9909 Y-15.4779 I1.1697 J1.5316
G3 X-32.7688 Y-15.5877 I0.9636 J1.669
G3 X-32.5413 Y-15.6652 I0.6949 J1.6669
G3 X-32.3055 Y-15.7119 I0.4674 J1.7444
G3 X-32.0584 Y-15.7278 I0.2472 J1.9113
G1 Z-0.32 F30
G1 X-17.6154 Y-15.7278 F60
G1 X-17.1154 Y-15.7278
G1 X-16.4363 Y-15.7278
G3 X-16.1891 Y-15.7119 I0 J1.9272
G3 X-15.9533 Y-15.6652 I-0.2316 J1.7911
G3 X-15.7258 Y-15.5877 I-0.4674 J1.7444
G3 X-15.5038 Y-15.4779 I-0.7416 J1.7788
G3 X-15.2977 Y-15.3405 I-0.9636 J1.669
G3 X-15.1168 Y-15.1823 I-1.0961 J1.4353
G3 X-14.9586 Y-15.0014 I-1.277 J1.277
G3 X-14.8212 Y-14.7953 I-1.5316 J1.1697
G3 X-14.7114 Y-14.5732 I-1.669 J0.9636
G3 X-14.6339 Y-14.3457 I-1.6669 J0.6949
G3 X-14.5872 Y-14.11 I-1.7444 J0.4674
G3 X-14.5713 Y-13.8628 I-1.9113 J0.2472
G1 X-14.5713 Y-5.8172
G1 X-14.5713 Y-5.3439
G1 X-14.5713 Y-5.3439
G3 X-14.5715 Y-5.3172 I-2.2272 J0
G3 X-14.6241 Y-4.8619 I-2.227 J-0.0268
G3 X-14.78 Y-4.4027 I-2.1744 J-0.4821
G3 X-15.0316 Y-3.9881 I-2.0185 J-0.9413
G3 X-15.3669 Y-3.6378 I-1.767 J-1.3558
G1 X-19.8131 Y0.093
G2 X-19.9224 Y0.2071 I0.4664 J0.5558
G2 X-20.0043 Y0.3422 I0.5756 J0.4417
G2 X-20.0551 Y0.4918 I0.6576 J0.3066
G2 X-20.0723 Y0.6488 I0.7084 J0.157
G1 X-20.0723 Y1.9266
G2 X-20.061 Y2.0125 I0.3319 J0
G2 X-20.0278 Y2.0925 I0.3205 J-0.0859
G2 X-19.9751 Y2.1613 I0.2874 J-0.1659
G2 X-19.9064 Y2.214 I0.2347 J-0.2347
G2 X-19.8263 Y2.2471 I0.1659 J-0.2874
G2 X-19.7404 Y2.2584 I0.0859 J-0.3205
G1 X-19.3841 Y2.2584
G2 X-19.3147 Y2.2519 I0 J-0.3707
G2 X-19.2566 Y2.2345 I-0.0557 J-0.2922
G2 X-19.2032 Y2.2057 I-0.1138 J-0.2748
G2 X-19.1495 Y2.1613 I-0.2084 J-0.3066
G2 X-19.105 Y2.1075 I-0.2621 J-0.2621
G2 X-19.0762 Y2.0541 I-0.246 J-0.1672
G2 X-19.0589 Y1.996 I-0.2748 J-0.1138
G2 X-19.0523 Y1.9266 I-0.3641 J-0.0695
G1 X-19.0523 Y1.6334
G3 X-18.9273 Y1.5084 I0.125 J0
G1 X-15.6174 Y1.5084
G3 X-15.4067 Y1.5284 I0 J1.1244
G3 X-15.216 Y1.5854 I-0.183 J0.9594
G3 X-15.0408 Y1.68 I-0.3738 J0.9023
G3 X-14.8777 Y1.8148 I-0.632 J0.9299
G3 X-14.7428 Y1.9779 I-0.795 J0.795
G3 X-14.6483 Y2.1531 I-0.8078 J0.549
G3 X-14.5912 Y2.3439 I-0.9023 J0.3738
G3 X-14.5713 Y2.5546 I-1.1045 J0.2107
G1 X-14.5713 Y13.6279
G1 X-14.5713 Y14.1279
G1 X-14.5713 Y14.8772
G3 X-14.6963 Y15.0022 I-0.125 J0
G1 X-17.9363 Y15.0022
G3 X-18.0613 Y14.8772 I0 J-0.125
G1 X-18.0613 Y7.5016
G2 X-18.0839 Y7.1515 I-2.7294 J0
G2 X-18.1494 Y6.8202 I-2.5165 J0.3255
G2 X-18.2583 Y6.5006 I-2.4509 J0.6567
G2 X-18.4138 Y6.1861 I-2.5193 J1.0503
G2 X-18.6084 Y5.8942 I-2.3637 J1.3647
G2 X-18.8307 Y5.6401 I-2.0166 J1.5401
G2 X-19.0849 Y5.4177 I-1.7942 J1.7942
G2 X-19.3768 Y5.2231 I-1.6566 J2.1692
G2 X-19.6912 Y5.0676 I-1.3647 J2.3637
G2 X-20.0109 Y4.9587 I-0.9764 J2.342
G2 X-20.3421 Y4.8932 I-0.6567 J2.4509
G2 X-20.6922 Y4.8707 I-0.3501 J2.7069
G1 X-27.8025 Y4.8707
G2 X-28.3393 Y4.9214 I0 J2.8651
G2 X-28.8126 Y5.0629 I0.454 J2.3803
G2 X-29.2473 Y5.2975 I0.9273 J2.2388
G2 X-29.6628 Y5.6412 I1.6104 J2.3696
G2 X-30.0065 Y6.0567 I2.0259 J2.0259
G2 X-30.2411 Y6.4914 I2.0042 J1.3621
G2 X-30.3826 Y6.9647 I2.2388 J0.9273
G2 X-30.4334 Y7.5016 I2.8143 J0.5368
G1 X-30.4334 Y14.8772
G3 X-30.5584 Y15.0022 I-0.125 J0
G1 X-33.7984 Y15.0022
G3 X-33.9234 Y14.8772 I0 J-0.125
G1 X-33.9234 Y13.856
G1 X-33.9234 Y13.356
G1 X-33.9234 Y2.5546
G3 X-33.8877 Y2.2838 I1.0461 J0
G3 X-33.7832 Y2.0315 I1.0105 J0.2708
G3 X-33.617 Y1.8148 I0.906 J0.5231
G3 X-33.4003 Y1.6486 I0.7397 J0.7397
G3 X-33.148 Y1.5441 I0.5231 J0.906
G3 X-32.8773 Y1.5084 I0.2708 J1.0105
G1 X-29.5674 Y1.5084
G3 X-29.4424 Y1.6334 I0 J0.125
G1 X-29.4424 Y1.9266
G2 X-29.4358 Y1.996 I0.3707 J0
G2 X-29.4184 Y2.0541 I0.2922 J-0.0557
G2 X-29.3896 Y2.1075 I0.2748 J-0.1138
G2 X-29.3452 Y2.1613 I0.3066 J-0.2084
G2 X-29.2914 Y2.2057 I0.2621 J-0.2621
G2 X-29.2381 Y2.2345 I0.1672 J-0.246
G2 X-29.18 Y2.2519 I0.1138 J-0.2748
G2 X-29.1105 Y2.2584 I0.0695 J-0.3641
G1 X-28.7542 Y2.2584
G2 X-28.6848 Y2.2519 I0 J-0.3707
G2 X-28.6267 Y2.2345 I-0.0557 J-0.2922
G2 X-28.5733 Y2.2057 I-0.1138 J-0.2748
G2 X-28.5196 Y2.1613 I-0.2084 J-0.3066
G2 X-28.4751 Y2.1075 I-0.2621 J-0.2621
G2 X-28.4463 Y2.0541 I-0.246 J-0.1672
G2 X-28.4289 Y1.996 I-0.2748 J-0.1138
G2 X-28.4224 Y1.9266 I-0.3641 J-0.0695
G1 X-28.4224 Y0.6488
G1 X-28.4224 Y0.6488
G2 X-28.4396 Y0.4918 I-0.7256 J0
G2 X-28.4904 Y0.3422 I-0.7084 J0.157
G2 X-28.5723 Y0.2071 I-0.6576 J0.3066
G2 X-28.6816 Y0.093 I-0.5756 J0.4417
G1 X-33.1278 Y-3.6378
G3 X-33.4631 Y-3.9881 I1.4316 J-1.7061
G3 X-33.7147 Y-4.4027 I1.767 J-1.3558
G3 X-33.8706 Y-4.8619 I2.0185 J-0.9413
G3 X-33.9234 Y-5.3439 I2.1744 J-0.4821
G1 X-33.9234 Y-6.5252
G1 X-33.9234 Y-7.0252
G1 X-33.9234 Y-13.8628
G3 X-33.9074 Y-14.11 I1.9272 J0
G3 X-33.8608 Y-14.3457 I1.7911 J0.2316
G3 X-33.7833 Y-14.5732 I1.7444 J0.4674
G3 X-33.6735 Y-14.7953 I1.7788 J0.7416
G3 X-33.5361 Y-15.0014 I1.669 J0.9636
G3 X-33.3779 Y-15.1823 I1.4353 J1.0961
G3 X-33.197 Y-15.3405 I1.277 J1.277
G3 X-32.9909 Y-15.4779 I1.1697 J1.5316
G3 X-32.7688 Y-15.5877 I0.9636 J1.669
G3 X-32.5413 Y-15.6652 I0.6949 J1.6669
G3 X-32.3055 Y-15.7119 I0.4674 J1.7444
G3 X-32.0584 Y-15.7278 I0.2472 J1.9113
G1 Z-0.48 F30
G1 X-17.6154 Y-15.7278 F60
G1 X-17.1154 Y-15.7278
G1 X-16.4363 Y-15.7278
G3 X-16.1891 Y-15.7119 I0 J1.9272
G3 X-15.9533 Y-15.6652 I-0.2316 J1.7911
G3 X-15.7258 Y-15.5877 I-0.4674 J1.7444
G3 X-15.5038 Y-15.4779 I-0.7416 J1.7788
G3 X-15.2977 Y-15.3405 I-0.9636 J1.669
G3 X-15.1168 Y-15.1823 I-1.0961 J1.4353
G3 X-14.9586 Y-15.0014 I-1.277 J1.277
G3 X-14.8212 Y-14.7953 I-1.5316 J1.1697
G3 X-14.7114 Y-14.5732 I-1.669 J0.9636
G3 X-14.6339 Y-14.3457 I-1.6669 J0.6949
G3 X-14.5872 Y-14.11 I-1.7444 J0.4674
G3 X-14.5713 Y-13.8628 I-1.9113 J0.2472
G1 X-14.5713 Y-5.8172
G1 X-14.5713 Y-5.3439
G1 X-14.5713 Y-5.3439
G3 X-14.5715 Y-5.3172 I-2.2272 J0
G3 X-14.6241 Y-4.8619 I-2.227 J-0.0268
G3 X-14.78 Y-4.4027 I-2.1744 J-0.4821
G3 X-15.0316 Y-3.9881 I-2.0185 J-0.9413
G3 X-15.3669 Y-3.6378 I-1.767 J-1.3558
G1 X-19.8131 Y0.093
G2 X-19.9224 Y0.2071 I0.4664 J0.5558
G2 X-20.0043 Y0.3422 I0.5756 J0.4417
G2 X-20.0551 Y0.4918 I0.6576 J0.3066
G2 X-20.0723 Y0.6488 I0.7084 J0.157
G1 X-20.0723 Y1.9266
G2 X-20.061 Y2.0125 I0.3319 J0
G2 X-20.0278 Y2.0925 I0.3205 J-0.0859
G2 X-19.9751 Y2.1613 I0.2874 J-0.1659
G2 X-19.9064 Y2.214 I0.2347 J-0.2347
G2 X-19.8263 Y2.2471 I0.1659 J-0.2874
G2 X-19.7404 Y2.2584 I0.0859 J-0.3205
G1 X-19.3841 Y2.2584
G2 X-19.3147 Y2.2519 I0 J-0.3707
G2 X-19.2566 Y2.2345 I-0.0557 J-0.2922
G2 X-19.2032 Y2.2057 I-0.1138 J-0.2748
G2 X-19.1495 Y2.1613 I-0.2084 J-0.3066
G2 X-19.105 Y2.1075 I-0.2621 J-0.2621
G2 X-19.0762 Y2.0541 I-0.246 J-0.1672
G2 X-19.0589 Y1.996 I-0.2748 J-0.1138
G2 X-19.0523 Y1.9266 I-0.3641 J-0.0695
G1 X-19.0523 Y1.6334
G3 X-18.9273 Y1.5084 I0.125 J0
G1 X-15.6174 Y1.5084
G3 X-15.4067 Y1.5284 I0 J1.1244
G3 X-15.216 Y1.5854 I-0.183 J0.9594
G3 X-15.0408 Y1.68 I-0.3738 J0.9023
G3 X-14.8777 Y1.8148 I-0.632 J0.9299
G3 X-14.7428 Y1.9779 I-0.795 J0.795
G3 X-14.6483 Y2.1531 I-0.8078 J0.549
G3 X-14.5912 Y2.3439 I-0.9023 J0.3738
G3 X-14.5713 Y2.5546 I-1.1045 J0.2107
G1 X-14.5713 Y13.6279
G1 X-14.5713 Y14.1279
G1 X-14.5713 Y14.8772
G3 X-14.6963 Y15.0022 I-0.125 J0
G1 X-17.9363 Y15.0022
G3 X-18.0613 Y14.8772 I0 J-0.125
G1 X-18.0613 Y7.5016
G2 X-18.0839 Y7.1515 I-2.7294 J0
G2 X-18.1494 Y6.8202 I-2.5165 J0.3255
G2 X-18.2583 Y6.5006 I-2.4509 J0.6567
G2 X-18.4138 Y6.1861 I-2.5193 J1.0503
G2 X-18.6084 Y5.8942 I-2.3637 J1.3647
G2 X-18.8307 Y5.6401 I-2.0166 J1.5401
G2 X-19.0849 Y5.4177 I-1.7942 J1.7942
G2 X-19.3768 Y5.2231 I-1.6566 J2.1692
G2 X-19.6912 Y5.0676 I-1.3647 J2.3637
G2 X-20.0109 Y4.9587 I-0.9764 J2.342
G2 X-20.3421 Y4.8932 I-0.6567 J2.4509
G2 X-20.6922 Y4.8707 I-0.3501 J2.7069
G1 X-27.8025 Y4.8707
G2 X-28.3393 Y4.9214 I0 J2.8651
G2 X-28.8126 Y5.0629 I0.454 J2.3803
G2 X-29.2473 Y5.2975 I0.9273 J2.2388
G2 X-29.6628 Y5.6412 I1.6104 J2.3696
G2 X-30.0065 Y6.0567 I2.0259 J2.0259
G2 X-30.2411 Y6.4914 I2.0042 J1.3621
G2 X-30.3826 Y6.9647 I2.2388 J0.9273
G2 X-30.4334 Y7.5016 I2.8143 J0.5368
G1 X-30.4334 Y14.8772
G3 X-30.5584 Y15.0022 I-0.125 J0
G1 X-33.7984 Y15.0022
G3 X-33.9234 Y14.8772 I0 J-0.125
G1 X-33.9234 Y13.856
G1 X-33.9234 Y13.356
G1 X-33.9234 Y2.5546
G3 X-33.8877 Y2.2838 I1.0461 J0
G3 X-33.7832 Y2.0315 I1.0105 J0.2708
G3 X-33.617 Y1.8148 I0.906 J0.5231
G3 X-33.4003 Y1.6486 I0.7397 J0.7397
G3 X-33.148 Y1.5441 I0.5231 J0.906
G3 X-32.8773 Y1.5084 I0.2708 J1.0105
G1 X-29.5674 Y1.5084
G3 X-29.4424 Y1.6334 I0 J0.125
G1 X-29.4424 Y1.9266
G2 X-29.4358 Y1.996 I0.3707 J0
G2 X-29.4184 Y2.0541 I0.2922 J-0.0557
G2 X-29.3896 Y2.1075 I0.2748 J-0.1138
G2 X-29.3452 Y2.1613 I0.3066 J-0.2084
G2 X-29.2914 Y2.2057 I0.2621 J-0.2621
G2 X-29.2381 Y2.2345 I0.1672 J-0.246
G2 X-29.18 Y2.2519 I0.1138 J-0.2748
G2 X-29.1105 Y2.2584 I0.0695 J-0.3641
G1 X-28.7542 Y2.2584
G2 X-28.6848 Y2.2519 I0 J-0.3707
G2 X-28.6267 Y2.2345 I-0.0557 J-0.2922
G2 X-28.5733 Y2.2057 I-0.1138 J-0.2748
G2 X-28.5196 Y2.1613 I-0.2084 J-0.3066
G2 X-28.4751 Y2.1075 I-0.2621 J-0.2621
G2 X-28.4463 Y2.0541 I-0.246 J-0.1672
G2 X-28.4289 Y1.996 I-0.2748 J-0.1138
G2 X-28.4224 Y1.9266 I-0.3641 J-0.0695
G1 X-28.4224 Y0.6488
G1 X-28.4224 Y0.6488
G2 X-28.4396 Y0.4918 I-0.7256 J0
G2 X-28.4904 Y0.3422 I-0.7084 J0.157
G2 X-28.5723 Y0.2071 I-0.6576 J0.3066
G2 X-28.6816 Y0.093 I-0.5756 J0.4417
G1 X-33.1278 Y-3.6378
G3 X-33.4631 Y-3.9881 I1.4316 J-1.7061
G3 X-33.7147 Y-4.4027 I1.767 J-1.3558
G3 X-33.8706 Y-4.8619 I2.0185 J-0.9413
G3 X-33.9234 Y-5.3439 I2.1744 J-0.4821
G1 X-33.9234 Y-6.5252
G1 X-33.9234 Y-7.0252
G1 X-33.9234 Y-13.8628
G3 X-33.9074 Y-14.11 I1.9272 J0
G3 X-33.8608 Y-14.3457 I1.7911 J0.2316
G3 X-33.7833 Y-14.5732 I1.7444 J0.4674
G3 X-33.6735 Y-14.7953 I1.7788 J0.7416
G3 X-33.5361 Y-15.0014 I1.669 J0.9636
G3 X-33.3779 Y-15.1823 I1.4353 J1.0961
G3 X-33.197 Y-15.3405 I1.277 J1.277
G3 X-32.9909 Y-15.4779 I1.1697 J1.5316
G3 X-32.7688 Y-15.5877 I0.9636 J1.669
G3 X-32.5413 Y-15.6652 I0.6949 J1.6669
G3 X-32.3055 Y-15.7119 I0.4674 J1.7444
G3 X-32.0584 Y-15.7278 I0.2472 J1.9113
G1 Z-0.64 F30
G1 X-17.6154 Y-15.7278 F60
G1 Z-0.55 F30
G1 X-17.1154 Y-15.7278 F60
G1 Z-0.64 F30
G1 X-16.4363 Y-15.7278 F60
G3 X-16.1891 Y-15.7119 I0 J1.9272
G3 X-15.9533 Y-15.6652 I-0.2316 J1.7911
G3 X-15.7258 Y-15.5877 I-0.4674 J1.7444
G3 X-15.5038 Y-15.4779 I-0.7416 J1.7788
G3 X-15.2977 Y-15.3405 I-0.9636 J1.669
G3 X-15.1168 Y-15.1823 I-1.0961 J1.4353
G3 X-14.9586 Y-15.0014 I-1.277 J1.277
G3 X-14.8212 Y-14.7953 I-1.5316 J1.1697
G3 X-14.7114 Y-14.5732 I-1.669 J0.9636
G3 X-14.6339 Y-14.3457 I-1.6669 J0.6949
G3 X-14.5872 Y-14.11 I-1.7444 J0.4674
G3 X-14.5713 Y-13.8628 I-1.9113 J0.2472
G1 X-14.5713 Y-5.8172
G1 Z-0.55 F30
G1 X-14.5713 Y-5.3439 F60
G1 X-14.5713 Y-5.3439
G3 X-14.5715 Y-5.3172 I-2.2272 J0
G1 Z-0.64 F30
G3 X-14.6241 Y-4.8619 I-2.227 J-0.0268 F60
G3 X-14.78 Y-4.4027 I-2.1744 J-0.4821
G3 X-15.0316 Y-3.9881 I-2.0185 J-0.9413
G3 X-15.3669 Y-3.6378 I-1.767 J-1.3558
G1 X-19.8131 Y0.093
G2 X-19.9224 Y0.2071 I0.4664 J0.5558
G2 X-20.0043 Y0.3422 I0.5756 J0.4417
G2 X-20.0551 Y0.4918 I0.6576 J0.3066
G2 X-20.0723 Y0.6488 I0.7084 J0.157
G1 X-20.0723 Y1.9266
G2 X-20.061 Y2.0125 I0.3319 J0
G2 X-20.0278 Y2.0925 I0.3205 J-0.0859
G2 X-19.9751 Y2.1613 I0.2874 J-0.1659
G2 X-19.9064 Y2.214 I0.2347 J-0.2347
G2 X-19.8263 Y2.2471 I0.1659 J-0.2874
G2 X-19.7404 Y2.2584 I0.0859 J-0.3205
G1 X-19.3841 Y2.2584
G2 X-19.3147 Y2.2519 I0 J-0.3707
G2 X-19.2566 Y2.2345 I-0.0557 J-0.2922
G2 X-19.2032 Y2.2057 I-0.1138 J-0.2748
G2 X-19.1495 Y2.1613 I-0.2084 J-0.3066
G2 X-19.105 Y2.1075 I-0.2621 J-0.2621
G2 X-19.0762 Y2.0541 I-0.246 J-0.1672
G2 X-19.0589 Y1.996 I-0.2748 J-0.1138
G2 X-19.0523 Y1.9266 I-0.3641 J-0.0695
G1 X-19.0523 Y1.6334
G3 X-18.9273 Y1.5084 I0.125 J0
G1 X-15.6174 Y1.5084
G3 X-15.4067 Y1.5284 I0 J1.1244
G3 X-15.216 Y1.5854 I-0.183 J0.9594
G3 X-15.0408 Y1.68 I-0.3738 J0.9023
G3 X-14.8777 Y1.8148 I-0.632 J0.9299
G3 X-14.7428 Y1.9779 I-0.795 J0.795
G3 X-14.6483 Y2.1531 I-0.8078 J0.549
G3 X-14.5912 Y2.3439 I-0.9023 J0.3738
G3 X-14.5713 Y2.5546 I-1.1045 J0.2107
G1 X-14.5713 Y13.6279
G1 Z-0.55 F30
G1 X-14.5713 Y14.1279 F60
G1 Z-0.64 F30
G1 X-14.5713 Y14.8772 F60
G3 X-14.6963 Y15.0022 I-0.125 J0
G1 X-17.9363 Y15.0022
G3 X-18.0613 Y14.8772 I0 J-0.125
G1 X-18.0613 Y7.5016
G2 X-18.0839 Y7.1515 I-2.7294 J0
G2 X-18.1494 Y6.8202 I-2.5165 J0.3255
G2 X-18.2583 Y6.5006 I-2.4509 J0.6567
G2 X-18.4138 Y6.1861 I-2.5193 J1.0503
G2 X-18.6084 Y5.8942 I-2.3637 J1.3647
G2 X-18.8307 Y5.6401 I-2.0166 J1.5401
G2 X-19.0849 Y5.4177 I-1.7942 J1.7942
G2 X-19.3768 Y5.2231 I-1.6566 J2.1692
G2 X-19.6912 Y5.0676 I-1.3647 J2.3637
G2 X-20.0109 Y4.9587 I-0.9764 J2.342
G2 X-20.3421 Y4.8932 I-0.6567 J2.4509
G2 X-20.6922 Y4.8707 I-0.3501 J2.7069
G1 X-27.8025 Y4.8707
G2 X-28.3393 Y4.9214 I0 J2.8651
G2 X-28.8126 Y5.0629 I0.454 J2.3803
G2 X-29.2473 Y5.2975 I0.9273 J2.2388
G2 X-29.6628 Y5.6412 I1.6104 J2.3696
G2 X-30.0065 Y6.0567 I2.0259 J2.0259
G2 X-30.2411 Y6.4914 I2.0042 J1.3621
G2 X-30.3826 Y6.9647 I2.2388 J0.9273
G2 X-30.4334 Y7.5016 I2.8143 J0.5368
G1 X-30.4334 Y14.8772
G3 X-30.5584 Y15.0022 I-0.125 J0
G1 X-33.7984 Y15.0022
G3 X-33.9234 Y14.8772 I0 J-0.125
G1 X-33.9234 Y13.856
G1 Z-0.55 F30
G1 X-33.9234 Y13.356 F60
G1 Z-0.64 F30
G1 X-33.9234 Y2.5546 F60
G3 X-33.8877 Y2.2838 I1.0461 J0
G3 X-33.7832 Y2.0315 I1.0105 J0.2708
G3 X-33.617 Y1.8148 I0.906 J0.5231
G3 X-33.4003 Y1.6486 I0.7397 J0.7397
G3 X-33.148 Y1.5441 I0.5231 J0.906
G3 X-32.8773 Y1.5084 I0.2708 J1.0105
G1 X-29.5674 Y1.5084
G3 X-29.4424 Y1.6334 I0 J0.125
G1 X-29.4424 Y1.9266
G2 X-29.4358 Y1.996 I0.3707 J0
G2 X-29.4184 Y2.0541 I0.2922 J-0.0557
G2 X-29.3896 Y2.1075 I0.2748 J-0.1138
G2 X-29.3452 Y2.1613 I0.3066 J-0.2084
G2 X-29.2914 Y2.2057 I0.2621 J-0.2621
G2 X-29.2381 Y2.2345 I0.1672 J-0.246
G2 X-29.18 Y2.2519 I0.1138 J-0.2748
G2 X-29.1105 Y2.2584 I0.0695 J-0.3641
G1 X-28.7542 Y2.2584
G2 X-28.6848 Y2.2519 I0 J-0.3707
G2 X-28.6267 Y2.2345 I-0.0557 J-0.2922
G2 X-28.5733 Y2.2057 I-0.1138 J-0.2748
G2 X-28.5196 Y2.1613 I-0.2084 J-0.3066
G2 X-28.4751 Y2.1075 I-0.2621 J-0.2621
G2 X-28.4463 Y2.0541 I-0.246 J-0.1672
G2 X-28.4289 Y1.996 I-0.2748 J-0.1138
G2 X-28.4224 Y1.9266 I-0.3641 J-0.0695
G1 X-28.4224 Y0.6488
G1 X-28.4224 Y0.6488
G2 X-28.4396 Y0.4918 I-0.7256 J0
G2 X-28.4904 Y0.3422 I-0.7084 J0.157
G2 X-28.5723 Y0.2071 I-0.6576 J0.3066
G2 X-28.6816 Y0.093 I-0.5756 J0.4417
G1 X-33.1278 Y-3.6378
G3 X-33.4631 Y-3.9881 I1.4316 J-1.7061
G3 X-33.7147 Y-4.4027 I1.767 J-1.3558
G3 X-33.8706 Y-4.8619 I2.0185 J-0.9413
G3 X-33.9234 Y-5.3439 I2.1744 J-0.4821
G1 X-33.9234 Y-6.5252
G1 Z-0.55 F30
G1 X-33.9234 Y-7.0252 F60
G1 Z-0.64 F30
G1 X-33.9234 Y-13.8628 F60
G3 X-33.9074 Y-14.11 I1.9272 J0
G3 X-33.8608 Y-14.3457 I1.7911 J0.2316
G3 X-33.7833 Y-14.5732 I1.7444 J0.4674
G3 X-33.6735 Y-14.7953 I1.7788 J0.7416
G3 X-33.5361 Y-15.0014 I1.669 J0.9636
G3 X-33.3779 Y-15.1823 I1.4353 J1.0961
G3 X-33.197 Y-15.3405 I1.277 J1.277
G3 X-32.9909 Y-15.4779 I1.1697 J1.5316
G3 X-32.7688 Y-15.5877 I0.9636 J1.669
G3 X-32.5413 Y-15.6652 I0.6949 J1.6669
G3 X-32.3055 Y-15.7119 I0.4674 J1.7444
G3 X-32.0584 Y-15.7278 I0.2472 J1.9113
G1 Z-0.8 F30
G1 X-17.6154 Y-15.7278 F60
G1 Z-0.55 F30
G1 X-17.1154 Y-15.7278 F60
G1 Z-0.8 F30
G1 X-16.4363 Y-15.7278 F60
G3 X-16.1891 Y-15.7119 I0 J1.9272
G3 X-15.9533 Y-15.6652 I-0.2316 J1.7911
G3 X-15.7258 Y-15.5877 I-0.4674 J1.7444
G3 X-15.5038 Y-15.4779 I-0.7416 J1.7788
G3 X-15.2977 Y-15.3405 I-0.9636 J1.669
G3 X-15.1168 Y-15.1823 I-1.0961 J1.4353
G3 X-14.9586 Y-15.0014 I-1.277 J1.277
G3 X-14.8212 Y-14.7953 I-1.5316 J1.1697
G3 X-14.7114 Y-14.5732 I-1.669 J0.9636
G3 X-14.6339 Y-14.3457 I-1.6669 J0.6949
G3 X-14.5872 Y-14.11 I-1.7444 J0.4674
G3 X-14.5713 Y-13.8628 I-1.9113 J0.2472
G1 X-14.5713 Y-5.8172
G1 Z-0.55 F30
G1 X-14.5713 Y-5.3439 F60
G1 X-14.5713 Y-5.3439
G3 X-14.5715 Y-5.3172 I-2.2272 J0
G1 Z-0.8 F30
G3 X-14.6241 Y-4.8619 I-2.227 J-0.0268 F60
G3 X-14.78 Y-4.4027 I-2.1744 J-0.4821
G3 X-15.0316 Y-3.9881 I-2.0185 J-0.9413
G3 X-15.3669 Y-3.6378 I-1.767 J-1.3558
G1 X-19.8131 Y0.093
G2 X-19.9224 Y0.2071 I0.4664 J0.5558
G2 X-20.0043 Y0.3422 I0.5756 J0.4417
G2 X-20.0551 Y0.4918 I0.6576 J0.3066
G2 X-20.0723 Y0.6488 I0.7084 J0.157
G1 X-20.0723 Y1.9266
G2 X-20.061 Y2.0125 I0.3319 J0
G2 X-20.0278 Y2.0925 I0.3205 J-0.0859
G2 X-19.9751 Y2.1613 I0.2874 J-0.1659
G2 X-19.9064 Y2.214 I0.2347 J-0.2347
G2 X-19.8263 Y2.2471 I0.1659 J-0.2874
G2 X-19.7404 Y2.2584 I0.0859 J-0.3205
G1 X-19.3841 Y2.2584
G2 X-19.3147 Y2.2519 I0 J-0.3707
G2 X-19.2566 Y2.2345 I-0.0557 J-0.2922
G2 X-19.2032 Y2.2057 I-0.1138 J-0.2748
G2 X-19.1495 Y2.1613 I-0.2084 J-0.3066
G2 X-19.105 Y2.1075 I-0.2621 J-0.2621
G2 X-19.0762 Y2.0541 I-0.246 J-0.1672
G2 X-19.0589 Y1.996 I-0.2748 J-0.1138
G2 X-19.0523 Y1.9266 I-0.3641 J-0.0695
G1 X-19.0523 Y1.6334
G3 X-18.9273 Y1.5084 I0.125 J0
G1 X-15.6174 Y1.5084
G3 X-15.4067 Y1.5284 I0 J1.1244
G3 X-15.216 Y1.5854 I-0.183 J0.9594
G3 X-15.0408 Y1.68 I-0.3738 J0.9023
G3 X-14.8777 Y1.8148 I-0.632 J0.9299
G3 X-14.7428 Y1.9779 I-0.795 J0.795
G3 X-14.6483 Y2.1531 I-0.8078 J0.549
G3 X-14.5912 Y2.3439 I-0.9023 J0.3738
G3 X-14.5713 Y2.5546 I-1.1045 J0.2107
G1 X-14.5713 Y13.6279
G1 Z-0.55 F30
G1 X-14.5713 Y14.1279 F60
G1 Z-0.8 F30
G1 X-14.5713 Y14.8772 F60
G3 X-14.6963 Y15.0022 I-0.125 J0
G1 X-17.9363 Y15.0022
G3 X-18.0613 Y14.8772 I0 J-0.125
G1 X-18.0613 Y7.5016
G2 X-18.0839 Y7.1515 I-2.7294 J0
G2 X-18.1494 Y6.8202 I-2.5165 J0.3255
G2 X-18.2583 Y6.5006 I-2.4509 J0.6567
G2 X-18.4138 Y6.1861 I-2.5193 J1.0503
G2 X-18.6084 Y5.8942 I-2.3637 J1.3647
G2 X-18.8307 Y5.6401 I-2.0166 J1.5401
G2 X-19.0849 Y5.4177 I-1.7942 J1.7942
G2 X-19.3768 Y5.2231 I-1.6566 J2.1692
G2 X-19.6912 Y5.0676 I-1.3647 J2.3637
G2 X-20.0109 Y4.9587 I-0.9764 J2.342
G2 X-20.3421 Y4.8932 I-0.6567 J2.4509
G2 X-20.6922 Y4.8707 I-0.3501 J2.7069
G1 X-27.8025 Y4.8707
G2 X-28.3393 Y4.9214 I0 J2.8651
G2 X-28.8126 Y5.0629 I0.454 J2.3803
G2 X-29.2473 Y5.2975 I0.9273 J2.2388
G2 X-29.6628 Y5.6412 I1.6104 J2.3696
G2 X-30.0065 Y6.0567 I2.0259 J2.0259
G2 X-30.2411 Y6.4914 I2.0042 J1.3621
G2 X-30.3826 Y6.9647 I2.2388 J0.9273
G2 X-30.4334 Y7.5016 I2.8143 J0.5368
G1 X-30.4334 Y14.8772
G3 X-30.5584 Y15.0022 I-0.125 J0
G1 X-33.7984 Y15.0022
G3 X-33.9234 Y14.8772 I0 J-0.125
G1 X-33.9234 Y13.856
G1 Z-0.55 F30
G1 X-33.9234 Y13.356 F60
G1 Z-0.8 F30
G1 X-33.9234 Y2.5546 F60
G3 X-33.8877 Y2.2838 I1.0461 J0
G3 X-33.7832 Y2.0315 I1.0105 J0.2708
G3 X-33.617 Y1.8148 I0.906 J0.5231
G3 X-33.4003 Y1.6486 I0.7397 J0.7397
G3 X-33.148 Y1.5441 I0.5231 J0.906
G3 X-32.8773 Y1.5084 I0.2708 J1.0105
G1 X-29.5674 Y1.5084
G3 X-29.4424 Y1.6334 I0 J0.125
G1 X-29.4424 Y1.9266
G2 X-29.4358 Y1.996 I0.3707 J0
G2 X-29.4184 Y2.0541 I0.2922 J-0.0557
G2 X-29.3896 Y2.1075 I0.2748 J-0.1138
G2 X-29.3452 Y2.1613 I0.3066 J-0.2084
G2 X-29.2914 Y2.2057 I0.2621 J-0.2621
G2 X-29.2381 Y2.2345 I0.1672 J-0.246
G2 X-29.18 Y2.2519 I0.1138 J-0.2748
G2 X-29.1105 Y2.2584 I0.0695 J-0.3641
G1 X-28.7542 Y2.2584
G2 X-28.6848 Y2.2519 I0 J-0.3707
G2 X-28.6267 Y2.2345 I-0.0557 J-0.2922
G2 X-28.5733 Y2.2057 I-0.1138 J-0.2748
G2 X-28.5196 Y2.1613 I-0.2084 J-0.3066
G2 X-28.4751 Y2.1075 I-0.2621 J-0.2621
G2 X-28.4463 Y2.0541 I-0.246 J-0.1672
G2 X-28.4289 Y1.996 I-0.2748 J-0.1138
G2 X-28.4224 Y1.9266 I-0.3641 J-0.0695
G1 X-28.4224 Y0.6488
G1 X-28.4224 Y0.6488
G2 X-28.4396 Y0.4918 I-0.7256 J0
G2 X-28.4904 Y0.3422 I-0.7084 J0.157
G2 X-28.5723 Y0.2071 I-0.6576 J0.3066
G2 X-28.6816 Y0.093 I-0.5756 J0.4417
G1 X-33.1278 Y-3.6378
G3 X-33.4631 Y-3.9881 I1.4316 J-1.7061
G3 X-33.7147 Y-4.4027 I1.767 J-1.3558
G3 X-33.8706 Y-4.8619 I2.0185 J-0.9413
G3 X-33.9234 Y-5.3439 I2.1744 J-0.4821
G1 X-33.9234 Y-6.5252
G1 Z-0.55 F30
G1 X-33.9234 Y-7.0252 F60
G1 Z-0.8 F30
G1 X-33.9234 Y-13.8628 F60
G3 X-33.9074 Y-14.11 I1.9272 J0
G3 X-33.8608 Y-14.3457 I1.7911 J0.2316
G3 X-33.7833 Y-14.5732 I1.7444 J0.4674
G3 X-33.6735 Y-14.7953 I1.7788 J0.7416
G3 X-33.5361 Y-15.0014 I1.669 J0.9636
G3 X-33.3779 Y-15.1823 I1.4353 J1.0961
G3 X-33.197 Y-15.3405 I1.277 J1.277
G3 X-32.9909 Y-15.4779 I1.1697 J1.5316
G3 X-32.7688 Y-15.5877 I0.9636 J1.669
G3 X-32.5413 Y-15.6652 I0.6949 J1.6669
G3 X-32.3055 Y-15.7119 I0.4674 J1.7444
G3 X-32.0584 Y-15.7278 I0.2472 J1.9113

(Throw away bit)
G0 Z0.1
G0 X-18.1963 Y16.0022
G1 Z-0.16 F30
G1 X-30.2984 Y16.0022 F60
G3 X-30.4234 Y15.8772 I0 J-0.125
G1 X-30.4234 Y13.2642
G1 X-30.4234 Y12.7642
G1 X-30.4234 Y7.5016
G3 X-30.401 Y7.1539 I2.7101 J0
G3 X-30.3355 Y6.8228 I2.5153 J0.3253
G3 X-30.2266 Y6.5033 I2.4498 J0.6564
G3 X-30.0722 Y6.1911 I2.5015 J1.0428
G3 X-29.879 Y5.9013 I2.347 J1.3551
G3 X-29.6568 Y5.6472 I2.0156 J1.5394
G3 X-29.4028 Y5.425 I1.7934 J1.7934
G3 X-29.1129 Y5.2318 I1.6449 J2.1538
G3 X-28.8007 Y5.0774 I1.3551 J2.347
G3 X-28.4812 Y4.9685 I0.9759 J2.3409
G3 X-28.1501 Y4.903 I0.6564 J2.4498
G3 X-27.8025 Y4.8807 I0.3476 J2.6877
G1 X-24.5284 Y4.8807
G1 X-24.0284 Y4.8807
G1 X-20.6922 Y4.8807
G3 X-20.3446 Y4.903 I0 J2.7101
G3 X-20.0135 Y4.9685 I-0.3253 J2.5153
G3 X-19.694 Y5.0774 I-0.6564 J2.4498
G3 X-19.3818 Y5.2318 I-1.0428 J2.5015
G3 X-19.0919 Y5.425 I-1.3551 J2.347
G3 X-18.8379 Y5.6472 I-1.5394 J2.0156
G3 X-18.6156 Y5.9013 I-1.7934 J1.7934
G3 X-18.4224 Y6.1911 I-2.1538 J1.6449
G3 X-18.268 Y6.5033 I-2.347 J1.3551
G3 X-18.1592 Y6.8228 I-2.3409 J0.9759
G3 X-18.0937 Y7.1539 I-2.4498 J0.6564
G3 X-18.0713 Y7.5016 I-2.6877 J0.3476
G1 X-18.0713 Y13.9953
G1 X-18.0713 Y14.4953
G1 X-18.0713 Y15.8772
G3 X-18.1963 Y16.0022 I-0.125 J0
G1 Z-0.32 F30
G1 X-30.2984 Y16.0022 F60
G3 X-30.4234 Y15.8772 I0 J-0.125
G1 X-30.4234 Y13.2642
G1 X-30.4234 Y12.7642
G1 X-30.4234 Y7.5016
G3 X-30.401 Y7.1539 I2.7101 J0
G3 X-30.3355 Y6.8228 I2.5153 J0.3253
G3 X-30.2266 Y6.5033 I2.4498 J0.6564
G3 X-30.0722 Y6.1911 I2.5015 J1.0428
G3 X-29.879 Y5.9013 I2.347 J1.3551
G3 X-29.6568 Y5.6472 I2.0156 J1.5394
G3 X-29.4028 Y5.425 I1.7934 J1.7934
G3 X-29.1129 Y5.2318 I1.6449 J2.1538
G3 X-28.8007 Y5.0774 I1.3551 J2.347
G3 X-28.4812 Y4.9685 I0.9759 J2.3409
G3 X-28.1501 Y4.903 I0.6564 J2.4498
G3 X-27.8025 Y4.8807 I0.3476 J2.6877
G1 X-24.5284 Y4.8807
G1 X-24.0284 Y4.8807
G1 X-20.6922 Y4.8807
G3 X-20.3446 Y4.903 I0 J2.7101
G3 X-20.0135 Y4.9685 I-0.3253 J2.5153
G3 X-19.694 Y5.0774 I-0.6564 J2.4498
G3 X-19.3818 Y5.2318 I-1.0428 J2.5015
G3 X-19.0919 Y5.425 I-1.3551 J2.347
G3 X-18.8379 Y5.6472 I-1.5394 J2.0156
G3 X-18.6156 Y5.9013 I-1.7934 J1.7934
G3 X-18.4224 Y6.1911 I-2.1538 J1.6449
G3 X-18.268 Y6.5033 I-2.347 J1.3551
G3 X-18.1592 Y6.8228 I-2.3409 J0.9759
G3 X-18.0937 Y7.1539 I-2.4498 J0.6564
G3 X-18.0713 Y7.5016 I-2.6877 J0.3476
G1 X-18.0713 Y13.9953
G1 X-18.0713 Y14.4953
G1 X-18.0713 Y15.8772
G3 X-18.1963 Y16.0022 I-0.125 J0
G1 Z-0.48 F30
G1 X-30.2984 Y16.0022 F60
G3 X-30.4234 Y15.8772 I0 J-0.125
G1 X-30.4234 Y13.2642
G1 X-30.4234 Y12.7642
G1 X-30.4234 Y7.5016
G3 X-30.401 Y7.1539 I2.7101 J0
G3 X-30.3355 Y6.8228 I2.5153 J0.3253
G3 X-30.2266 Y6.5033 I2.4498 J0.6564
G3 X-30.0722 Y6.1911 I2.5015 J1.0428
G3 X-29.879 Y5.9013 I2.347 J1.3551
G3 X-29.6568 Y5.6472 I2.0156 J1.5394
G3 X-29.4028 Y5.425 I1.7934 J1.7934
G3 X-29.1129 Y5.2318 I1.6449 J2.1538
G3 X-28.8007 Y5.0774 I1.3551 J2.347
G3 X-28.4812 Y4.9685 I0.9759 J2.3409
G3 X-28.1501 Y4.903 I0.6564 J2.4498
G3 X-27.8025 Y4.8807 I0.3476 J2.6877
G1 X-24.5284 Y4.8807
G1 X-24.0284 Y4.8807
G1 X-20.6922 Y4.8807
G3 X-20.3446 Y4.903 I0 J2.7101
G3 X-20.0135 Y4.9685 I-0.3253 J2.5153
G3 X-19.694 Y5.0774 I-0.6564 J2.4498
G3 X-19.3818 Y5.2318 I-1.0428 J2.5015
G3 X-19.0919 Y5.425 I-1.3551 J2.347
G3 X-18.8379 Y5.6472 I-1.5394 J2.0156
G3 X-18.6156 Y5.9013 I-1.7934 J1.7934
G3 X-18.4224 Y6.1911 I-2.1538 J1.6449
G3 X-18.268 Y6.5033 I-2.347 J1.3551
G3 X-18.1592 Y6.8228 I-2.3409 J0.9759
G3 X-18.0937 Y7.1539 I-2.4498 J0.6564
G3 X-18.0713 Y7.5016 I-2.6877 J0.3476
G1 X-18.0713 Y13.9953
G1 X-18.0713 Y14.4953
G1 X-18.0713 Y15.8772
G3 X-18.1963 Y16.0022 I-0.125 J0
G1 Z-0.64 F30
G1 X-30.2984 Y16.0022 F60
G3 X-30.4234 Y15.8772 I0 J-0.125
G1 X-30.4234 Y13.2642
G1 Z-0.55 F30
G1 X-30.4234 Y12.7642 F60
G1 Z-0.64 F30
G1 X-30.4234 Y7.5016 F60
G3 X-30.401 Y7.1539 I2.7101 J0
G3 X-30.3355 Y6.8228 I2.5153 J0.3253
G3 X-30.2266 Y6.5033 I2.4498 J0.6564
G3 X-30.0722 Y6.1911 I2.5015 J1.0428
G3 X-29.879 Y5.9013 I2.347 J1.3551
G3 X-29.6568 Y5.6472 I2.0156 J1.5394
G3 X-29.4028 Y5.425 I1.7934 J1.7934
G3 X-29.1129 Y5.2318 I1.6449 J2.1538
G3 X-28.8007 Y5.0774 I1.3551 J2.347
G3 X-28.4812 Y4.9685 I0.9759 J2.3409
G3 X-28.1501 Y4.903 I0.6564 J2.4498
G3 X-27.8025 Y4.8807 I0.3476 J2.6877
G1 X-24.5284 Y4.8807
G1 Z-0.55 F30
G1 X-24.0284 Y4.8807 F60
G1 Z-0.64 F30
G1 X-20.6922 Y4.8807 F60
G3 X-20.3446 Y4.903 I0 J2.7101
G3 X-20.0135 Y4.9685 I-0.3253 J2.5153
G3 X-19.694 Y5.0774 I-0.6564 J2.4498
G3 X-19.3818 Y5.2318 I-1.0428 J2.5015
G3 X-19.0919 Y5.425 I-1.3551 J2.347
G3 X-18.8379 Y5.6472 I-1.5394 J2.0156
G3 X-18.6156 Y5.9013 I-1.7934 J1.7934
G3 X-18.4224 Y6.1911 I-2.1538 J1.6449
G3 X-18.268 Y6.5033 I-2.347 J1.3551
G3 X-18.1592 Y6.8228 I-2.3409 J0.9759
G3 X-18.0937 Y7.1539 I-2.4498 J0.6564
G3 X-18.0713 Y7.5016 I-2.6877 J0.3476
G1 X-18.0713 Y13.9953
G1 Z-0.55 F30
G1 X-18.0713 Y14.4953 F60
G1 Z-0.64 F30
G1 X-18.0713 Y15.8772 F60
G3 X-18.1963 Y16.0022 I-0.125 J0
G1 Z-0.8 F30
G1 X-30.2984 Y16.0022 F60
G3 X-30.4234 Y15.8772 I0 J-0.125
G1 X-30.4234 Y13.2642
G1 Z-0.55 F30
G1 X-30.4234 Y12.7642 F60
G1 Z-0.8 F30
G1 X-30.4234 Y7.5016 F60
G3 X-30.401 Y7.1539 I2.7101 J0
G3 X-30.3355 Y6.8228 I2.5153 J0.3253
G3 X-30.2266 Y6.5033 I2.4498 J0.6564
G3 X-30.0722 Y6.1911 I2.5015 J1.0428
G3 X-29.879 Y5.9013 I2.347 J1.3551
G3 X-29.6568 Y5.6472 I2.0156 J1.5394
G3 X-29.4028 Y5.425 I1.7934 J1.7934
G3 X-29.1129 Y5.2318 I1.6449 J2.1538
G3 X-28.8007 Y5.0774 I1.3551 J2.347
G3 X-28.4812 Y4.9685 I0.9759 J2.3409
G3 X-28.1501 Y4.903 I0.6564 J2.4498
G3 X-27.8025 Y4.8807 I0.3476 J2.6877
G1 X-24.5284 Y4.8807
G1 Z-0.55 F30
G1 X-24.0284 Y4.8807 F60
G1 Z-0.8 F30
G1 X-20.6922 Y4.8807 F60
G3 X-20.3446 Y4.903 I0 J2.7101
G3 X-20.0135 Y4.9685 I-0.3253 J2.5153
G3 X-19.694 Y5.0774 I-0.6564 J2.4498
G3 X-19.3818 Y5.2318 I-1.0428 J2.5015
G3 X-19.0919 Y5.425 I-1.3551 J2.347
G3 X-18.8379 Y5.6472 I-1.5394 J2.0156
G3 X-18.6156 Y5.9013 I-1.7934 J1.7934
G3 X-18.4224 Y6.1911 I-2.1538 J1.6449
G3 X-18.268 Y6.5033 I-2.347 J1.3551
G3 X-18.1592 Y6.8228 I-2.3409 J0.9759
G3 X-18.0937 Y7.1539 I-2.4498 J0.6564
G3 X-18.0713 Y7.5016 I-2.6877 J0.3476
G1 X-18.0713 Y13.9953
G1 Z-0.55 F30
G1 X-18.0713 Y14.4953 F60
G1 Z-0.8 F30
G1 X-18.0713 Y15.8772 F60
G3 X-18.1963 Y16.0022 I-0.125 J0

(Outside Cut)
G0 Z0.1
G0 X-36.1834 Y14.1372
G1 Z-0.16 F30
G1 X-36.1834 Y-13.8628 F60
G3 X-36.164 Y-14.2866 I4.6391 J0
G3 X-36.1079 Y-14.6843 I4.125 J0.3785
G3 X-36.0128 Y-15.0748 I3.9092 J0.7457
G3 X-35.881 Y-15.4461 I3.6617 J1.0908
G3 X-35.7116 Y-15.802 I3.5299 J1.4621
G3 X-35.5027 Y-16.1453 I3.5003 J1.8936
G3 X-35.2612 Y-16.4662 I3.426 J2.3284
G3 X-34.9752 Y-16.7796 I3.5664 J2.9669
G3 X-34.6617 Y-17.0656 I3.2804 J3.2804
G3 X-34.3409 Y-17.3071 I2.6492 J3.1844
G3 X-33.9975 Y-17.516 I2.237 J3.2915
G3 X-33.6417 Y-17.6854 I1.8179 J3.3605
G3 X-33.2704 Y-17.8172 I1.4621 J3.5299
G3 X-32.8799 Y-17.9123 I1.1361 J3.814
G3 X-32.4822 Y-17.9684 I0.7761 J4.0689
G3 X-32.0584 Y-17.9878 I0.4238 J4.6197
G1 X-17.8941 Y-17.9878
G1 X-17.3941 Y-17.9878
G1 X-16.4363 Y-17.9878
G3 X-16.0125 Y-17.9684 I0 J4.6391
G3 X-15.6148 Y-17.9123 I-0.3785 J4.125
G3 X-15.2243 Y-17.8172 I-0.7457 J3.9092
G3 X-14.8529 Y-17.6854 I-1.0908 J3.6617
G3 X-14.4971 Y-17.516 I-1.4621 J3.5299
G3 X-14.1537 Y-17.3071 I-1.8936 J3.5003
G3 X-13.8329 Y-17.0656 I-2.3284 J3.426
G3 X-13.5195 Y-16.7796 I-2.9669 J3.5664
G3 X-13.2335 Y-16.4662 I-3.2804 J3.2804
G3 X-12.9919 Y-16.1453 I-3.1844 J2.6492
G3 X-12.7831 Y-15.802 I-3.2915 J2.237
G3 X-12.6137 Y-15.4461 I-3.3605 J1.8179
G3 X-12.4819 Y-15.0748 I-3.5299 J1.4621
G3 X-12.3868 Y-14.6843 I-3.814 J1.1361
G3 X-12.3307 Y-14.2866 I-4.0689 J0.7761
G3 X-12.3113 Y-13.8628 I-4.6197 J0.4238
G1 X-12.3113 Y-10.6034
G1 X-12.3113 Y-10.1034
G1 X-12.3113 Y14.1372
G3 X-12.3307 Y14.5611 I-4.6391 J0
G3 X-12.3868 Y14.9587 I-4.125 J-0.3785
G3 X-12.4819 Y15.3492 I-3.9092 J-0.7457
G3 X-12.6137 Y15.7206 I-3.6617 J-1.0908
G3 X-12.7831 Y16.0764 I-3.5299 J-1.4621
G3 X-12.9919 Y16.4198 I-3.5003 J-1.8936
G3 X-13.2335 Y16.7406 I-3.426 J-2.3284
G3 X-13.5195 Y17.054 I-3.5664 J-2.9669
G3 X-13.8329 Y17.34 I-3.2804 J-3.2804
G3 X-14.1537 Y17.5816 I-2.6492 J-3.1844
G3 X-14.4971 Y17.7904 I-2.237 J-3.2915
G3 X-14.8529 Y17.9598 I-1.8179 J-3.3605
G3 X-15.2243 Y18.0916 I-1.4621 J-3.5299
G3 X-15.6148 Y18.1868 I-1.1361 J-3.814
G3 X-16.0125 Y18.2428 I-0.7761 J-4.0689
G3 X-16.4363 Y18.2622 I-0.4238 J-4.6197
G1 X-17.3556 Y18.2622
G1 X-17.8556 Y18.2622
G1 X-32.0584 Y18.2622
G3 X-32.4822 Y18.2428 I0 J-4.6391
G3 X-32.8799 Y18.1868 I0.3785 J-4.125
G3 X-33.2704 Y18.0916 I0.7457 J-3.9092
G3 X-33.6417 Y17.9598 I1.0908 J-3.6617
G3 X-33.9975 Y17.7904 I1.4621 J-3.5299
G3 X-34.3409 Y17.5816 I1.8936 J-3.5003
G3 X-34.6617 Y17.34 I2.3284 J-3.426
G3 X-34.9752 Y17.054 I2.9669 J-3.5664
G3 X-35.2612 Y16.7406 I3.2804 J-3.2804
G3 X-35.5027 Y16.4198 I3.1844 J-2.6492
G3 X-35.7116 Y16.0764 I3.2915 J-2.237
G3 X-35.881 Y15.7206 I3.3605 J-1.8179
G3 X-36.0128 Y15.3492 I3.5299 J-1.4621
G3 X-36.1079 Y14.9587 I3.814 J-1.1361
G3 X-36.164 Y14.5611 I4.0689 J-0.7761
G3 X-36.1834 Y14.1372 I4.6197 J-0.4238
G1 Z-0.32 F30
G1 X-36.1834 Y-13.8628 F60
G3 X-36.164 Y-14.2866 I4.6391 J0
G3 X-36.1079 Y-14.6843 I4.125 J0.3785
G3 X-36.0128 Y-15.0748 I3.9092 J0.7457
G3 X-35.881 Y-15.4461 I3.6617 J1.0908
G3 X-35.7116 Y-15.802 I3.5299 J1.4621
G3 X-35.5027 Y-16.1453 I3.5003 J1.8936
G3 X-35.2612 Y-16.4662 I3.426 J2.3284
G3 X-34.9752 Y-16.7796 I3.5664 J2.9669
G3 X-34.6617 Y-17.0656 I3.2804 J3.2804
G3 X-34.3409 Y-17.3071 I2.6492 J3.1844
G3 X-33.9975 Y-17.516 I2.237 J3.2915
G3 X-33.6417 Y-17.6854 I1.8179 J3.3605
G3 X-33.2704 Y-17.8172 I1.4621 J3.5299
G3 X-32.8799 Y-17.9123 I1.1361 J3.814
G3 X-32.4822 Y-17.9684 I0.7761 J4.0689
G3 X-32.0584 Y-17.9878 I0.4238 J4.6197
G1 X-17.8941 Y-17.9878
G1 X-17.3941 Y-17.9878
G1 X-16.4363 Y-17.9878
G3 X-16.0125 Y-17.9684 I0 J4.6391
G3 X-15.6148 Y-17.9123 I-0.3785 J4.125
G3 X-15.2243 Y-17.8172 I-0.7457 J3.9092
G3 X-14.8529 Y-17.6854 I-1.0908 J3.6617
G3 X-14.4971 Y-17.516 I-1.4621 J3.5299
G3 X-14.1537 Y-17.3071 I-1.8936 J3.5003
G3 X-13.8329 Y-17.0656 I-2.3284 J3.426
G3 X-13.5195 Y-16.7796 I-2.9669 J3.5664
G3 X-13.2335 Y-16.4662 I-3.2804 J3.2804
G3 X-12.9919 Y-16.1453 I-3.1844 J2.6492
G3 X-12.7831 Y-15.802 I-3.2915 J2.237
G3 X-12.6137 Y-15.4461 I-3.3605 J1.8179
G3 X-12.4819 Y-15.0748 I-3.5299 J1.4621
G3 X-12.3868 Y-14.6843 I-3.814 J1.1361
G3 X-12.3307 Y-14.2866 I-4.0689 J0.7761
G3 X-12.3113 Y-13.8628 I-4.6197 J0.4238
G1 X-12.3113 Y-10.6034
G1 X-12.3113 Y-10.1034
G1 X-12.3113 Y14.1372
G3 X-12.3307 Y14.5611 I-4.6391 J0
G3 X-12.3868 Y14.9587 I-4.125 J-0.3785
G3 X-12.4819 Y15.3492 I-3.9092 J-0.7457
G3 X-12.6137 Y15.7206 I-3.6617 J-1.0908
G3 X-12.7831 Y16.0764 I-3.5299 J-1.4621
G3 X-12.9919 Y16.4198 I-3.5003 J-1.8936
G3 X-13.2335 Y16.7406 I-3.426 J-2.3284
G3 X-13.5195 Y17.054 I-3.5664 J-2.9669
G3 X-13.8329 Y17.34 I-3.2804 J-3.2804
G3 X-14.1537 Y17.5816 I-2.6492 J-3.1844
G3 X-14.4971 Y17.7904 I-2.237 J-3.2915
G3 X-14.8529 Y17.9598 I-1.8179 J-3.3605
G3 X-15.2243 Y18.0916 I-1.4621 J-3.5299
G3 X-15.6148 Y18.1868 I-1.1361 J-3.814
G3 X-16.0125 Y18.2428 I-0.7761 J-4.0689
G3 X-16.4363 Y18.2622 I-0.4238 J-4.6197
G1 X-17.3556 Y18.2622
G1 X-17.8556 Y18.2622
G1 X-32.0584 Y18.2622
G3 X-32.4822 Y18.2428 I0 J-4.6391
G3 X-32.8799 Y18.1868 I0.3785 J-4.125
G3 X-33.2704 Y18.0916 I0.7457 J-3.9092
G3 X-33.6417 Y17.9598 I1.0908 J-3.6617
G3 X-33.9975 Y17.7904 I1.4621 J-3.5299
G3 X-34.3409 Y17.5816 I1.8936 J-3.5003
G3 X-34.6617 Y17.34 I2.3284 J-3.426
G3 X-34.9752 Y17.054 I2.9669 J-3.5664
G3 X-35.2612 Y16.7406 I3.2804 J-3.2804
G3 X-35.5027 Y16.4198 I3.1844 J-2.6492
G3 X-35.7116 Y16.0764 I3.2915 J-2.237
G3 X-35.881 Y15.7206 I3.3605 J-1.8179
G3 X-36.0128 Y15.3492 I3.5299 J-1.4621
G3 X-36.1079 Y14.9587 I3.814 J-1.1361
G3 X-36.164 Y14.5611 I4.0689 J-0.7761
G3 X-36.1834 Y14.1372 I4.6197 J-0.4238
G1 Z-0.48 F30
G1 X-36.1834 Y-13.8628 F60
G3 X-36.164 Y-14.2866 I4.6391 J0
G3 X-36.1079 Y-14.6843 I4.125 J0.3785
G3 X-36.0128 Y-15.0748 I3.9092 J0.7457
G3 X-35.881 Y-15.4461 I3.6617 J1.0908
G3 X-35.7116 Y-15.802 I3.5299 J1.4621
G3 X-35.5027 Y-16.1453 I3.5003 J1.8936
G3 X-35.2612 Y-16.4662 I3.426 J2.3284
G3 X-34.9752 Y-16.7796 I3.5664 J2.9669
G3 X-34.6617 Y-17.0656 I3.2804 J3.2804
G3 X-34.3409 Y-17.3071 I2.6492 J3.1844
G3 X-33.9975 Y-17.516 I2.237 J3.2915
G3 X-33.6417 Y-17.6854 I1.8179 J3.3605
G3 X-33.2704 Y-17.8172 I1.4621 J3.5299
G3 X-32.8799 Y-17.9123 I1.1361 J3.814
G3 X-32.4822 Y-17.9684 I0.7761 J4.0689
G3 X-32.0584 Y-17.9878 I0.4238 J4.6197
G1 X-17.8941 Y-17.9878
G1 X-17.3941 Y-17.9878
G1 X-16.4363 Y-17.9878
G3 X-16.0125 Y-17.9684 I0 J4.6391
G3 X-15.6148 Y-17.9123 I-0.3785 J4.125
G3 X-15.2243 Y-17.8172 I-0.7457 J3.9092
G3 X-14.8529 Y-17.6854 I-1.0908 J3.6617
G3 X-14.4971 Y-17.516 I-1.4621 J3.5299
G3 X-14.1537 Y-17.3071 I-1.8936 J3.5003
G3 X-13.8329 Y-17.0656 I-2.3284 J3.426
G3 X-13.5195 Y-16.7796 I-2.9669 J3.5664
G3 X-13.2335 Y-16.4662 I-3.2804 J3.2804
G3 X-12.9919 Y-16.1453 I-3.1844 J2.6492
G3 X-12.7831 Y-15.802 I-3.2915 J2.237
G3 X-12.6137 Y-15.4461 I-3.3605 J1.8179
G3 X-12.4819 Y-15.0748 I-3.5299 J1.4621
G3 X-12.3868 Y-14.6843 I-3.814 J1.1361
G3 X-12.3307 Y-14.2866 I-4.0689 J0.7761
G3 X-12.3113 Y-13.8628 I-4.6197 J0.4238
G1 X-12.3113 Y-10.6034
G1 X-12.3113 Y-10.1034
G1 X-12.3113 Y14.1372
G3 X-12.3307 Y14.5611 I-4.6391 J0
G3 X-12.3868 Y14.9587 I-4.125 J-0.3785
G3 X-12.4819 Y15.3492 I-3.9092 J-0.7457
G3 X-12.6137 Y15.7206 I-3.6617 J-1.0908
G3 X-12.7831 Y16.0764 I-3.5299 J-1.4621
G3 X-12.9919 Y16.4198 I-3.5003 J-1.8936
G3 X-13.2335 Y16.7406 I-3.426 J-2.3284
G3 X-13.5195 Y17.054 I-3.5664 J-2.9669
G3 X-13.8329 Y17.34 I-3.2804 J-3.2804
G3 X-14.1537 Y17.5816 I-2.6492 J-3.1844
G3 X-14.4971 Y17.7904 I-2.237 J-3.2915
G3 X-14.8529 Y17.9598 I-1.8179 J-3.3605
G3 X-15.2243 Y18.0916 I-1.4621 J-3.5299
G3 X-15.6148 Y18.1868 I-1.1361 J-3.814
G3 X-16.0125 Y18.2428 I-0.7761 J-4.0689
G3 X-16.4363 Y18.2622 I-0.4238 J-4.6197
G1 X-17.3556 Y18.2622
G1 X-17.8556 Y18.2622
G1 X-32.0584 Y18.2622
G3 X-32.4822 Y18.2428 I0 J-4.6391
G3 X-32.8799 Y18.1868 I0.3785 J-4.125
G3 X-33.2704 Y18.0916 I0.7457 J-3.9092
G3 X-33.6417 Y17.9598 I1.0908 J-3.6617
G3 X-33.9975 Y17.7904 I1.4621 J-3.5299
G3 X-34.3409 Y17.5816 I1.8936 J-3.5003
G3 X-34.6617 Y17.34 I2.3284 J-3.426
G3 X-34.9752 Y17.054 I2.9669 J-3.5664
G3 X-35.2612 Y16.7406 I3.2804 J-3.2804
G3 X-35.5027 Y16.4198 I3.1844 J-2.6492
G3 X-35.7116 Y16.0764 I3.2915 J-2.237
G3 X-35.881 Y15.7206 I3.3605 J-1.8179
G3 X-36.0128 Y15.3492 I3.5299 J-1.4621
G3 X-36.1079 Y14.9587 I3.814 J-1.1361
G3 X-36.164 Y14.5611 I4.0689 J-0.7761
G3 X-36.1834 Y14.1372 I4.6197 J-0.4238
G1 Z-0.64 F30
G1 X-36.1834 Y-13.8628 F60
G3 X-36.164 Y-14.2866 I4.6391 J0
G3 X-36.1079 Y-14.6843 I4.125 J0.3785
G3 X-36.0128 Y-15.0748 I3.9092 J0.7457
G3 X-35.881 Y-15.4461 I3.6617 J1.0908
G3 X-35.7116 Y-15.802 I3.5299 J1.4621
G3 X-35.5027 Y-16.1453 I3.5003 J1.8936
G3 X-35.2612 Y-16.4662 I3.426 J2.3284
G3 X-34.9752 Y-16.7796 I3.5664 J2.9669
G3 X-34.6617 Y-17.0656 I3.2804 J3.2804
G3 X-34.3409 Y-17.3071 I2.6492 J3.1844
G3 X-33.9975 Y-17.516 I2.237 J3.2915
G3 X-33.6417 Y-17.6854 I1.8179 J3.3605
G3 X-33.2704 Y-17.8172 I1.4621 J3.5299
G3 X-32.8799 Y-17.9123 I1.1361 J3.814
G3 X-32.4822 Y-17.9684 I0.7761 J4.0689
G3 X-32.0584 Y-17.9878 I0.4238 J4.6197
G1 X-17.8941 Y-17.9878
G1 Z-0.55 F30
G1 X-17.3941 Y-17.9878 F60
G1 Z-0.64 F30
G1 X-16.4363 Y-17.9878 F60
G3 X-16.0125 Y-17.9684 I0 J4.6391
G3 X-15.6148 Y-17.9123 I-0.3785 J4.125
G3 X-15.2243 Y-17.8172 I-0.7457 J3.9092
G3 X-14.8529 Y-17.6854 I-1.0908 J3.6617
G3 X-14.4971 Y-17.516 I-1.4621 J3.5299
G3 X-14.1537 Y-17.3071 I-1.8936 J3.5003
G3 X-13.8329 Y-17.0656 I-2.3284 J3.426
G3 X-13.5195 Y-16.7796 I-2.9669 J3.5664
G3 X-13.2335 Y-16.4662 I-3.2804 J3.2804
G3 X-12.9919 Y-16.1453 I-3.1844 J2.6492
G3 X-12.7831 Y-15.802 I-3.2915 J2.237
G3 X-12.6137 Y-15.4461 I-3.3605 J1.8179
G3 X-12.4819 Y-15.0748 I-3.5299 J1.4621
G3 X-12.3868 Y-14.6843 I-3.814 J1.1361
G3 X-12.3307 Y-14.2866 I-4.0689 J0.7761
G3 X-12.3113 Y-13.8628 I-4.6197 J0.4238
G1 X-12.3113 Y-10.6034
G1 Z-0.55 F30
G1 X-12.3113 Y-10.1034 F60
G1 Z-0.64 F30
G1 X-12.3113 Y14.1372 F60
G3 X-12.3307 Y14.5611 I-4.6391 J0
G3 X-12.3868 Y14.9587 I-4.125 J-0.3785
G3 X-12.4819 Y15.3492 I-3.9092 J-0.7457
G3 X-12.6137 Y15.7206 I-3.6617 J-1.0908
G3 X-12.7831 Y16.0764 I-3.5299 J-1.4621
G3 X-12.9919 Y16.4198 I-3.5003 J-1.8936
G3 X-13.2335 Y16.7406 I-3.426 J-2.3284
G3 X-13.5195 Y17.054 I-3.5664 J-2.9669
G3 X-13.8329 Y17.34 I-3.2804 J-3.2804
G3 X-14.1537 Y17.5816 I-2.6492 J-3.1844
G3 X-14.4971 Y17.7904 I-2.237 J-3.2915
G3 X-14.8529 Y17.9598 I-1.8179 J-3.3605
G3 X-15.2243 Y18.0916 I-1.4621 J-3.5299
G3 X-15.6148 Y18.1868 I-1.1361 J-3.814
G3 X-16.0125 Y18.2428 I-0.7761 J-4.0689
G3 X-16.4363 Y18.2622 I-0.4238 J-4.6197
G1 X-17.3556 Y18.2622
G1 Z-0.55 F30
G1 X-17.8556 Y18.2622 F60
G1 Z-0.64 F30
G1 X-32.0584 Y18.2622 F60
G3 X-32.4822 Y18.2428 I0 J-4.6391
G3 X-32.8799 Y18.1868 I0.3785 J-4.125
G3 X-33.2704 Y18.0916 I0.7457 J-3.9092
G3 X-33.6417 Y17.9598 I1.0908 J-3.6617
G3 X-33.9975 Y17.7904 I1.4621 J-3.5299
G3 X-34.3409 Y17.5816 I1.8936 J-3.5003
G3 X-34.6617 Y17.34 I2.3284 J-3.426
G3 X-34.9752 Y17.054 I2.9669 J-3.5664
G3 X-35.2612 Y16.7406 I3.2804 J-3.2804
G3 X-35.5027 Y16.4198 I3.1844 J-2.6492
G3 X-35.7116 Y16.0764 I3.2915 J-2.237
G3 X-35.881 Y15.7206 I3.3605 J-1.8179
G3 X-36.0128 Y15.3492 I3.5299 J-1.4621
G3 X-36.1079 Y14.9587 I3.814 J-1.1361
G3 X-36.164 Y14.5611 I4.0689 J-0.7761
G3 X-36.1834 Y14.1372 I4.6197 J-0.4238
G1 Z-0.8 F30
G1 X-36.1834 Y-13.8628 F60
G3 X-36.164 Y-14.2866 I4.6391 J0
G3 X-36.1079 Y-14.6843 I4.125 J0.3785
G3 X-36.0128 Y-15.0748 I3.9092 J0.7457
G3 X-35.881 Y-15.4461 I3.6617 J1.0908
G3 X-35.7116 Y-15.802 I3.5299 J1.4621
G3 X-35.5027 Y-16.1453 I3.5003 J1.8936
G3 X-35.2612 Y-16.4662 I3.426 J2.3284
G3 X-34.9752 Y-16.7796 I3.5664 J2.9669
G3 X-34.6617 Y-17.0656 I3.2804 J3.2804
G3 X-34.3409 Y-17.3071 I2.6492 J3.1844
G3 X-33.9975 Y-17.516 I2.237 J3.2915
G3 X-33.6417 Y-17.6854 I1.8179 J3.3605
G3 X-33.2704 Y-17.8172 I1.4621 J3.5299
G3 X-32.8799 Y-17.9123 I1.1361 J3.814
G3 X-32.4822 Y-17.9684 I0.7761 J4.0689
G3 X-32.0584 Y-17.9878 I0.4238 J4.6197
G1 X-17.8941 Y-17.9878
G1 Z-0.55 F30
G1 X-17.3941 Y-17.9878 F60
G1 Z-0.8 F30
G1 X-16.4363 Y-17.9878 F60
G3 X-16.0125 Y-17.9684 I0 J4.6391
G3 X-15.6148 Y-17.9123 I-0.3785 J4.125
G3 X-15.2243 Y-17.8172 I-0.7457 J3.9092
G3 X-14.8529 Y-17.6854 I-1.0908 J3.6617
G3 X-14.4971 Y-17.516 I-1.4621 J3.5299
G3 X-14.1537 Y-17.3071 I-1.8936 J3.5003
G3 X-13.8329 Y-17.0656 I-2.3284 J3.426
G3 X-13.5195 Y-16.7796 I-2.9669 J3.5664
G3 X-13.2335 Y-16.4662 I-3.2804 J3.2804
G3 X-12.9919 Y-16.1453 I-3.1844 J2.6492
G3 X-12.7831 Y-15.802 I-3.2915 J2.237
G3 X-12.6137 Y-15.4461 I-3.3605 J1.8179
G3 X-12.4819 Y-15.0748 I-3.5299 J1.4621
G3 X-12.3868 Y-14.6843 I-3.814 J1.1361
G3 X-12.3307 Y-14.2866 I-4.0689 J0.7761
G3 X-12.3113 Y-13.8628 I-4.6197 J0.4238
G1 X-12.3113 Y-10.6034
G1 Z-0.55 F30
G1 X-12.3113 Y-10.1034 F60
G1 Z-0.8 F30
G1 X-12.3113 Y14.1372 F60
G3 X-12.3307 Y14.5611 I-4.6391 J0
G3 X-12.3868 Y14.9587 I-4.125 J-0.3785
G3 X-12.4819 Y15.3492 I-3.9092 J-0.7457
G3 X-12.6137 Y15.7206 I-3.6617 J-1.0908
G3 X-12.7831 Y16.0764 I-3.5299 J-1.4621
G3 X-12.9919 Y16.4198 I-3.5003 J-1.8936
G3 X-13.2335 Y16.7406 I-3.426 J-2.3284
G3 X-13.5195 Y17.054 I-3.5664 J-2.9669
G3 X-13.8329 Y17.34 I-3.2804 J-3.2804
G3 X-14.1537 Y17.5816 I-2.6492 J-3.1844
G3 X-14.4971 Y17.7904 I-2.237 J-3.2915
G3 X-14.8529 Y17.9598 I-1.8179 J-3.3605
G3 X-15.2243 Y18.0916 I-1.4621 J-3.5299
G3 X-15.6148 Y18.1868 I-1.1361 J-3.814
G3 X-16.0125 Y18.2428 I-0.7761 J-4.0689
G3 X-16.4363 Y18.2622 I-0.4238 J-4.6197
G1 X-17.3556 Y18.2622
G1 Z-0.55 F30
G1 X-17.8556 Y18.2622 F60
G1 Z-0.8 F30
G1 X-32.0584 Y18.2622 F60
G3 X-32.4822 Y18.2428 I0 J-4.6391
G3 X-32.8799 Y18.1868 I0.3785 J-4.125
G3 X-33.2704 Y18.0916 I0.7457 J-3.9092
G3 X-33.6417 Y17.9598 I1.0908 J-3.6617
G3 X-33.9975 Y17.7904 I1.4621 J-3.5299
G3 X-34.3409 Y17.5816 I1.8936 J-3.5003
G3 X-34.6617 Y17.34 I2.3284 J-3.426
G3 X-34.9752 Y17.054 I2.9669 J-3.5664
G3 X-35.2612 Y16.7406 I3.2804 J-3.2804
G3 X-35.5027 Y16.4198 I3.1844 J-2.6492
G3 X-35.7116 Y16.0764 I3.2915 J-2.237
G3 X-35.881 Y15.7206 I3.3605 J-1.8179
G3 X-36.0128 Y15.3492 I3.5299 J-1.4621
G3 X-36.1079 Y14.9587 I3.814 J-1.1361
G3 X-36.164 Y14.5611 I4.0689 J-0.7761
G3 X-36.1834 Y14.1372 I4.6197 J-0.4238

(Holes)
G0 Z0.1
G0 X-19.8167 Y-5.0777
G1 Z-0.1 F30
G3 X-19.8915 Y-5.1396 I0.2899 J-0.4265 F20
G3 X-19.9534 Y-5.2143 I0.3647 J-0.3647
G3 X-19.9941 Y-5.2899 I0.3482 J-0.2367
G3 X-20.0187 Y-5.3721 I0.389 J-0.1611
G3 X-20.0278 Y-5.4688 I0.5066 J-0.0966
G3 X-20.0187 Y-5.5654 I0.5157 J0
G3 X-19.9941 Y-5.6476 I0.4136 J0.0789
G3 X-19.9534 Y-5.7232 I0.389 J0.1611
G3 X-19.8915 Y-5.798 I0.4265 J0.2899
G3 X-19.8167 Y-5.8598 I0.3647 J0.3647
G3 X-19.7412 Y-5.9006 I0.2367 J0.3482
G3 X-19.6589 Y-5.9252 I0.1611 J0.389
G3 X-19.5623 Y-5.9343 I0.0966 J0.5066
G3 X-19.4657 Y-5.9252 I0 J0.5157
G3 X-19.3834 Y-5.9006 I-0.0789 J0.4136
G3 X-19.3079 Y-5.8598 I-0.1611 J0.389
G3 X-19.2331 Y-5.798 I-0.2899 J0.4265
G3 X-19.1712 Y-5.7232 I-0.3647 J0.3647
G3 X-19.1305 Y-5.6476 I-0.3482 J0.2367
G3 X-19.1059 Y-5.5654 I-0.389 J0.1611
G3 X-19.0967 Y-5.4688 I-0.5066 J0.0966
G3 X-19.1059 Y-5.3721 I-0.5157 J0
G3 X-19.1305 Y-5.2899 I-0.4136 J-0.0789
G3 X-19.1712 Y-5.2143 I-0.389 J-0.1611
G3 X-19.2331 Y-5.1396 I-0.4265 J-0.2899
G3 X-19.3079 Y-5.0777 I-0.3647 J-0.3647
G3 X-19.3834 Y-5.0369 I-0.2367 J-0.3482
G3 X-19.4657 Y-5.0123 I-0.1611 J-0.389
G3 X-19.5623 Y-5.0032 I-0.0966 J-0.5066
G3 X-19.6589 Y-5.0123 I0 J-0.5157
G3 X-19.7412 Y-5.0369 I0.0789 J-0.4136
G3 X-19.8167 Y-5.0777 I0.1611 J-0.389
G1 Z-0.2 F30
G3 X-19.8915 Y-5.1396 I0.2899 J-0.4265 F20
G3 X-19.9534 Y-5.2143 I0.3647 J-0.3647
G3 X-19.9941 Y-5.2899 I0.3482 J-0.2367
G3 X-20.0187 Y-5.3721 I0.389 J-0.1611
G3 X-20.0278 Y-5.4688 I0.5066 J-0.0966
G3 X-20.0187 Y-5.5654 I0.5157 J0
G3 X-19.9941 Y-5.6476 I0.4136 J0.0789
G3 X-19.9534 Y-5.7232 I0.389 J0.1611
G3 X-19.8915 Y-5.798 I0.4265 J0.2899
G3 X-19.8167 Y-5.8598 I0.3647 J0.3647
G3 X-19.7412 Y-5.9006 I0.2367 J0.3482
G3 X-19.6589 Y-5.9252 I0.1611 J0.389
G3 X-19.5623 Y-5.9343 I0.0966 J0.5066
G3 X-19.4657 Y-5.9252 I0 J0.5157
G3 X-19.3834 Y-5.9006 I-0.0789 J0.4136
G3 X-19.3079 Y-5.8598 I-0.1611 J0.389
G3 X-19.2331 Y-5.798 I-0.2899 J0.4265
G3 X-19.1712 Y-5.7232 I-0.3647 J0.3647
G3 X-19.1305 Y-5.6476 I-0.3482 J0.2367
G3 X-19.1059 Y-5.5654 I-0.389 J0.1611
G3 X-19.0967 Y-5.4688 I-0.5066 J0.0966
G3 X-19.1059 Y-5.3721 I-0.5157 J0
G3 X-19.1305 Y-5.2899 I-0.4136 J-0.0789
G3 X-19.1712 Y-5.2143 I-0.389 J-0.1611
G3 X-19.2331 Y-5.1396 I-0.4265 J-0.2899
G3 X-19.3079 Y-5.0777 I-0.3647 J-0.3647
G3 X-19.3834 Y-5.0369 I-0.2367 J-0.3482
G3 X-19.4657 Y-5.0123 I-0.1611 J-0.389
G3 X-19.5623 Y-5.0032 I-0.0966 J-0.5066
G3 X-19.6589 Y-5.0123 I0 J-0.5157
G3 X-19.7412 Y-5.0369 I0.0789 J-0.4136
G3 X-19.8167 Y-5.0777 I0.1611 J-0.389
G1 Z-0.3 F30
G3 X-19.8915 Y-5.1396 I0.2899 J-0.4265 F20
G3 X-19.9534 Y-5.2143 I0.3647 J-0.3647
G3 X-19.9941 Y-5.2899 I0.3482 J-0.2367
G3 X-20.0187 Y-5.3721 I0.389 J-0.1611
G3 X-20.0278 Y-5.4688 I0.5066 J-0.0966
G3 X-20.0187 Y-5.5654 I0.5157 J0
G3 X-19.9941 Y-5.6476 I0.4136 J0.0789
G3 X-19.9534 Y-5.7232 I0.389 J0.1611
G3 X-19.8915 Y-5.798 I0.4265 J0.2899
G3 X-19.8167 Y-5.8598 I0.3647 J0.3647
G3 X-19.7412 Y-5.9006 I0.2367 J0.3482
G3 X-19.6589 Y-5.9252 I0.1611 J0.389
G3 X-19.5623 Y-5.9343 I0.0966 J0.5066
G3 X-19.4657 Y-5.9252 I0 J0.5157
G3 X-19.3834 Y-5.9006 I-0.0789 J0.4136
G3 X-19.3079 Y-5.8598 I-0.1611 J0.389
G3 X-19.2331 Y-5.798 I-0.2899 J0.4265
G3 X-19.1712 Y-5.7232 I-0.3647 J0.3647
G3 X-19.1305 Y-5.6476 I-0.3482 J0.2367
G3 X-19.1059 Y-5.5654 I-0.389 J0.1611
G3 X-19.0967 Y-5.4688 I-0.5066 J0.0966
G3 X-19.1059 Y-5.3721 I-0.5157 J0
G3 X-19.1305 Y-5.2899 I-0.4136 J-0.0789
G3 X-19.1712 Y-5.2143 I-0.389 J-0.1611
G3 X-19.2331 Y-5.1396 I-0.4265 J-0.2899
G3 X-19.3079 Y-5.0777 I-0.3647 J-0.3647
G3 X-19.3834 Y-5.0369 I-0.2367 J-0.3482
G3 X-19.4657 Y-5.0123 I-0.1611 J-0.389
G3 X-19.5623 Y-5.0032 I-0.0966 J-0.5066
G3 X-19.6589 Y-5.0123 I0 J-0.5157
G3 X-19.7412 Y-5.0369 I0.0789 J-0.4136
G3 X-19.8167 Y-5.0777 I0.1611 J-0.389
G1 Z-0.4 F30
G3 X-19.8915 Y-5.1396 I0.2899 J-0.4265 F20
G3 X-19.9534 Y-5.2143 I0.3647 J-0.3647
G3 X-19.9941 Y-5.2899 I0.3482 J-0.2367
G3 X-20.0187 Y-5.3721 I0.389 J-0.1611
G3 X-20.0278 Y-5.4688 I0.5066 J-0.0966
G3 X-20.0187 Y-5.5654 I0.5157 J0
G3 X-19.9941 Y-5.6476 I0.4136 J0.0789
G3 X-19.9534 Y-5.7232 I0.389 J0.1611
G3 X-19.8915 Y-5.798 I0.4265 J0.2899
G3 X-19.8167 Y-5.8598 I0.3647 J0.3647
G3 X-19.7412 Y-5.9006 I0.2367 J0.3482
G3 X-19.6589 Y-5.9252 I0.1611 J0.389
G3 X-19.5623 Y-5.9343 I0.0966 J0.5066
G3 X-19.4657 Y-5.9252 I0 J0.5157
G3 X-19.3834 Y-5.9006 I-0.0789 J0.4136
G3 X-19.3079 Y-5.8598 I-0.1611 J0.389
G3 X-19.2331 Y-5.798 I-0.2899 J0.4265
G3 X-19.1712 Y-5.7232 I-0.3647 J0.3647
G3 X-19.1305 Y-5.6476 I-0.3482 J0.2367
G3 X-19.1059 Y-5.5654 I-0.389 J0.1611
G3 X-19.0967 Y-5.4688 I-0.5066 J0.0966
G3 X-19.1059 Y-5.3721 I-0.5157 J0
G3 X-19.1305 Y-5.2899 I-0.4136 J-0.0789
G3 X-19.1712 Y-5.2143 I-0.389 J-0.1611
G3 X-19.2331 Y-5.1396 I-0.4265 J-0.2899
G3 X-19.3079 Y-5.0777 I-0.3647 J-0.3647
G3 X-19.3834 Y-5.0369 I-0.2367 J-0.3482
G3 X-19.4657 Y-5.0123 I-0.1611 J-0.389
G3 X-19.5623 Y-5.0032 I-0.0966 J-0.5066
G3 X-19.6589 Y-5.0123 I0 J-0.5157
G3 X-19.7412 Y-5.0369 I0.0789 J-0.4136
G3 X-19.8167 Y-5.0777 I0.1611 J-0.389
G1 Z-0.5 F30
G3 X-19.8915 Y-5.1396 I0.2899 J-0.4265 F20
G3 X-19.9534 Y-5.2143 I0.3647 J-0.3647
G3 X-19.9941 Y-5.2899 I0.3482 J-0.2367
G3 X-20.0187 Y-5.3721 I0.389 J-0.1611
G3 X-20.0278 Y-5.4688 I0.5066 J-0.0966
G3 X-20.0187 Y-5.5654 I0.5157 J0
G3 X-19.9941 Y-5.6476 I0.4136 J0.0789
G3 X-19.9534 Y-5.7232 I0.389 J0.1611
G3 X-19.8915 Y-5.798 I0.4265 J0.2899
G3 X-19.8167 Y-5.8598 I0.3647 J0.3647
G3 X-19.7412 Y-5.9006 I0.2367 J0.3482
G3 X-19.6589 Y-5.9252 I0.1611 J0.389
G3 X-19.5623 Y-5.9343 I0.0966 J0.5066
G3 X-19.4657 Y-5.9252 I0 J0.5157
G3 X-19.3834 Y-5.9006 I-0.0789 J0.4136
G3 X-19.3079 Y-5.8598 I-0.1611 J0.389
G3 X-19.2331 Y-5.798 I-0.2899 J0.4265
G3 X-19.1712 Y-5.7232 I-0.3647 J0.3647
G3 X-19.1305 Y-5.6476 I-0.3482 J0.2367
G3 X-19.1059 Y-5.5654 I-0.389 J0.1611
G3 X-19.0967 Y-5.4688 I-0.5066 J0.0966
G3 X-19.1059 Y-5.3721 I-0.5157 J0
G3 X-19.1305 Y-5.2899 I-0.4136 J-0.0789
G3 X-19.1712 Y-5.2143 I-0.389 J-0.1611
G3 X-19.2331 Y-5.1396 I-0.4265 J-0.2899
G3 X-19.3079 Y-5.0777 I-0.3647 J-0.3647
G3 X-19.3834 Y-5.0369 I-0.2367 J-0.3482
G3 X-19.4657 Y-5.0123 I-0.1611 J-0.389
G3 X-19.5623 Y-5.0032 I-0.0966 J-0.5066
G3 X-19.6589 Y-5.0123 I0 J-0.5157
G3 X-19.7412 Y-5.0369 I0.0789 J-0.4136
G3 X-19.8167 Y-5.0777 I0.1611 J-0.389
G1 Z-0.6 F30
G3 X-19.8915 Y-5.1396 I0.2899 J-0.4265 F20
G3 X-19.9534 Y-5.2143 I0.3647 J-0.3647
G3 X-19.9941 Y-5.2899 I0.3482 J-0.2367
G3 X-20.0187 Y-5.3721 I0.389 J-0.1611
G3 X-20.0278 Y-5.4688 I0.5066 J-0.0966
G3 X-20.0187 Y-5.5654 I0.5157 J0
G3 X-19.9941 Y-5.6476 I0.4136 J0.0789
G3 X-19.9534 Y-5.7232 I0.389 J0.1611
G3 X-19.8915 Y-5.798 I0.4265 J0.2899
G3 X-19.8167 Y-5.8598 I0.3647 J0.3647
G3 X-19.7412 Y-5.9006 I0.2367 J0.3482
G3 X-19.6589 Y-5.9252 I0.1611 J0.389
G3 X-19.5623 Y-5.9343 I0.0966 J0.5066
G3 X-19.4657 Y-5.9252 I0 J0.5157
G3 X-19.3834 Y-5.9006 I-0.0789 J0.4136
G3 X-19.3079 Y-5.8598 I-0.1611 J0.389
G3 X-19.2331 Y-5.798 I-0.2899 J0.4265
G3 X-19.1712 Y-5.7232 I-0.3647 J0.3647
G3 X-19.1305 Y-5.6476 I-0.3482 J0.2367
G3 X-19.1059 Y-5.5654 I-0.389 J0.1611
G3 X-19.0967 Y-5.4688 I-0.5066 J0.0966
G3 X-19.1059 Y-5.3721 I-0.5157 J0
G3 X-19.1305 Y-5.2899 I-0.4136 J-0.0789
G3 X-19.1712 Y-5.2143 I-0.389 J-0.1611
G3 X-19.2331 Y-5.1396 I-0.4265 J-0.2899
G3 X-19.3079 Y-5.0777 I-0.3647 J-0.3647
G3 X-19.3834 Y-5.0369 I-0.2367 J-0.3482
G3 X-19.4657 Y-5.0123 I-0.1611 J-0.389
G3 X-19.5623 Y-5.0032 I-0.0966 J-0.5066
G3 X-19.6589 Y-5.0123 I0 J-0.5157
G3 X-19.7412 Y-5.0369 I0.0789 J-0.4136
G3 X-19.8167 Y-5.0777 I0.1611 J-0.389
G1 Z-0.7 F30
G3 X-19.8915 Y-5.1396 I0.2899 J-0.4265 F20
G3 X-19.9534 Y-5.2143 I0.3647 J-0.3647
G3 X-19.9941 Y-5.2899 I0.3482 J-0.2367
G3 X-20.0187 Y-5.3721 I0.389 J-0.1611
G3 X-20.0278 Y-5.4688 I0.5066 J-0.0966
G3 X-20.0187 Y-5.5654 I0.5157 J0
G3 X-19.9941 Y-5.6476 I0.4136 J0.0789
G3 X-19.9534 Y-5.7232 I0.389 J0.1611
G3 X-19.8915 Y-5.798 I0.4265 J0.2899
G3 X-19.8167 Y-5.8598 I0.3647 J0.3647
G3 X-19.7412 Y-5.9006 I0.2367 J0.3482
G3 X-19.6589 Y-5.9252 I0.1611 J0.389
G3 X-19.5623 Y-5.9343 I0.0966 J0.5066
G3 X-19.4657 Y-5.9252 I0 J0.5157
G3 X-19.3834 Y-5.9006 I-0.0789 J0.4136
G3 X-19.3079 Y-5.8598 I-0.1611 J0.389
G3 X-19.2331 Y-5.798 I-0.2899 J0.4265
G3 X-19.1712 Y-5.7232 I-0.3647 J0.3647
G3 X-19.1305 Y-5.6476 I-0.3482 J0.2367
G3 X-19.1059 Y-5.5654 I-0.389 J0.1611
G3 X-19.0967 Y-5.4688 I-0.5066 J0.0966
G3 X-19.1059 Y-5.3721 I-0.5157 J0
G3 X-19.1305 Y-5.2899 I-0.4136 J-0.0789
G3 X-19.1712 Y-5.2143 I-0.389 J-0.1611
G3 X-19.2331 Y-5.1396 I-0.4265 J-0.2899
G3 X-19.3079 Y-5.0777 I-0.3647 J-0.3647
G3 X-19.3834 Y-5.0369 I-0.2367 J-0.3482
G3 X-19.4657 Y-5.0123 I-0.1611 J-0.389
G3 X-19.5623 Y-5.0032 I-0.0966 J-0.5066
G3 X-19.6589 Y-5.0123 I0 J-0.5157
G3 X-19.7412 Y-5.0369 I0.0789 J-0.4136
G3 X-19.8167 Y-5.0777 I0.1611 J-0.389
G1 Z-0.8 F30
G3 X-19.8915 Y-5.1396 I0.2899 J-0.4265 F20
G3 X-19.9534 Y-5.2143 I0.3647 J-0.3647
G3 X-19.9941 Y-5.2899 I0.3482 J-0.2367
G3 X-20.0187 Y-5.3721 I0.389 J-0.1611
G3 X-20.0278 Y-5.4688 I0.5066 J-0.0966
G3 X-20.0187 Y-5.5654 I0.5157 J0
G3 X-19.9941 Y-5.6476 I0.4136 J0.0789
G3 X-19.9534 Y-5.7232 I0.389 J0.1611
G3 X-19.8915 Y-5.798 I0.4265 J0.2899
G3 X-19.8167 Y-5.8598 I0.3647 J0.3647
G3 X-19.7412 Y-5.9006 I0.2367 J0.3482
G3 X-19.6589 Y-5.9252 I0.1611 J0.389
G3 X-19.5623 Y-5.9343 I0.0966 J0.5066
G3 X-19.4657 Y-5.9252 I0 J0.5157
G3 X-19.3834 Y-5.9006 I-0.0789 J0.4136
G3 X-19.3079 Y-5.8598 I-0.1611 J0.389
G3 X-19.2331 Y-5.798 I-0.2899 J0.4265
G3 X-19.1712 Y-5.7232 I-0.3647 J0.3647
G3 X-19.1305 Y-5.6476 I-0.3482 J0.2367
G3 X-19.1059 Y-5.5654 I-0.389 J0.1611
G3 X-19.0967 Y-5.4688 I-0.5066 J0.0966
G3 X-19.1059 Y-5.3721 I-0.5157 J0
G3 X-19.1305 Y-5.2899 I-0.4136 J-0.0789
G3 X-19.1712 Y-5.2143 I-0.389 J-0.1611
G3 X-19.2331 Y-5.1396 I-0.4265 J-0.2899
G3 X-19.3079 Y-5.0777 I-0.3647 J-0.3647
G3 X-19.3834 Y-5.0369 I-0.2367 J-0.3482
G3 X-19.4657 Y-5.0123 I-0.1611 J-0.389
G3 X-19.5623 Y-5.0032 I-0.0966 J-0.5066
G3 X-19.6589 Y-5.0123 I0 J-0.5157
G3 X-19.7412 Y-5.0369 I0.0789 J-0.4136
G3 X-19.8167 Y-5.0777 I0.1611 J-0.389
G0 Z0.1
G0 X4.9872 Y-4.8442
G1 Z-0.1 F30
G3 X4.8906 Y-4.8533 I0 J-0.5157 F20
G3 X4.8083 Y-4.8779 I0.0789 J-0.4136
G3 X4.7328 Y-4.9187 I0.1611 J-0.389
G3 X4.658 Y-4.9805 I0.2899 J-0.4265
G3 X4.5961 Y-5.0553 I0.3647 J-0.3647
G3 X4.5554 Y-5.1308 I0.3482 J-0.2367
G3 X4.5308 Y-5.2131 I0.389 J-0.1611
G3 X4.5216 Y-5.3097 I0.5066 J-0.0966
G3 X4.5308 Y-5.4063 I0.5157 J0
G3 X4.5554 Y-5.4886 I0.4136 J0.0789
G3 X4.5961 Y-5.5641 I0.389 J0.1611
G3 X4.658 Y-5.6389 I0.4265 J0.2899
G3 X4.7328 Y-5.7008 I0.3647 J0.3647
G3 X4.8083 Y-5.7415 I0.2367 J0.3482
G3 X4.8906 Y-5.7661 I0.1611 J0.389
G3 X4.9872 Y-5.7753 I0.0966 J0.5066
G3 X5.0838 Y-5.7661 I0 J0.5157
G3 X5.1661 Y-5.7415 I-0.0789 J0.4136
G3 X5.2416 Y-5.7008 I-0.1611 J0.389
G3 X5.3164 Y-5.6389 I-0.2899 J0.4265
G3 X5.3783 Y-5.5641 I-0.3647 J0.3647
G3 X5.419 Y-5.4886 I-0.3482 J0.2367
G3 X5.4436 Y-5.4063 I-0.389 J0.1611
G3 X5.4527 Y-5.3097 I-0.5066 J0.0966
G3 X5.4436 Y-5.2131 I-0.5157 J0
G3 X5.419 Y-5.1308 I-0.4136 J-0.0789
G3 X5.3783 Y-5.0553 I-0.389 J-0.1611
G3 X5.3164 Y-4.9805 I-0.4265 J-0.2899
G3 X5.2416 Y-4.9187 I-0.3647 J-0.3647
G3 X5.1661 Y-4.8779 I-0.2367 J-0.3482
G3 X5.0838 Y-4.8533 I-0.1611 J-0.389
G3 X4.9872 Y-4.8442 I-0.0966 J-0.5066
G1 Z-0.2 F30
G3 X4.8906 Y-4.8533 I0 J-0.5157 F20
G3 X4.8083 Y-4.8779 I0.0789 J-0.4136
G3 X4.7328 Y-4.9187 I0.1611 J-0.389
G3 X4.658 Y-4.9805 I0.2899 J-0.4265
G3 X4.5961 Y-5.0553 I0.3647 J-0.3647
G3 X4.5554 Y-5.1308 I0.3482 J-0.2367
G3 X4.5308 Y-5.2131 I0.389 J-0.1611
G3 X4.5216 Y-5.3097 I0.5066 J-0.0966
G3 X4.5308 Y-5.4063 I0.5157 J0
G3 X4.5554 Y-5.4886 I0.4136 J0.0789
G3 X4.5961 Y-5.5641 I0.389 J0.1611
G3 X4.658 Y-5.6389 I0.4265 J0.2899
G3 X4.7328 Y-5.7008 I0.3647 J0.3647
G3 X4.8083 Y-5.7415 I0.2367 J0.3482
G3 X4.8906 Y-5.7661 I0.1611 J0.389
G3 X4.9872 Y-5.7753 I0.0966 J0.5066
G3 X5.0838 Y-5.7661 I0 J0.5157
G3 X5.1661 Y-5.7415 I-0.0789 J0.4136
G3 X5.2416 Y-5.7008 I-0.1611 J0.389
G3 X5.3164 Y-5.6389 I-0.2899 J0.4265
G3 X5.3783 Y-5.5641 I-0.3647 J0.3647
G3 X5.419 Y-5.4886 I-0.3482 J0.2367
G3 X5.4436 Y-5.4063 I-0.389 J0.1611
G3 X5.4527 Y-5.3097 I-0.5066 J0.0966
G3 X5.4436 Y-5.2131 I-0.5157 J0
G3 X5.419 Y-5.1308 I-0.4136 J-0.0789
G3 X5.3783 Y-5.0553 I-0.389 J-0.1611
G3 X5.3164 Y-4.9805 I-0.4265 J-0.2899
G3 X5.2416 Y-4.9187 I-0.3647 J-0.3647
G3 X5.1661 Y-4.8779 I-0.2367 J-0.3482
G3 X5.0838 Y-4.8533 I-0.1611 J-0.389
G3 X4.9872 Y-4.8442 I-0.0966 J-0.5066
G1 Z-0.3 F30
G3 X4.8906 Y-4.8533 I0 J-0.5157 F20
G3 X4.8083 Y-4.8779 I0.0789 J-0.4136
G3 X4.7328 Y-4.9187 I0.1611 J-0.389
G3 X4.658 Y-4.9805 I0.2899 J-0.4265
G3 X4.5961 Y-5.0553 I0.3647 J-0.3647
G3 X4.5554 Y-5.1308 I0.3482 J-0.2367
G3 X4.5308 Y-5.2131 I0.389 J-0.1611
G3 X4.5216 Y-5.3097 I0.5066 J-0.0966
G3 X4.5308 Y-5.4063 I0.5157 J0
G3 X4.5554 Y-5.4886 I0.4136 J0.0789
G3 X4.5961 Y-5.5641 I0.389 J0.1611
G3 X4.658 Y-5.6389 I0.4265 J0.2899
G3 X4.7328 Y-5.7008 I0.3647 J0.3647
G3 X4.8083 Y-5.7415 I0.2367 J0.3482
G3 X4.8906 Y-5.7661 I0.1611 J0.389
G3 X4.9872 Y-5.7753 I0.0966 J0.5066
G3 X5.0838 Y-5.7661 I0 J0.5157
G3 X5.1661 Y-5.7415 I-0.0789 J0.4136
G3 X5.2416 Y-5.7008 I-0.1611 J0.389
G3 X5.3164 Y-5.6389 I-0.2899 J0.4265
G3 X5.3783 Y-5.5641 I-0.3647 J0.3647
G3 X5.419 Y-5.4886 I-0.3482 J0.2367
G3 X5.4436 Y-5.4063 I-0.389 J0.1611
G3 X5.4527 Y-5.3097 I-0.5066 J0.0966
G3 X5.4436 Y-5.2131 I-0.5157 J0
G3 X5.419 Y-5.1308 I-0.4136 J-0.0789
G3 X5.3783 Y-5.0553 I-0.389 J-0.1611
G3 X5.3164 Y-4.9805 I-0.4265 J-0.2899
G3 X5.2416 Y-4.9187 I-0.3647 J-0.3647
G3 X5.1661 Y-4.8779 I-0.2367 J-0.3482
G3 X5.0838 Y-4.8533 I-0.1611 J-0.389
G3 X4.9872 Y-4.8442 I-0.0966 J-0.5066
G1 Z-0.4 F30
G3 X4.8906 Y-4.8533 I0 J-0.5157 F20
G3 X4.8083 Y-4.8779 I0.0789 J-0.4136
G3 X4.7328 Y-4.9187 I0.1611 J-0.389
G3 X4.658 Y-4.9805 I0.2899 J-0.4265
G3 X4.5961 Y-5.0553 I0.3647 J-0.3647
G3 X4.5554 Y-5.1308 I0.3482 J-0.2367
G3 X4.5308 Y-5.2131 I0.389 J-0.1611
G3 X4.5216 Y-5.3097 I0.5066 J-0.0966
G3 X4.5308 Y-5.4063 I0.5157 J0
G3 X4.5554 Y-5.4886 I0.4136 J0.0789
G3 X4.5961 Y-5.5641 I0.389 J0.1611
G3 X4.658 Y-5.6389 I0.4265 J0.2899
G3 X4.7328 Y-5.7008 I0.3647 J0.3647
G3 X4.8083 Y-5.7415 I0.2367 J0.3482
G3 X4.8906 Y-5.7661 I0.1611 J0.389
G3 X4.9872 Y-5.7753 I0.0966 J0.5066
G3 X5.0838 Y-5.7661 I0 J0.5157
G3 X5.1661 Y-5.7415 I-0.0789 J0.4136
G3 X5.2416 Y-5.7008 I-0.1611 J0.389
G3 X5.3164 Y-5.6389 I-0.2899 J0.4265
G3 X5.3783 Y-5.5641 I-0.3647 J0.3647
G3 X5.419 Y-5.4886 I-0.3482 J0.2367
G3 X5.4436 Y-5.4063 I-0.389 J0.1611
G3 X5.4527 Y-5.3097 I-0.5066 J0.0966
G3 X5.4436 Y-5.2131 I-0.5157 J0
G3 X5.419 Y-5.1308 I-0.4136 J-0.0789
G3 X5.3783 Y-5.0553 I-0.389 J-0.1611
G3 X5.3164 Y-4.9805 I-0.4265 J-0.2899
G3 X5.2416 Y-4.9187 I-0.3647 J-0.3647
G3 X5.1661 Y-4.8779 I-0.2367 J-0.3482
G3 X5.0838 Y-4.8533 I-0.1611 J-0.389
G3 X4.9872 Y-4.8442 I-0.0966 J-0.5066
G1 Z-0.5 F30
G3 X4.8906 Y-4.8533 I0 J-0.5157 F20
G3 X4.8083 Y-4.8779 I0.0789 J-0.4136
G3 X4.7328 Y-4.9187 I0.1611 J-0.389
G3 X4.658 Y-4.9805 I0.2899 J-0.4265
G3 X4.5961 Y-5.0553 I0.3647 J-0.3647
G3 X4.5554 Y-5.1308 I0.3482 J-0.2367
G3 X4.5308 Y-5.2131 I0.389 J-0.1611
G3 X4.5216 Y-5.3097 I0.5066 J-0.0966
G3 X4.5308 Y-5.4063 I0.5157 J0
G3 X4.5554 Y-5.4886 I0.4136 J0.0789
G3 X4.5961 Y-5.5641 I0.389 J0.1611
G3 X4.658 Y-5.6389 I0.4265 J0.2899
G3 X4.7328 Y-5.7008 I0.3647 J0.3647
G3 X4.8083 Y-5.7415 I0.2367 J0.3482
G3 X4.8906 Y-5.7661 I0.1611 J0.389
G3 X4.9872 Y-5.7753 I0.0966 J0.5066
G3 X5.0838 Y-5.7661 I0 J0.5157
G3 X5.1661 Y-5.7415 I-0.0789 J0.4136
G3 X5.2416 Y-5.7008 I-0.1611 J0.389
G3 X5.3164 Y-5.6389 I-0.2899 J0.4265
G3 X5.3783 Y-5.5641 I-0.3647 J0.3647
G3 X5.419 Y-5.4886 I-0.3482 J0.2367
G3 X5.4436 Y-5.4063 I-0.389 J0.1611
G3 X5.4527 Y-5.3097 I-0.5066 J0.0966
G3 X5.4436 Y-5.2131 I-0.5157 J0
G3 X5.419 Y-5.1308 I-0.4136 J-0.0789
G3 X5.3783 Y-5.0553 I-0.389 J-0.1611
G3 X5.3164 Y-4.9805 I-0.4265 J-0.2899
G3 X5.2416 Y-4.9187 I-0.3647 J-0.3647
G3 X5.1661 Y-4.8779 I-0.2367 J-0.3482
G3 X5.0838 Y-4.8533 I-0.1611 J-0.389
G3 X4.9872 Y-4.8442 I-0.0966 J-0.5066
G1 Z-0.6 F30
G3 X4.8906 Y-4.8533 I0 J-0.5157 F20
G3 X4.8083 Y-4.8779 I0.0789 J-0.4136
G3 X4.7328 Y-4.9187 I0.1611 J-0.389
G3 X4.658 Y-4.9805 I0.2899 J-0.4265
G3 X4.5961 Y-5.0553 I0.3647 J-0.3647
G3 X4.5554 Y-5.1308 I0.3482 J-0.2367
G3 X4.5308 Y-5.2131 I0.389 J-0.1611
G3 X4.5216 Y-5.3097 I0.5066 J-0.0966
G3 X4.5308 Y-5.4063 I0.5157 J0
G3 X4.5554 Y-5.4886 I0.4136 J0.0789
G3 X4.5961 Y-5.5641 I0.389 J0.1611
G3 X4.658 Y-5.6389 I0.4265 J0.2899
G3 X4.7328 Y-5.7008 I0.3647 J0.3647
G3 X4.8083 Y-5.7415 I0.2367 J0.3482
G3 X4.8906 Y-5.7661 I0.1611 J0.389
G3 X4.9872 Y-5.7753 I0.0966 J0.5066
G3 X5.0838 Y-5.7661 I0 J0.5157
G3 X5.1661 Y-5.7415 I-0.0789 J0.4136
G3 X5.2416 Y-5.7008 I-0.1611 J0.389
G3 X5.3164 Y-5.6389 I-0.2899 J0.4265
G3 X5.3783 Y-5.5641 I-0.3647 J0.3647
G3 X5.419 Y-5.4886 I-0.3482 J0.2367
G3 X5.4436 Y-5.4063 I-0.389 J0.1611
G3 X5.4527 Y-5.3097 I-0.5066 J0.0966
G3 X5.4436 Y-5.2131 I-0.5157 J0
G3 X5.419 Y-5.1308 I-0.4136 J-0.0789
G3 X5.3783 Y-5.0553 I-0.389 J-0.1611
G3 X5.3164 Y-4.9805 I-0.4265 J-0.2899
G3 X5.2416 Y-4.9187 I-0.3647 J-0.3647
G3 X5.1661 Y-4.8779 I-0.2367 J-0.3482
G3 X5.0838 Y-4.8533 I-0.1611 J-0.389
G3 X4.9872 Y-4.8442 I-0.0966 J-0.5066
G1 Z-0.7 F30
G3 X4.8906 Y-4.8533 I0 J-0.5157 F20
G3 X4.8083 Y-4.8779 I0.0789 J-0.4136
G3 X4.7328 Y-4.9187 I0.1611 J-0.389
G3 X4.658 Y-4.9805 I0.2899 J-0.4265
G3 X4.5961 Y-5.0553 I0.3647 J-0.3647
G3 X4.5554 Y-5.1308 I0.3482 J-0.2367
G3 X4.5308 Y-5.2131 I0.389 J-0.1611
G3 X4.5216 Y-5.3097 I0.5066 J-0.0966
G3 X4.5308 Y-5.4063 I0.5157 J0
G3 X4.5554 Y-5.4886 I0.4136 J0.0789
G3 X4.5961 Y-5.5641 I0.389 J0.1611
G3 X4.658 Y-5.6389 I0.4265 J0.2899
G3 X4.7328 Y-5.7008 I0.3647 J0.3647
G3 X4.8083 Y-5.7415 I0.2367 J0.3482
G3 X4.8906 Y-5.7661 I0.1611 J0.389
G3 X4.9872 Y-5.7753 I0.0966 J0.5066
G3 X5.0838 Y-5.7661 I0 J0.5157
G3 X5.1661 Y-5.7415 I-0.0789 J0.4136
G3 X5.2416 Y-5.7008 I-0.1611 J0.389
G3 X5.3164 Y-5.6389 I-0.2899 J0.4265
G3 X5.3783 Y-5.5641 I-0.3647 J0.3647
G3 X5.419 Y-5.4886 I-0.3482 J0.2367
G3 X5.4436 Y-5.4063 I-0.389 J0.1611
G3 X5.4527 Y-5.3097 I-0.5066 J0.0966
G3 X5.4436 Y-5.2131 I-0.5157 J0
G3 X5.419 Y-5.1308 I-0.4136 J-0.0789
G3 X5.3783 Y-5.0553 I-0.389 J-0.1611
G3 X5.3164 Y-4.9805 I-0.4265 J-0.2899
G3 X5.2416 Y-4.9187 I-0.3647 J-0.3647
G3 X5.1661 Y-4.8779 I-0.2367 J-0.3482
G3 X5.0838 Y-4.8533 I-0.1611 J-0.389
G3 X4.9872 Y-4.8442 I-0.0966 J-0.5066
G1 Z-0.8 F30
G3 X4.8906 Y-4.8533 I0 J-0.5157 F20
G3 X4.8083 Y-4.8779 I0.0789 J-0.4136
G3 X4.7328 Y-4.9187 I0.1611 J-0.389
G3 X4.658 Y-4.9805 I0.2899 J-0.4265
G3 X4.5961 Y-5.0553 I0.3647 J-0.3647
G3 X4.5554 Y-5.1308 I0.3482 J-0.2367
G3 X4.5308 Y-5.2131 I0.389 J-0.1611
G3 X4.5216 Y-5.3097 I0.5066 J-0.0966
G3 X4.5308 Y-5.4063 I0.5157 J0
G3 X4.5554 Y-5.4886 I0.4136 J0.0789
G3 X4.5961 Y-5.5641 I0.389 J0.1611
G3 X4.658 Y-5.6389 I0.4265 J0.2899
G3 X4.7328 Y-5.7008 I0.3647 J0.3647
G3 X4.8083 Y-5.7415 I0.2367 J0.3482
G3 X4.8906 Y-5.7661 I0.1611 J0.389
G3 X4.9872 Y-5.7753 I0.0966 J0.5066
G3 X5.0838 Y-5.7661 I0 J0.5157
G3 X5.1661 Y-5.7415 I-0.0789 J0.4136
G3 X5.2416 Y-5.7008 I-0.1611 J0.389
G3 X5.3164 Y-5.6389 I-0.2899 J0.4265
G3 X5.3783 Y-5.5641 I-0.3647 J0.3647
G3 X5.419 Y-5.4886 I-0.3482 J0.2367
G3 X5.4436 Y-5.4063 I-0.389 J0.1611
G3 X5.4527 Y-5.3097 I-0.5066 J0.0966
G3 X5.4436 Y-5.2131 I-0.5157 J0
G3 X5.419 Y-5.1308 I-0.4136 J-0.0789
G3 X5.3783 Y-5.0553 I-0.389 J-0.1611
G3 X5.3164 Y-4.9805 I-0.4265 J-0.2899
G3 X5.2416 Y-4.9187 I-0.3647 J-0.3647
G3 X5.1661 Y-4.8779 I-0.2367 J-0.3482
G3 X5.0838 Y-4.8533 I-0.1611 J-0.389
G3 X4.9872 Y-4.8442 I-0.0966 J-0.5066
G0 Z0.1
G0 X-28.6032 Y-5.798
G1 Z-0.1 F30
G3 X-28.5413 Y-5.7232 I-0.3647 J0.3647 F20
G3 X-28.5006 Y-5.6476 I-0.3482 J0.2367
G3 X-28.476 Y-5.5654 I-0.389 J0.1611
G3 X-28.4668 Y-5.4688 I-0.5066 J0.0966
G3 X-28.476 Y-5.3721 I-0.5157 J0
G3 X-28.5006 Y-5.2899 I-0.4136 J-0.0789
G3 X-28.5413 Y-5.2143 I-0.389 J-0.1611
G3 X-28.6032 Y-5.1396 I-0.4265 J-0.2899
G3 X-28.678 Y-5.0777 I-0.3647 J-0.3647
G3 X-28.7535 Y-5.0369 I-0.2367 J-0.3482
G3 X-28.8357 Y-5.0123 I-0.1611 J-0.389
G3 X-28.9324 Y-5.0032 I-0.0966 J-0.5066
G3 X-29.029 Y-5.0123 I0 J-0.5157
G3 X-29.1112 Y-5.0369 I0.0789 J-0.4136
G3 X-29.1868 Y-5.0777 I0.1611 J-0.389
G3 X-29.2616 Y-5.1396 I0.2899 J-0.4265
G3 X-29.3234 Y-5.2143 I0.3647 J-0.3647
G3 X-29.3642 Y-5.2899 I0.3482 J-0.2367
G3 X-29.3888 Y-5.3721 I0.389 J-0.1611
G3 X-29.3979 Y-5.4688 I0.5066 J-0.0966
G3 X-29.3888 Y-5.5654 I0.5157 J0
G3 X-29.3642 Y-5.6476 I0.4136 J0.0789
G3 X-29.3234 Y-5.7232 I0.389 J0.1611
G3 X-29.2616 Y-5.798 I0.4265 J0.2899
G3 X-29.1868 Y-5.8598 I0.3647 J0.3647
G3 X-29.1112 Y-5.9006 I0.2367 J0.3482
G3 X-29.029 Y-5.9252 I0.1611 J0.389
G3 X-28.9324 Y-5.9343 I0.0966 J0.5066
G3 X-28.8357 Y-5.9252 I0 J0.5157
G3 X-28.7535 Y-5.9006 I-0.0789 J0.4136
G3 X-28.678 Y-5.8598 I-0.1611 J0.389
G3 X-28.6032 Y-5.798 I-0.2899 J0.4265
G1 Z-0.2 F30
G3 X-28.5413 Y-5.7232 I-0.3647 J0.3647 F20
G3 X-28.5006 Y-5.6476 I-0.3482 J0.2367
G3 X-28.476 Y-5.5654 I-0.389 J0.1611
G3 X-28.4668 Y-5.4688 I-0.5066 J0.0966
G3 X-28.476 Y-5.3721 I-0.5157 J0
G3 X-28.5006 Y-5.2899 I-0.4136 J-0.0789
G3 X-28.5413 Y-5.2143 I-0.389 J-0.1611
G3 X-28.6032 Y-5.1396 I-0.4265 J-0.2899
G3 X-28.678 Y-5.0777 I-0.3647 J-0.3647
G3 X-28.7535 Y-5.0369 I-0.2367 J-0.3482
G3 X-28.8357 Y-5.0123 I-0.1611 J-0.389
G3 X-28.9324 Y-5.0032 I-0.0966 J-0.5066
G3 X-29.029 Y-5.0123 I0 J-0.5157
G3 X-29.1112 Y-5.0369 I0.0789 J-0.4136
G3 X-29.1868 Y-5.0777 I0.1611 J-0.389
G3 X-29.2616 Y-5.1396 I0.2899 J-0.4265
G3 X-29.3234 Y-5.2143 I0.3647 J-0.3647
G3 X-29.3642 Y-5.2899 I0.3482 J-0.2367
G3 X-29.3888 Y-5.3721 I0.389 J-0.1611
G3 X-29.3979 Y-5.4688 I0.5066 J-0.0966
G3 X-29.3888 Y-5.5654 I0.5157 J0
G3 X-29.3642 Y-5.6476 I0.4136 J0.0789
G3 X-29.3234 Y-5.7232 I0.389 J0.1611
G3 X-29.2616 Y-5.798 I0.4265 J0.2899
G3 X-29.1868 Y-5.8598 I0.3647 J0.3647
G3 X-29.1112 Y-5.9006 I0.2367 J0.3482
G3 X-29.029 Y-5.9252 I0.1611 J0.389
G3 X-28.9324 Y-5.9343 I0.0966 J0.5066
G3 X-28.8357 Y-5.9252 I0 J0.5157
G3 X-28.7535 Y-5.9006 I-0.0789 J0.4136
G3 X-28.678 Y-5.8598 I-0.1611 J0.389
G3 X-28.6032 Y-5.798 I-0.2899 J0.4265
G1 Z-0.3 F30
G3 X-28.5413 Y-5.7232 I-0.3647 J0.3647 F20
G3 X-28.5006 Y-5.6476 I-0.3482 J0.2367
G3 X-28.476 Y-5.5654 I-0.389 J0.1611
G3 X-28.4668 Y-5.4688 I-0.5066 J0.0966
G3 X-28.476 Y-5.3721 I-0.5157 J0
G3 X-28.5006 Y-5.2899 I-0.4136 J-0.0789
G3 X-28.5413 Y-5.2143 I-0.389 J-0.1611
G3 X-28.6032 Y-5.1396 I-0.4265 J-0.2899
G3 X-28.678 Y-5.0777 I-0.3647 J-0.3647
G3 X-28.7535 Y-5.0369 I-0.2367 J-0.3482
G3 X-28.8357 Y-5.0123 I-0.1611 J-0.389
G3 X-28.9324 Y-5.0032 I-0.0966 J-0.5066
G3 X-29.029 Y-5.0123 I0 J-0.5157
G3 X-29.1112 Y-5.0369 I0.0789 J-0.4136
G3 X-29.1868 Y-5.0777 I0.1611 J-0.389
G3 X-29.2616 Y-5.1396 I0.2899 J-0.4265
G3 X-29.3234 Y-5.2143 I0.3647 J-0.3647
G3 X-29.3642 Y-5.2899 I0.3482 J-0.2367
G3 X-29.3888 Y-5.3721 I0.389 J-0.1611
G3 X-29.3979 Y-5.4688 I0.5066 J-0.0966
G3 X-29.3888 Y-5.5654 I0.5157 J0
G3 X-29.3642 Y-5.6476 I0.4136 J0.0789
G3 X-29.3234 Y-5.7232 I0.389 J0.1611
G3 X-29.2616 Y-5.798 I0.4265 J0.2899
G3 X-29.1868 Y-5.8598 I0.3647 J0.3647
G3 X-29.1112 Y-5.9006 I0.2367 J0.3482
G3 X-29.029 Y-5.9252 I0.1611 J0.389
G3 X-28.9324 Y-5.9343 I0.0966 J0.5066
G3 X-28.8357 Y-5.9252 I0 J0.5157
G3 X-28.7535 Y-5.9006 I-0.0789 J0.4136
G3 X-28.678 Y-5.8598 I-0.1611 J0.389
G3 X-28.6032 Y-5.798 I-0.2899 J0.4265
G1 Z-0.4 F30
G3 X-28.5413 Y-5.7232 I-0.3647 J0.3647 F20
G3 X-28.5006 Y-5.6476 I-0.3482 J0.2367
G3 X-28.476 Y-5.5654 I-0.389 J0.1611
G3 X-28.4668 Y-5.4688 I-0.5066 J0.0966
G3 X-28.476 Y-5.3721 I-0.5157 J0
G3 X-28.5006 Y-5.2899 I-0.4136 J-0.0789
G3 X-28.5413 Y-5.2143 I-0.389 J-0.1611
G3 X-28.6032 Y-5.1396 I-0.4265 J-0.2899
G3 X-28.678 Y-5.0777 I-0.3647 J-0.3647
G3 X-28.7535 Y-5.0369 I-0.2367 J-0.3482
