(Generated by PartKam Version 0.05)

G20 G90 G40

(Holes)
G0 Z0.1
T0 M6
G17
M3
G0 X17.5664 Y12.7707
G1 Z-0.1 F30
G3 X17.5755 Y12.8674 I-0.5066 J0.0966 F20
G3 X17.5664 Y12.964 I-0.5157 J0
G3 X17.5418 Y13.0462 I-0.4136 J-0.0789
G3 X17.501 Y13.1218 I-0.389 J-0.1611
G3 X17.4392 Y13.1966 I-0.4265 J-0.2899
G3 X17.3644 Y13.2584 I-0.3647 J-0.3647
G3 X17.2889 Y13.2992 I-0.2367 J-0.3482
G3 X17.2066 Y13.3238 I-0.1611 J-0.389
G3 X17.11 Y13.3329 I-0.0966 J-0.5066
G3 X17.0134 Y13.3238 I0 J-0.5157
G3 X16.9311 Y13.2992 I0.0789 J-0.4136
G3 X16.8556 Y13.2584 I0.1611 J-0.389
G3 X16.7808 Y13.1966 I0.2899 J-0.4265
G3 X16.7189 Y13.1218 I0.3647 J-0.3647
G3 X16.6782 Y13.0462 I0.3482 J-0.2367
G3 X16.6536 Y12.964 I0.389 J-0.1611
G3 X16.6444 Y12.8674 I0.5066 J-0.0966
G3 X16.6536 Y12.7707 I0.5157 J0
G3 X16.6782 Y12.6885 I0.4136 J0.0789
G3 X16.7189 Y12.613 I0.389 J0.1611
G3 X16.7808 Y12.5382 I0.4265 J0.2899
G3 X16.8556 Y12.4763 I0.3647 J0.3647
G3 X16.9311 Y12.4355 I0.2367 J0.3482
G3 X17.0134 Y12.4109 I0.1611 J0.389
G3 X17.11 Y12.4018 I0.0966 J0.5066
G3 X17.2066 Y12.4109 I0 J0.5157
G3 X17.2889 Y12.4355 I-0.0789 J0.4136
G3 X17.3644 Y12.4763 I-0.1611 J0.389
G3 X17.4392 Y12.5382 I-0.2899 J0.4265
G3 X17.501 Y12.613 I-0.3647 J0.3647
G3 X17.5418 Y12.6885 I-0.3482 J0.2367
G3 X17.5664 Y12.7707 I-0.389 J0.1611
G1 Z-0.2 F30
G3 X17.5755 Y12.8674 I-0.5066 J0.0966 F20
G3 X17.5664 Y12.964 I-0.5157 J0
G3 X17.5418 Y13.0462 I-0.4136 J-0.0789
G3 X17.501 Y13.1218 I-0.389 J-0.1611
G3 X17.4392 Y13.1966 I-0.4265 J-0.2899
G3 X17.3644 Y13.2584 I-0.3647 J-0.3647
G3 X17.2889 Y13.2992 I-0.2367 J-0.3482
G3 X17.2066 Y13.3238 I-0.1611 J-0.389
G3 X17.11 Y13.3329 I-0.0966 J-0.5066
G3 X17.0134 Y13.3238 I0 J-0.5157
G3 X16.9311 Y13.2992 I0.0789 J-0.4136
G3 X16.8556 Y13.2584 I0.1611 J-0.389
G3 X16.7808 Y13.1966 I0.2899 J-0.4265
G3 X16.7189 Y13.1218 I0.3647 J-0.3647
G3 X16.6782 Y13.0462 I0.3482 J-0.2367
G3 X16.6536 Y12.964 I0.389 J-0.1611
G3 X16.6444 Y12.8674 I0.5066 J-0.0966
G3 X16.6536 Y12.7707 I0.5157 J0
G3 X16.6782 Y12.6885 I0.4136 J0.0789
G3 X16.7189 Y12.613 I0.389 J0.1611
G3 X16.7808 Y12.5382 I0.4265 J0.2899
G3 X16.8556 Y12.4763 I0.3647 J0.3647
G3 X16.9311 Y12.4355 I0.2367 J0.3482
G3 X17.0134 Y12.4109 I0.1611 J0.389
G3 X17.11 Y12.4018 I0.0966 J0.5066
G3 X17.2066 Y12.4109 I0 J0.5157
G3 X17.2889 Y12.4355 I-0.0789 J0.4136
G3 X17.3644 Y12.4763 I-0.1611 J0.389
G3 X17.4392 Y12.5382 I-0.2899 J0.4265
G3 X17.501 Y12.613 I-0.3647 J0.3647
G3 X17.5418 Y12.6885 I-0.3482 J0.2367
G3 X17.5664 Y12.7707 I-0.389 J0.1611
G1 Z-0.3 F30
G3 X17.5755 Y12.8674 I-0.5066 J0.0966 F20
G3 X17.5664 Y12.964 I-0.5157 J0
G3 X17.5418 Y13.0462 I-0.4136 J-0.0789
G3 X17.501 Y13.1218 I-0.389 J-0.1611
G3 X17.4392 Y13.1966 I-0.4265 J-0.2899
G3 X17.3644 Y13.2584 I-0.3647 J-0.3647
G3 X17.2889 Y13.2992 I-0.2367 J-0.3482
G3 X17.2066 Y13.3238 I-0.1611 J-0.389
G3 X17.11 Y13.3329 I-0.0966 J-0.5066
G3 X17.0134 Y13.3238 I0 J-0.5157
G3 X16.9311 Y13.2992 I0.0789 J-0.4136
G3 X16.8556 Y13.2584 I0.1611 J-0.389
G3 X16.7808 Y13.1966 I0.2899 J-0.4265
G3 X16.7189 Y13.1218 I0.3647 J-0.3647
G3 X16.6782 Y13.0462 I0.3482 J-0.2367
G3 X16.6536 Y12.964 I0.389 J-0.1611
G3 X16.6444 Y12.8674 I0.5066 J-0.0966
G3 X16.6536 Y12.7707 I0.5157 J0
G3 X16.6782 Y12.6885 I0.4136 J0.0789
G3 X16.7189 Y12.613 I0.389 J0.1611
G3 X16.7808 Y12.5382 I0.4265 J0.2899
G3 X16.8556 Y12.4763 I0.3647 J0.3647
G3 X16.9311 Y12.4355 I0.2367 J0.3482
G3 X17.0134 Y12.4109 I0.1611 J0.389
G3 X17.11 Y12.4018 I0.0966 J0.5066
G3 X17.2066 Y12.4109 I0 J0.5157
G3 X17.2889 Y12.4355 I-0.0789 J0.4136
G3 X17.3644 Y12.4763 I-0.1611 J0.389
G3 X17.4392 Y12.5382 I-0.2899 J0.4265
G3 X17.501 Y12.613 I-0.3647 J0.3647
G3 X17.5418 Y12.6885 I-0.3482 J0.2367
G3 X17.5664 Y12.7707 I-0.389 J0.1611
G1 Z-0.4 F30
G3 X17.5755 Y12.8674 I-0.5066 J0.0966 F20
G3 X17.5664 Y12.964 I-0.5157 J0
G3 X17.5418 Y13.0462 I-0.4136 J-0.0789
G3 X17.501 Y13.1218 I-0.389 J-0.1611
G3 X17.4392 Y13.1966 I-0.4265 J-0.2899
G3 X17.3644 Y13.2584 I-0.3647 J-0.3647
G3 X17.2889 Y13.2992 I-0.2367 J-0.3482
G3 X17.2066 Y13.3238 I-0.1611 J-0.389
G3 X17.11 Y13.3329 I-0.0966 J-0.5066
G3 X17.0134 Y13.3238 I0 J-0.5157
G3 X16.9311 Y13.2992 I0.0789 J-0.4136
G3 X16.8556 Y13.2584 I0.1611 J-0.389
G3 X16.7808 Y13.1966 I0.2899 J-0.4265
G3 X16.7189 Y13.1218 I0.3647 J-0.3647
G3 X16.6782 Y13.0462 I0.3482 J-0.2367
G3 X16.6536 Y12.964 I0.389 J-0.1611
G3 X16.6444 Y12.8674 I0.5066 J-0.0966
G3 X16.6536 Y12.7707 I0.5157 J0
G3 X16.6782 Y12.6885 I0.4136 J0.0789
G3 X16.7189 Y12.613 I0.389 J0.1611
G3 X16.7808 Y12.5382 I0.4265 J0.2899
G3 X16.8556 Y12.4763 I0.3647 J0.3647
G3 X16.9311 Y12.4355 I0.2367 J0.3482
G3 X17.0134 Y12.4109 I0.1611 J0.389
G3 X17.11 Y12.4018 I0.0966 J0.5066
G3 X17.2066 Y12.4109 I0 J0.5157
G3 X17.2889 Y12.4355 I-0.0789 J0.4136
G3 X17.3644 Y12.4763 I-0.1611 J0.389
G3 X17.4392 Y12.5382 I-0.2899 J0.4265
G3 X17.501 Y12.613 I-0.3647 J0.3647
G3 X17.5418 Y12.6885 I-0.3482 J0.2367
G3 X17.5664 Y12.7707 I-0.389 J0.1611
G1 Z-0.5 F30
G3 X17.5755 Y12.8674 I-0.5066 J0.0966 F20
G3 X17.5664 Y12.964 I-0.5157 J0
G3 X17.5418 Y13.0462 I-0.4136 J-0.0789
G3 X17.501 Y13.1218 I-0.389 J-0.1611
G3 X17.4392 Y13.1966 I-0.4265 J-0.2899
G3 X17.3644 Y13.2584 I-0.3647 J-0.3647
G3 X17.2889 Y13.2992 I-0.2367 J-0.3482
G3 X17.2066 Y13.3238 I-0.1611 J-0.389
G3 X17.11 Y13.3329 I-0.0966 J-0.5066
G3 X17.0134 Y13.3238 I0 J-0.5157
G3 X16.9311 Y13.2992 I0.0789 J-0.4136
G3 X16.8556 Y13.2584 I0.1611 J-0.389
G3 X16.7808 Y13.1966 I0.2899 J-0.4265
G3 X16.7189 Y13.1218 I0.3647 J-0.3647
G3 X16.6782 Y13.0462 I0.3482 J-0.2367
G3 X16.6536 Y12.964 I0.389 J-0.1611
G3 X16.6444 Y12.8674 I0.5066 J-0.0966
G3 X16.6536 Y12.7707 I0.5157 J0
G3 X16.6782 Y12.6885 I0.4136 J0.0789
G3 X16.7189 Y12.613 I0.389 J0.1611
G3 X16.7808 Y12.5382 I0.4265 J0.2899
G3 X16.8556 Y12.4763 I0.3647 J0.3647
G3 X16.9311 Y12.4355 I0.2367 J0.3482
G3 X17.0134 Y12.4109 I0.1611 J0.389
G3 X17.11 Y12.4018 I0.0966 J0.5066
G3 X17.2066 Y12.4109 I0 J0.5157
G3 X17.2889 Y12.4355 I-0.0789 J0.4136
G3 X17.3644 Y12.4763 I-0.1611 J0.389
G3 X17.4392 Y12.5382 I-0.2899 J0.4265
G3 X17.501 Y12.613 I-0.3647 J0.3647
G3 X17.5418 Y12.6885 I-0.3482 J0.2367
G3 X17.5664 Y12.7707 I-0.389 J0.1611
G1 Z-0.6 F30
G3 X17.5755 Y12.8674 I-0.5066 J0.0966 F20
G3 X17.5664 Y12.964 I-0.5157 J0
G3 X17.5418 Y13.0462 I-0.4136 J-0.0789
G3 X17.501 Y13.1218 I-0.389 J-0.1611
G3 X17.4392 Y13.1966 I-0.4265 J-0.2899
G3 X17.3644 Y13.2584 I-0.3647 J-0.3647
G3 X17.2889 Y13.2992 I-0.2367 J-0.3482
G3 X17.2066 Y13.3238 I-0.1611 J-0.389
G3 X17.11 Y13.3329 I-0.0966 J-0.5066
G3 X17.0134 Y13.3238 I0 J-0.5157
G3 X16.9311 Y13.2992 I0.0789 J-0.4136
G3 X16.8556 Y13.2584 I0.1611 J-0.389
G3 X16.7808 Y13.1966 I0.2899 J-0.4265
G3 X16.7189 Y13.1218 I0.3647 J-0.3647
G3 X16.6782 Y13.0462 I0.3482 J-0.2367
G3 X16.6536 Y12.964 I0.389 J-0.1611
G3 X16.6444 Y12.8674 I0.5066 J-0.0966
G3 X16.6536 Y12.7707 I0.5157 J0
G3 X16.6782 Y12.6885 I0.4136 J0.0789
G3 X16.7189 Y12.613 I0.389 J0.1611
G3 X16.7808 Y12.5382 I0.4265 J0.2899
G3 X16.8556 Y12.4763 I0.3647 J0.3647
G3 X16.9311 Y12.4355 I0.2367 J0.3482
G3 X17.0134 Y12.4109 I0.1611 J0.389
G3 X17.11 Y12.4018 I0.0966 J0.5066
G3 X17.2066 Y12.4109 I0 J0.5157
G3 X17.2889 Y12.4355 I-0.0789 J0.4136
G3 X17.3644 Y12.4763 I-0.1611 J0.389
G3 X17.4392 Y12.5382 I-0.2899 J0.4265
G3 X17.501 Y12.613 I-0.3647 J0.3647
G3 X17.5418 Y12.6885 I-0.3482 J0.2367
G3 X17.5664 Y12.7707 I-0.389 J0.1611
G1 Z-0.7 F30
G3 X17.5755 Y12.8674 I-0.5066 J0.0966 F20
G3 X17.5664 Y12.964 I-0.5157 J0
G3 X17.5418 Y13.0462 I-0.4136 J-0.0789
G3 X17.501 Y13.1218 I-0.389 J-0.1611
G3 X17.4392 Y13.1966 I-0.4265 J-0.2899
G3 X17.3644 Y13.2584 I-0.3647 J-0.3647
G3 X17.2889 Y13.2992 I-0.2367 J-0.3482
G3 X17.2066 Y13.3238 I-0.1611 J-0.389
G3 X17.11 Y13.3329 I-0.0966 J-0.5066
G3 X17.0134 Y13.3238 I0 J-0.5157
G3 X16.9311 Y13.2992 I0.0789 J-0.4136
G3 X16.8556 Y13.2584 I0.1611 J-0.389
G3 X16.7808 Y13.1966 I0.2899 J-0.4265
G3 X16.7189 Y13.1218 I0.3647 J-0.3647
G3 X16.6782 Y13.0462 I0.3482 J-0.2367
G3 X16.6536 Y12.964 I0.389 J-0.1611
G3 X16.6444 Y12.8674 I0.5066 J-0.0966
G3 X16.6536 Y12.7707 I0.5157 J0
G3 X16.6782 Y12.6885 I0.4136 J0.0789
G3 X16.7189 Y12.613 I0.389 J0.1611
G3 X16.7808 Y12.5382 I0.4265 J0.2899
G3 X16.8556 Y12.4763 I0.3647 J0.3647
G3 X16.9311 Y12.4355 I0.2367 J0.3482
G3 X17.0134 Y12.4109 I0.1611 J0.389
G3 X17.11 Y12.4018 I0.0966 J0.5066
G3 X17.2066 Y12.4109 I0 J0.5157
G3 X17.2889 Y12.4355 I-0.0789 J0.4136
G3 X17.3644 Y12.4763 I-0.1611 J0.389
G3 X17.4392 Y12.5382 I-0.2899 J0.4265
G3 X17.501 Y12.613 I-0.3647 J0.3647
G3 X17.5418 Y12.6885 I-0.3482 J0.2367
G3 X17.5664 Y12.7707 I-0.389 J0.1611
G1 Z-0.8 F30
G3 X17.5755 Y12.8674 I-0.5066 J0.0966 F20
G3 X17.5664 Y12.964 I-0.5157 J0
G3 X17.5418 Y13.0462 I-0.4136 J-0.0789
G3 X17.501 Y13.1218 I-0.389 J-0.1611
G3 X17.4392 Y13.1966 I-0.4265 J-0.2899
G3 X17.3644 Y13.2584 I-0.3647 J-0.3647
G3 X17.2889 Y13.2992 I-0.2367 J-0.3482
G3 X17.2066 Y13.3238 I-0.1611 J-0.389
G3 X17.11 Y13.3329 I-0.0966 J-0.5066
G3 X17.0134 Y13.3238 I0 J-0.5157
G3 X16.9311 Y13.2992 I0.0789 J-0.4136
G3 X16.8556 Y13.2584 I0.1611 J-0.389
G3 X16.7808 Y13.1966 I0.2899 J-0.4265
G3 X16.7189 Y13.1218 I0.3647 J-0.3647
G3 X16.6782 Y13.0462 I0.3482 J-0.2367
G3 X16.6536 Y12.964 I0.389 J-0.1611
G3 X16.6444 Y12.8674 I0.5066 J-0.0966
G3 X16.6536 Y12.7707 I0.5157 J0
G3 X16.6782 Y12.6885 I0.4136 J0.0789
G3 X16.7189 Y12.613 I0.389 J0.1611
G3 X16.7808 Y12.5382 I0.4265 J0.2899
G3 X16.8556 Y12.4763 I0.3647 J0.3647
G3 X16.9311 Y12.4355 I0.2367 J0.3482
G3 X17.0134 Y12.4109 I0.1611 J0.389
G3 X17.11 Y12.4018 I0.0966 J0.5066
G3 X17.2066 Y12.4109 I0 J0.5157
G3 X17.2889 Y12.4355 I-0.0789 J0.4136
G3 X17.3644 Y12.4763 I-0.1611 J0.389
G3 X17.4392 Y12.5382 I-0.2899 J0.4265
G3 X17.501 Y12.613 I-0.3647 J0.3647
G3 X17.5418 Y12.6885 I-0.3482 J0.2367
G3 X17.5664 Y12.7707 I-0.389 J0.1611
G0 Z0.1
G0 X8.0691 Y13.1966
G1 Z-0.1 F30
G3 X7.9943 Y13.2584 I-0.3647 J-0.3647 F20
G3 X7.9188 Y13.2992 I-0.2367 J-0.3482
G3 X7.8365 Y13.3238 I-0.1611 J-0.389
G3 X7.7399 Y13.3329 I-0.0966 J-0.5066
G3 X7.6433 Y13.3238 I0 J-0.5157
G3 X7.561 Y13.2992 I0.0789 J-0.4136
G3 X7.4855 Y13.2584 I0.1611 J-0.389
G3 X7.4107 Y13.1966 I0.2899 J-0.4265
G3 X7.3488 Y13.1218 I0.3647 J-0.3647
G3 X7.3081 Y13.0462 I0.3482 J-0.2367
G3 X7.2835 Y12.964 I0.389 J-0.1611
G3 X7.2744 Y12.8674 I0.5066 J-0.0966
G3 X7.2835 Y12.7707 I0.5157 J0
G3 X7.3081 Y12.6885 I0.4136 J0.0789
G3 X7.3488 Y12.613 I0.389 J0.1611
G3 X7.4107 Y12.5382 I0.4265 J0.2899
G3 X7.4855 Y12.4763 I0.3647 J0.3647
G3 X7.561 Y12.4355 I0.2367 J0.3482
G3 X7.6433 Y12.4109 I0.1611 J0.389
G3 X7.7399 Y12.4018 I0.0966 J0.5066
G3 X7.8365 Y12.4109 I0 J0.5157
G3 X7.9188 Y12.4355 I-0.0789 J0.4136
G3 X7.9943 Y12.4763 I-0.1611 J0.389
G3 X8.0691 Y12.5382 I-0.2899 J0.4265
G3 X8.131 Y12.613 I-0.3647 J0.3647
G3 X8.1717 Y12.6885 I-0.3482 J0.2367
G3 X8.1963 Y12.7707 I-0.389 J0.1611
G3 X8.2055 Y12.8674 I-0.5066 J0.0966
G3 X8.1963 Y12.964 I-0.5157 J0
G3 X8.1717 Y13.0462 I-0.4136 J-0.0789
G3 X8.131 Y13.1218 I-0.389 J-0.1611
G3 X8.0691 Y13.1966 I-0.4265 J-0.2899
G1 Z-0.2 F30
G3 X7.9943 Y13.2584 I-0.3647 J-0.3647 F20
G3 X7.9188 Y13.2992 I-0.2367 J-0.3482
G3 X7.8365 Y13.3238 I-0.1611 J-0.389
G3 X7.7399 Y13.3329 I-0.0966 J-0.5066
G3 X7.6433 Y13.3238 I0 J-0.5157
G3 X7.561 Y13.2992 I0.0789 J-0.4136
G3 X7.4855 Y13.2584 I0.1611 J-0.389
G3 X7.4107 Y13.1966 I0.2899 J-0.4265
G3 X7.3488 Y13.1218 I0.3647 J-0.3647
G3 X7.3081 Y13.0462 I0.3482 J-0.2367
G3 X7.2835 Y12.964 I0.389 J-0.1611
G3 X7.2744 Y12.8674 I0.5066 J-0.0966
G3 X7.2835 Y12.7707 I0.5157 J0
G3 X7.3081 Y12.6885 I0.4136 J0.0789
G3 X7.3488 Y12.613 I0.389 J0.1611
G3 X7.4107 Y12.5382 I0.4265 J0.2899
G3 X7.4855 Y12.4763 I0.3647 J0.3647
G3 X7.561 Y12.4355 I0.2367 J0.3482
G3 X7.6433 Y12.4109 I0.1611 J0.389
G3 X7.7399 Y12.4018 I0.0966 J0.5066
G3 X7.8365 Y12.4109 I0 J0.5157
G3 X7.9188 Y12.4355 I-0.0789 J0.4136
G3 X7.9943 Y12.4763 I-0.1611 J0.389
G3 X8.0691 Y12.5382 I-0.2899 J0.4265
G3 X8.131 Y12.613 I-0.3647 J0.3647
G3 X8.1717 Y12.6885 I-0.3482 J0.2367
G3 X8.1963 Y12.7707 I-0.389 J0.1611
G3 X8.2055 Y12.8674 I-0.5066 J0.0966
G3 X8.1963 Y12.964 I-0.5157 J0
G3 X8.1717 Y13.0462 I-0.4136 J-0.0789
G3 X8.131 Y13.1218 I-0.389 J-0.1611
G3 X8.0691 Y13.1966 I-0.4265 J-0.2899
G1 Z-0.3 F30
G3 X7.9943 Y13.2584 I-0.3647 J-0.3647 F20
G3 X7.9188 Y13.2992 I-0.2367 J-0.3482
G3 X7.8365 Y13.3238 I-0.1611 J-0.389
G3 X7.7399 Y13.3329 I-0.0966 J-0.5066
G3 X7.6433 Y13.3238 I0 J-0.5157
G3 X7.561 Y13.2992 I0.0789 J-0.4136
G3 X7.4855 Y13.2584 I0.1611 J-0.389
G3 X7.4107 Y13.1966 I0.2899 J-0.4265
G3 X7.3488 Y13.1218 I0.3647 J-0.3647
G3 X7.3081 Y13.0462 I0.3482 J-0.2367
G3 X7.2835 Y12.964 I0.389 J-0.1611
G3 X7.2744 Y12.8674 I0.5066 J-0.0966
G3 X7.2835 Y12.7707 I0.5157 J0
G3 X7.3081 Y12.6885 I0.4136 J0.0789
G3 X7.3488 Y12.613 I0.389 J0.1611
G3 X7.4107 Y12.5382 I0.4265 J0.2899
G3 X7.4855 Y12.4763 I0.3647 J0.3647
G3 X7.561 Y12.4355 I0.2367 J0.3482
G3 X7.6433 Y12.4109 I0.1611 J0.389
G3 X7.7399 Y12.4018 I0.0966 J0.5066
G3 X7.8365 Y12.4109 I0 J0.5157
G3 X7.9188 Y12.4355 I-0.0789 J0.4136
G3 X7.9943 Y12.4763 I-0.1611 J0.389
G3 X8.0691 Y12.5382 I-0.2899 J0.4265
G3 X8.131 Y12.613 I-0.3647 J0.3647
G3 X8.1717 Y12.6885 I-0.3482 J0.2367
G3 X8.1963 Y12.7707 I-0.389 J0.1611
G3 X8.2055 Y12.8674 I-0.5066 J0.0966
G3 X8.1963 Y12.964 I-0.5157 J0
G3 X8.1717 Y13.0462 I-0.4136 J-0.0789
G3 X8.131 Y13.1218 I-0.389 J-0.1611
G3 X8.0691 Y13.1966 I-0.4265 J-0.2899
G1 Z-0.4 F30
G3 X7.9943 Y13.2584 I-0.3647 J-0.3647 F20
G3 X7.9188 Y13.2992 I-0.2367 J-0.3482
G3 X7.8365 Y13.3238 I-0.1611 J-0.389
G3 X7.7399 Y13.3329 I-0.0966 J-0.5066
G3 X7.6433 Y13.3238 I0 J-0.5157
G3 X7.561 Y13.2992 I0.0789 J-0.4136
G3 X7.4855 Y13.2584 I0.1611 J-0.389
G3 X7.4107 Y13.1966 I0.2899 J-0.4265
G3 X7.3488 Y13.1218 I0.3647 J-0.3647
G3 X7.3081 Y13.0462 I0.3482 J-0.2367
G3 X7.2835 Y12.964 I0.389 J-0.1611
G3 X7.2744 Y12.8674 I0.5066 J-0.0966
G3 X7.2835 Y12.7707 I0.5157 J0
G3 X7.3081 Y12.6885 I0.4136 J0.0789
G3 X7.3488 Y12.613 I0.389 J0.1611
G3 X7.4107 Y12.5382 I0.4265 J0.2899
G3 X7.4855 Y12.4763 I0.3647 J0.3647
G3 X7.561 Y12.4355 I0.2367 J0.3482
G3 X7.6433 Y12.4109 I0.1611 J0.389
G3 X7.7399 Y12.4018 I0.0966 J0.5066
G3 X7.8365 Y12.4109 I0 J0.5157
G3 X7.9188 Y12.4355 I-0.0789 J0.4136
G3 X7.9943 Y12.4763 I-0.1611 J0.389
G3 X8.0691 Y12.5382 I-0.2899 J0.4265
G3 X8.131 Y12.613 I-0.3647 J0.3647
G3 X8.1717 Y12.6885 I-0.3482 J0.2367
G3 X8.1963 Y12.7707 I-0.389 J0.1611
G3 X8.2055 Y12.8674 I-0.5066 J0.0966
G3 X8.1963 Y12.964 I-0.5157 J0
G3 X8.1717 Y13.0462 I-0.4136 J-0.0789
G3 X8.131 Y13.1218 I-0.389 J-0.1611
G3 X8.0691 Y13.1966 I-0.4265 J-0.2899
G1 Z-0.5 F30
G3 X7.9943 Y13.2584 I-0.3647 J-0.3647 F20
G3 X7.9188 Y13.2992 I-0.2367 J-0.3482
G3 X7.8365 Y13.3238 I-0.1611 J-0.389
G3 X7.7399 Y13.3329 I-0.0966 J-0.5066
G3 X7.6433 Y13.3238 I0 J-0.5157
G3 X7.561 Y13.2992 I0.0789 J-0.4136
G3 X7.4855 Y13.2584 I0.1611 J-0.389
G3 X7.4107 Y13.1966 I0.2899 J-0.4265
G3 X7.3488 Y13.1218 I0.3647 J-0.3647
G3 X7.3081 Y13.0462 I0.3482 J-0.2367
G3 X7.2835 Y12.964 I0.389 J-0.1611
G3 X7.2744 Y12.8674 I0.5066 J-0.0966
G3 X7.2835 Y12.7707 I0.5157 J0
G3 X7.3081 Y12.6885 I0.4136 J0.0789
G3 X7.3488 Y12.613 I0.389 J0.1611
G3 X7.4107 Y12.5382 I0.4265 J0.2899
G3 X7.4855 Y12.4763 I0.3647 J0.3647
G3 X7.561 Y12.4355 I0.2367 J0.3482
G3 X7.6433 Y12.4109 I0.1611 J0.389
G3 X7.7399 Y12.4018 I0.0966 J0.5066
G3 X7.8365 Y12.4109 I0 J0.5157
G3 X7.9188 Y12.4355 I-0.0789 J0.4136
G3 X7.9943 Y12.4763 I-0.1611 J0.389
G3 X8.0691 Y12.5382 I-0.2899 J0.4265
G3 X8.131 Y12.613 I-0.3647 J0.3647
G3 X8.1717 Y12.6885 I-0.3482 J0.2367
G3 X8.1963 Y12.7707 I-0.389 J0.1611
G3 X8.2055 Y12.8674 I-0.5066 J0.0966
G3 X8.1963 Y12.964 I-0.5157 J0
G3 X8.1717 Y13.0462 I-0.4136 J-0.0789
G3 X8.131 Y13.1218 I-0.389 J-0.1611
G3 X8.0691 Y13.1966 I-0.4265 J-0.2899
G1 Z-0.6 F30
G3 X7.9943 Y13.2584 I-0.3647 J-0.3647 F20
G3 X7.9188 Y13.2992 I-0.2367 J-0.3482
G3 X7.8365 Y13.3238 I-0.1611 J-0.389
G3 X7.7399 Y13.3329 I-0.0966 J-0.5066
G3 X7.6433 Y13.3238 I0 J-0.5157
G3 X7.561 Y13.2992 I0.0789 J-0.4136
G3 X7.4855 Y13.2584 I0.1611 J-0.389
G3 X7.4107 Y13.1966 I0.2899 J-0.4265
G3 X7.3488 Y13.1218 I0.3647 J-0.3647
G3 X7.3081 Y13.0462 I0.3482 J-0.2367
G3 X7.2835 Y12.964 I0.389 J-0.1611
G3 X7.2744 Y12.8674 I0.5066 J-0.0966
G3 X7.2835 Y12.7707 I0.5157 J0
G3 X7.3081 Y12.6885 I0.4136 J0.0789
G3 X7.3488 Y12.613 I0.389 J0.1611
G3 X7.4107 Y12.5382 I0.4265 J0.2899
G3 X7.4855 Y12.4763 I0.3647 J0.3647
G3 X7.561 Y12.4355 I0.2367 J0.3482
G3 X7.6433 Y12.4109 I0.1611 J0.389
G3 X7.7399 Y12.4018 I0.0966 J0.5066
G3 X7.8365 Y12.4109 I0 J0.5157
G3 X7.9188 Y12.4355 I-0.0789 J0.4136
G3 X7.9943 Y12.4763 I-0.1611 J0.389
G3 X8.0691 Y12.5382 I-0.2899 J0.4265
G3 X8.131 Y12.613 I-0.3647 J0.3647
G3 X8.1717 Y12.6885 I-0.3482 J0.2367
G3 X8.1963 Y12.7707 I-0.389 J0.1611
G3 X8.2055 Y12.8674 I-0.5066 J0.0966
G3 X8.1963 Y12.964 I-0.5157 J0
G3 X8.1717 Y13.0462 I-0.4136 J-0.0789
G3 X8.131 Y13.1218 I-0.389 J-0.1611
G3 X8.0691 Y13.1966 I-0.4265 J-0.2899
G1 Z-0.7 F30
G3 X7.9943 Y13.2584 I-0.3647 J-0.3647 F20
G3 X7.9188 Y13.2992 I-0.2367 J-0.3482
G3 X7.8365 Y13.3238 I-0.1611 J-0.389
G3 X7.7399 Y13.3329 I-0.0966 J-0.5066
G3 X7.6433 Y13.3238 I0 J-0.5157
G3 X7.561 Y13.2992 I0.0789 J-0.4136
G3 X7.4855 Y13.2584 I0.1611 J-0.389
G3 X7.4107 Y13.1966 I0.2899 J-0.4265
G3 X7.3488 Y13.1218 I0.3647 J-0.3647
G3 X7.3081 Y13.0462 I0.3482 J-0.2367
G3 X7.2835 Y12.964 I0.389 J-0.1611
G3 X7.2744 Y12.8674 I0.5066 J-0.0966
G3 X7.2835 Y12.7707 I0.5157 J0
G3 X7.3081 Y12.6885 I0.4136 J0.0789
G3 X7.3488 Y12.613 I0.389 J0.1611
G3 X7.4107 Y12.5382 I0.4265 J0.2899
G3 X7.4855 Y12.4763 I0.3647 J0.3647
G3 X7.561 Y12.4355 I0.2367 J0.3482
G3 X7.6433 Y12.4109 I0.1611 J0.389
G3 X7.7399 Y12.4018 I0.0966 J0.5066
G3 X7.8365 Y12.4109 I0 J0.5157
G3 X7.9188 Y12.4355 I-0.0789 J0.4136
G3 X7.9943 Y12.4763 I-0.1611 J0.389
G3 X8.0691 Y12.5382 I-0.2899 J0.4265
G3 X8.131 Y12.613 I-0.3647 J0.3647
G3 X8.1717 Y12.6885 I-0.3482 J0.2367
G3 X8.1963 Y12.7707 I-0.389 J0.1611
G3 X8.2055 Y12.8674 I-0.5066 J0.0966
G3 X8.1963 Y12.964 I-0.5157 J0
G3 X8.1717 Y13.0462 I-0.4136 J-0.0789
G3 X8.131 Y13.1218 I-0.389 J-0.1611
G3 X8.0691 Y13.1966 I-0.4265 J-0.2899
G1 Z-0.8 F30
G3 X7.9943 Y13.2584 I-0.3647 J-0.3647 F20
G3 X7.9188 Y13.2992 I-0.2367 J-0.3482
G3 X7.8365 Y13.3238 I-0.1611 J-0.389
G3 X7.7399 Y13.3329 I-0.0966 J-0.5066
G3 X7.6433 Y13.3238 I0 J-0.5157
G3 X7.561 Y13.2992 I0.0789 J-0.4136
G3 X7.4855 Y13.2584 I0.1611 J-0.389
G3 X7.4107 Y13.1966 I0.2899 J-0.4265
G3 X7.3488 Y13.1218 I0.3647 J-0.3647
G3 X7.3081 Y13.0462 I0.3482 J-0.2367
G3 X7.2835 Y12.964 I0.389 J-0.1611
G3 X7.2744 Y12.8674 I0.5066 J-0.0966
G3 X7.2835 Y12.7707 I0.5157 J0
G3 X7.3081 Y12.6885 I0.4136 J0.0789
G3 X7.3488 Y12.613 I0.389 J0.1611
G3 X7.4107 Y12.5382 I0.4265 J0.2899
G3 X7.4855 Y12.4763 I0.3647 J0.3647
G3 X7.561 Y12.4355 I0.2367 J0.3482
G3 X7.6433 Y12.4109 I0.1611 J0.389
G3 X7.7399 Y12.4018 I0.0966 J0.5066
G3 X7.8365 Y12.4109 I0 J0.5157
G3 X7.9188 Y12.4355 I-0.0789 J0.4136
G3 X7.9943 Y12.4763 I-0.1611 J0.389
G3 X8.0691 Y12.5382 I-0.2899 J0.4265
G3 X8.131 Y12.613 I-0.3647 J0.3647
G3 X8.1717 Y12.6885 I-0.3482 J0.2367
G3 X8.1963 Y12.7707 I-0.389 J0.1611
G3 X8.2055 Y12.8674 I-0.5066 J0.0966
G3 X8.1963 Y12.964 I-0.5157 J0
G3 X8.1717 Y13.0462 I-0.4136 J-0.0789
G3 X8.131 Y13.1218 I-0.389 J-0.1611
G3 X8.0691 Y13.1966 I-0.4265 J-0.2899

(Seat)
G0 Z0.1
G0 X8.0235 Y4.8683
G1 Z-0.16 F30
G1 X11.7836 Y4.8683 F60
G1 X12.2836 Y4.8683
G1 X16.8264 Y4.8683
G3 X17.4372 Y4.9261 I0 J3.2601
G3 X17.9835 Y5.0894 I-0.524 J2.7473
G3 X18.4853 Y5.3602 I-1.0703 J2.5839
G3 X18.958 Y5.7513 I-1.8325 J2.6964
G3 X19.3491 Y6.2241 I-2.3053 J2.3053
G3 X19.6199 Y6.7258 I-2.3132 J1.5721
G3 X19.7832 Y7.2721 I-2.5839 J1.0703
G3 X19.841 Y7.883 I-3.2024 J0.6108
G1 X19.841 Y10.2823
G1 X19.841 Y10.7823
G1 X19.841 Y11.204
G3 X19.8184 Y11.6226 I-3.8921 J0
G3 X19.7519 Y12.0271 I-3.6936 J-0.3996
G3 X19.6412 Y12.4218 I-3.627 J-0.8041
G3 X19.4847 Y12.8108 I-3.6839 J-1.2559
G3 X19.2874 Y13.1807 I-3.5274 J-1.6449
G3 X19.0561 Y13.5191 I-3.1786 J-1.9231
G3 X18.789 Y13.8301 I-2.9474 J-2.2616
G3 X18.4828 Y14.1165 I-2.808 J-2.6951
G1 X15.4065 Y16.6979
G2 X14.9569 Y17.1675 I1.9191 J2.2871
G2 X14.6197 Y17.7232 I2.3686 J1.8175
G2 X14.4108 Y18.3388 I2.7058 J1.2617
G2 X14.34 Y18.9849 I2.9148 J0.6462
G1 X14.34 Y20.2998
G3 X14.215 Y20.4248 I-0.125 J0
G1 X10.6349 Y20.4248
G3 X10.5099 Y20.2998 I0 J-0.125
G1 X10.5099 Y18.9849
G2 X10.4391 Y18.3388 I-2.9856 J0
G2 X10.2302 Y17.7232 I-2.9148 J0.6462
G2 X9.893 Y17.1675 I-2.7058 J1.2617
G2 X9.4434 Y16.6979 I-2.3686 J1.8175
G1 X6.367 Y14.1165
G3 X6.0609 Y13.8301 I2.5018 J-2.9815
G3 X5.7938 Y13.5191 I2.6803 J-2.5726
G3 X5.5625 Y13.1807 I2.9474 J-2.2616
G3 X5.3651 Y12.8108 I3.3301 J-2.0147
G3 X5.2087 Y12.4218 I3.5274 J-1.6449
G3 X5.098 Y12.0271 I3.5164 J-1.1988
G3 X5.0315 Y11.6226 I3.627 J-0.8041
G3 X5.0089 Y11.204 I3.8695 J-0.4186
G1 X5.0089 Y10.8451
G1 X5.0089 Y10.3451
G1 X5.0089 Y7.883
G3 X5.0667 Y7.2721 I3.2601 J0
G3 X5.23 Y6.7258 I2.7473 J0.524
G3 X5.5008 Y6.2241 I2.5839 J1.0703
G3 X5.8919 Y5.7513 I2.6964 J1.8325
G3 X6.3646 Y5.3602 I2.3053 J2.3053
G3 X6.8664 Y5.0894 I1.5721 J2.3132
G3 X7.4127 Y4.9261 I1.0703 J2.5839
G3 X8.0235 Y4.8683 I0.6108 J3.2024
G1 Z-0.32 F30
G1 X11.7836 Y4.8683 F60
G1 X12.2836 Y4.8683
G1 X16.8264 Y4.8683
G3 X17.4372 Y4.9261 I0 J3.2601
G3 X17.9835 Y5.0894 I-0.524 J2.7473
G3 X18.4853 Y5.3602 I-1.0703 J2.5839
G3 X18.958 Y5.7513 I-1.8325 J2.6964
G3 X19.3491 Y6.2241 I-2.3053 J2.3053
G3 X19.6199 Y6.7258 I-2.3132 J1.5721
G3 X19.7832 Y7.2721 I-2.5839 J1.0703
G3 X19.841 Y7.883 I-3.2024 J0.6108
G1 X19.841 Y10.2823
G1 X19.841 Y10.7823
G1 X19.841 Y11.204
G3 X19.8184 Y11.6226 I-3.8921 J0
G3 X19.7519 Y12.0271 I-3.6936 J-0.3996
G3 X19.6412 Y12.4218 I-3.627 J-0.8041
G3 X19.4847 Y12.8108 I-3.6839 J-1.2559
G3 X19.2874 Y13.1807 I-3.5274 J-1.6449
G3 X19.0561 Y13.5191 I-3.1786 J-1.9231
G3 X18.789 Y13.8301 I-2.9474 J-2.2616
G3 X18.4828 Y14.1165 I-2.808 J-2.6951
G1 X15.4065 Y16.6979
G2 X14.9569 Y17.1675 I1.9191 J2.2871
G2 X14.6197 Y17.7232 I2.3686 J1.8175
G2 X14.4108 Y18.3388 I2.7058 J1.2617
G2 X14.34 Y18.9849 I2.9148 J0.6462
G1 X14.34 Y20.2998
G3 X14.215 Y20.4248 I-0.125 J0
G1 X10.6349 Y20.4248
G3 X10.5099 Y20.2998 I0 J-0.125
G1 X10.5099 Y18.9849
G2 X10.4391 Y18.3388 I-2.9856 J0
G2 X10.2302 Y17.7232 I-2.9148 J0.6462
G2 X9.893 Y17.1675 I-2.7058 J1.2617
G2 X9.4434 Y16.6979 I-2.3686 J1.8175
G1 X6.367 Y14.1165
G3 X6.0609 Y13.8301 I2.5018 J-2.9815
G3 X5.7938 Y13.5191 I2.6803 J-2.5726
G3 X5.5625 Y13.1807 I2.9474 J-2.2616
G3 X5.3651 Y12.8108 I3.3301 J-2.0147
G3 X5.2087 Y12.4218 I3.5274 J-1.6449
G3 X5.098 Y12.0271 I3.5164 J-1.1988
G3 X5.0315 Y11.6226 I3.627 J-0.8041
G3 X5.0089 Y11.204 I3.8695 J-0.4186
G1 X5.0089 Y10.8451
G1 X5.0089 Y10.3451
G1 X5.0089 Y7.883
G3 X5.0667 Y7.2721 I3.2601 J0
G3 X5.23 Y6.7258 I2.7473 J0.524
G3 X5.5008 Y6.2241 I2.5839 J1.0703
G3 X5.8919 Y5.7513 I2.6964 J1.8325
G3 X6.3646 Y5.3602 I2.3053 J2.3053
G3 X6.8664 Y5.0894 I1.5721 J2.3132
G3 X7.4127 Y4.9261 I1.0703 J2.5839
G3 X8.0235 Y4.8683 I0.6108 J3.2024
G1 Z-0.48 F30
G1 X11.7836 Y4.8683 F60
G1 X12.2836 Y4.8683
G1 X16.8264 Y4.8683
G3 X17.4372 Y4.9261 I0 J3.2601
G3 X17.9835 Y5.0894 I-0.524 J2.7473
G3 X18.4853 Y5.3602 I-1.0703 J2.5839
G3 X18.958 Y5.7513 I-1.8325 J2.6964
G3 X19.3491 Y6.2241 I-2.3053 J2.3053
G3 X19.6199 Y6.7258 I-2.3132 J1.5721
G3 X19.7832 Y7.2721 I-2.5839 J1.0703
G3 X19.841 Y7.883 I-3.2024 J0.6108
G1 X19.841 Y10.2823
G1 X19.841 Y10.7823
G1 X19.841 Y11.204
G3 X19.8184 Y11.6226 I-3.8921 J0
G3 X19.7519 Y12.0271 I-3.6936 J-0.3996
G3 X19.6412 Y12.4218 I-3.627 J-0.8041
G3 X19.4847 Y12.8108 I-3.6839 J-1.2559
G3 X19.2874 Y13.1807 I-3.5274 J-1.6449
G3 X19.0561 Y13.5191 I-3.1786 J-1.9231
G3 X18.789 Y13.8301 I-2.9474 J-2.2616
G3 X18.4828 Y14.1165 I-2.808 J-2.6951
G1 X15.4065 Y16.6979
G2 X14.9569 Y17.1675 I1.9191 J2.2871
G2 X14.6197 Y17.7232 I2.3686 J1.8175
G2 X14.4108 Y18.3388 I2.7058 J1.2617
G2 X14.34 Y18.9849 I2.9148 J0.6462
G1 X14.34 Y20.2998
G3 X14.215 Y20.4248 I-0.125 J0
G1 X10.6349 Y20.4248
G3 X10.5099 Y20.2998 I0 J-0.125
G1 X10.5099 Y18.9849
G2 X10.4391 Y18.3388 I-2.9856 J0
G2 X10.2302 Y17.7232 I-2.9148 J0.6462
G2 X9.893 Y17.1675 I-2.7058 J1.2617
G2 X9.4434 Y16.6979 I-2.3686 J1.8175
G1 X6.367 Y14.1165
G3 X6.0609 Y13.8301 I2.5018 J-2.9815
G3 X5.7938 Y13.5191 I2.6803 J-2.5726
G3 X5.5625 Y13.1807 I2.9474 J-2.2616
G3 X5.3651 Y12.8108 I3.3301 J-2.0147
G3 X5.2087 Y12.4218 I3.5274 J-1.6449
G3 X5.098 Y12.0271 I3.5164 J-1.1988
G3 X5.0315 Y11.6226 I3.627 J-0.8041
G3 X5.0089 Y11.204 I3.8695 J-0.4186
G1 X5.0089 Y10.8451
G1 X5.0089 Y10.3451
G1 X5.0089 Y7.883
G3 X5.0667 Y7.2721 I3.2601 J0
G3 X5.23 Y6.7258 I2.7473 J0.524
G3 X5.5008 Y6.2241 I2.5839 J1.0703
G3 X5.8919 Y5.7513 I2.6964 J1.8325
G3 X6.3646 Y5.3602 I2.3053 J2.3053
G3 X6.8664 Y5.0894 I1.5721 J2.3132
G3 X7.4127 Y4.9261 I1.0703 J2.5839
G3 X8.0235 Y4.8683 I0.6108 J3.2024
G1 Z-0.64 F30
G1 X11.7836 Y4.8683 F60
G1 Z-0.55 F30
G1 X12.2836 Y4.8683 F60
G1 Z-0.64 F30
G1 X16.8264 Y4.8683 F60
G3 X17.4372 Y4.9261 I0 J3.2601
G3 X17.9835 Y5.0894 I-0.524 J2.7473
G3 X18.4853 Y5.3602 I-1.0703 J2.5839
G3 X18.958 Y5.7513 I-1.8325 J2.6964
G3 X19.3491 Y6.2241 I-2.3053 J2.3053
G3 X19.6199 Y6.7258 I-2.3132 J1.5721
G3 X19.7832 Y7.2721 I-2.5839 J1.0703
G3 X19.841 Y7.883 I-3.2024 J0.6108
G1 X19.841 Y10.2823
G1 Z-0.55 F30
G1 X19.841 Y10.7823 F60
G1 Z-0.64 F30
G1 X19.841 Y11.204 F60
G3 X19.8184 Y11.6226 I-3.8921 J0
G3 X19.7519 Y12.0271 I-3.6936 J-0.3996
G3 X19.6412 Y12.4218 I-3.627 J-0.8041
G3 X19.4847 Y12.8108 I-3.6839 J-1.2559
G3 X19.2874 Y13.1807 I-3.5274 J-1.6449
G3 X19.0561 Y13.5191 I-3.1786 J-1.9231
G3 X18.789 Y13.8301 I-2.9474 J-2.2616
G3 X18.4828 Y14.1165 I-2.808 J-2.6951
G1 X15.4065 Y16.6979
G2 X14.9569 Y17.1675 I1.9191 J2.2871
G2 X14.6197 Y17.7232 I2.3686 J1.8175
G2 X14.4108 Y18.3388 I2.7058 J1.2617
G2 X14.34 Y18.9849 I2.9148 J0.6462
G1 X14.34 Y20.2998
G3 X14.215 Y20.4248 I-0.125 J0
G1 X10.6349 Y20.4248
G3 X10.5099 Y20.2998 I0 J-0.125
G1 X10.5099 Y18.9849
G2 X10.4391 Y18.3388 I-2.9856 J0
G2 X10.2302 Y17.7232 I-2.9148 J0.6462
G2 X9.893 Y17.1675 I-2.7058 J1.2617
G2 X9.4434 Y16.6979 I-2.3686 J1.8175
G1 X6.367 Y14.1165
G3 X6.0609 Y13.8301 I2.5018 J-2.9815
G3 X5.7938 Y13.5191 I2.6803 J-2.5726
G3 X5.5625 Y13.1807 I2.9474 J-2.2616
G3 X5.3651 Y12.8108 I3.3301 J-2.0147
G3 X5.2087 Y12.4218 I3.5274 J-1.6449
G3 X5.098 Y12.0271 I3.5164 J-1.1988
G3 X5.0315 Y11.6226 I3.627 J-0.8041
G3 X5.0089 Y11.204 I3.8695 J-0.4186
G1 X5.0089 Y10.8451
G1 Z-0.55 F30
G1 X5.0089 Y10.3451 F60
G1 Z-0.64 F30
G1 X5.0089 Y7.883 F60
G3 X5.0667 Y7.2721 I3.2601 J0
G3 X5.23 Y6.7258 I2.7473 J0.524
G3 X5.5008 Y6.2241 I2.5839 J1.0703
G3 X5.8919 Y5.7513 I2.6964 J1.8325
G3 X6.3646 Y5.3602 I2.3053 J2.3053
G3 X6.8664 Y5.0894 I1.5721 J2.3132
G3 X7.4127 Y4.9261 I1.0703 J2.5839
G3 X8.0235 Y4.8683 I0.6108 J3.2024
G1 Z-0.8 F30
G1 X11.7836 Y4.8683 F60
G1 Z-0.55 F30
G1 X12.2836 Y4.8683 F60
G1 Z-0.8 F30
G1 X16.8264 Y4.8683 F60
G3 X17.4372 Y4.9261 I0 J3.2601
G3 X17.9835 Y5.0894 I-0.524 J2.7473
G3 X18.4853 Y5.3602 I-1.0703 J2.5839
G3 X18.958 Y5.7513 I-1.8325 J2.6964
G3 X19.3491 Y6.2241 I-2.3053 J2.3053
G3 X19.6199 Y6.7258 I-2.3132 J1.5721
G3 X19.7832 Y7.2721 I-2.5839 J1.0703
G3 X19.841 Y7.883 I-3.2024 J0.6108
G1 X19.841 Y10.2823
G1 Z-0.55 F30
G1 X19.841 Y10.7823 F60
G1 Z-0.8 F30
G1 X19.841 Y11.204 F60
G3 X19.8184 Y11.6226 I-3.8921 J0
G3 X19.7519 Y12.0271 I-3.6936 J-0.3996
G3 X19.6412 Y12.4218 I-3.627 J-0.8041
G3 X19.4847 Y12.8108 I-3.6839 J-1.2559
G3 X19.2874 Y13.1807 I-3.5274 J-1.6449
G3 X19.0561 Y13.5191 I-3.1786 J-1.9231
G3 X18.789 Y13.8301 I-2.9474 J-2.2616
G3 X18.4828 Y14.1165 I-2.808 J-2.6951
G1 X15.4065 Y16.6979
G2 X14.9569 Y17.1675 I1.9191 J2.2871
G2 X14.6197 Y17.7232 I2.3686 J1.8175
G2 X14.4108 Y18.3388 I2.7058 J1.2617
G2 X14.34 Y18.9849 I2.9148 J0.6462
G1 X14.34 Y20.2998
G3 X14.215 Y20.4248 I-0.125 J0
G1 X10.6349 Y20.4248
G3 X10.5099 Y20.2998 I0 J-0.125
G1 X10.5099 Y18.9849
G2 X10.4391 Y18.3388 I-2.9856 J0
G2 X10.2302 Y17.7232 I-2.9148 J0.6462
G2 X9.893 Y17.1675 I-2.7058 J1.2617
G2 X9.4434 Y16.6979 I-2.3686 J1.8175
G1 X6.367 Y14.1165
G3 X6.0609 Y13.8301 I2.5018 J-2.9815
G3 X5.7938 Y13.5191 I2.6803 J-2.5726
G3 X5.5625 Y13.1807 I2.9474 J-2.2616
G3 X5.3651 Y12.8108 I3.3301 J-2.0147
G3 X5.2087 Y12.4218 I3.5274 J-1.6449
G3 X5.098 Y12.0271 I3.5164 J-1.1988
G3 X5.0315 Y11.6226 I3.627 J-0.8041
G3 X5.0089 Y11.204 I3.8695 J-0.4186
G1 X5.0089 Y10.8451
G1 Z-0.55 F30
G1 X5.0089 Y10.3451 F60
G1 Z-0.8 F30
G1 X5.0089 Y7.883 F60
G3 X5.0667 Y7.2721 I3.2601 J0
G3 X5.23 Y6.7258 I2.7473 J0.524
G3 X5.5008 Y6.2241 I2.5839 J1.0703
G3 X5.8919 Y5.7513 I2.6964 J1.8325
G3 X6.3646 Y5.3602 I2.3053 J2.3053
G3 X6.8664 Y5.0894 I1.5721 J2.3132
G3 X7.4127 Y4.9261 I1.0703 J2.5839
G3 X8.0235 Y4.8683 I0.6108 J3.2024

(Back Leg)
G0 Z0.1
G0 X4.6139 Y2.6083
G1 Z-0.16 F30
G1 X20.236 Y2.6083 F60
G3 X20.4832 Y2.6243 I0 J1.9272
G3 X20.7189 Y2.6709 I-0.2316 J1.7911
G3 X20.9464 Y2.7484 I-0.4674 J1.7444
G3 X21.1685 Y2.8582 I-0.7416 J1.7788
G3 X21.3746 Y2.9956 I-0.9636 J1.669
G3 X21.5555 Y3.1539 I-1.0961 J1.4353
G3 X21.7137 Y3.3347 I-1.277 J1.277
G3 X21.8511 Y3.5408 I-1.5316 J1.1697
G3 X21.9609 Y3.7629 I-1.669 J0.9636
G3 X22.0384 Y3.9904 I-1.6669 J0.6949
G3 X22.085 Y4.2262 I-1.7444 J0.4674
G3 X22.101 Y4.4733 I-1.9113 J0.2472
G1 X22.101 Y7.3106
G1 X22.101 Y7.8106
G1 X22.101 Y12.9922
G1 X22.101 Y12.9922
G3 X22.0482 Y13.4742 I-2.2272 J0
G3 X21.8923 Y13.9334 I-2.1744 J-0.4821
G3 X21.6407 Y14.348 I-2.0185 J-0.9413
G3 X21.3054 Y14.6983 I-1.767 J-1.3558
G1 X16.8592 Y18.4291
G2 X16.7499 Y18.5433 I0.4664 J0.5558
G2 X16.668 Y18.6783 I0.5756 J0.4417
G2 X16.6172 Y18.8279 I0.6576 J0.3066
G2 X16.6 Y18.9849 I0.7084 J0.157
G1 X16.6 Y20.2627
G2 X16.6113 Y20.3486 I0.3319 J0
G2 X16.6444 Y20.4286 I0.3205 J-0.0859
G2 X16.6972 Y20.4974 I0.2874 J-0.1659
G2 X16.7659 Y20.5501 I0.2347 J-0.2347
G2 X16.8459 Y20.5833 I0.1659 J-0.2874
G2 X16.9318 Y20.5946 I0.0859 J-0.3205
G1 X17.2881 Y20.5946
G2 X17.3576 Y20.588 I0 J-0.3707
G2 X17.4157 Y20.5706 I-0.0557 J-0.2922
G2 X17.469 Y20.5418 I-0.1138 J-0.2748
G2 X17.5228 Y20.4974 I-0.2084 J-0.3066
G2 X17.5673 Y20.4436 I-0.2621 J-0.2621
G2 X17.596 Y20.3903 I-0.246 J-0.1672
G2 X17.6134 Y20.3322 I-0.2748 J-0.1138
G2 X17.62 Y20.2627 I-0.3641 J-0.0695
G1 X17.62 Y19.9696
G3 X17.745 Y19.8446 I0.125 J0
G1 X21.0549 Y19.8446
G3 X21.2655 Y19.8645 I0 J1.1244
G3 X21.4563 Y19.9215 I-0.183 J0.9594
G3 X21.6315 Y20.0161 I-0.3738 J0.9023
G3 X21.7946 Y20.151 I-0.632 J0.9299
G3 X21.9295 Y20.314 I-0.795 J0.795
G3 X22.024 Y20.4892 I-0.8078 J0.549
G3 X22.0811 Y20.68 I-0.9023 J0.3738
G3 X22.101 Y20.8907 I-1.1045 J0.2107
G1 X22.101 Y27.1576
G1 X22.101 Y27.7912
G1 X22.101 Y33.2133
G3 X21.976 Y33.3383 I-0.125 J0
G1 X18.736 Y33.3383
G3 X18.611 Y33.2133 I0 J-0.125
G1 X18.611 Y25.8377
G2 X18.5884 Y25.4876 I-2.7294 J0
G2 X18.5229 Y25.1563 I-2.5165 J0.3255
G2 X18.414 Y24.8367 I-2.4509 J0.6567
G2 X18.2585 Y24.5222 I-2.5193 J1.0503
G2 X18.0639 Y24.2303 I-2.3637 J1.3647
G2 X17.8416 Y23.9762 I-2.0166 J1.5401
G2 X17.5874 Y23.7538 I-1.7942 J1.7942
G2 X17.2955 Y23.5592 I-1.6566 J2.1692
G2 X16.9811 Y23.4037 I-1.3647 J2.3637
G2 X16.6614 Y23.2948 I-0.9764 J2.342
G2 X16.3301 Y23.2293 I-0.6567 J2.4509
G2 X15.9801 Y23.2068 I-0.3501 J2.7069
G1 X8.8698 Y23.2068
G2 X8.333 Y23.2575 I0 J2.8651
G2 X7.8597 Y23.3991 I0.454 J2.3803
G2 X7.425 Y23.6336 I0.9273 J2.2388
G2 X7.0095 Y23.9773 I1.6104 J2.3696
G2 X6.6658 Y24.3928 I2.0259 J2.0259
G2 X6.4312 Y24.8276 I2.0042 J1.3621
G2 X6.2897 Y25.3009 I2.2388 J0.9273
G2 X6.2389 Y25.8377 I2.8143 J0.5368
G1 X6.2389 Y33.2133
G3 X6.1139 Y33.3383 I-0.125 J0
G1 X2.8739 Y33.3383
G3 X2.7489 Y33.2133 I0 J-0.125
G1 X2.7489 Y26.5112
G1 X2.7489 Y26.0112
G1 X2.7489 Y20.8907
G3 X2.7688 Y20.68 I1.1244 J0
G3 X2.8259 Y20.4892 I0.9594 J0.183
G3 X2.9204 Y20.314 I0.9023 J0.3738
G3 X3.0553 Y20.151 I0.9299 J0.632
G3 X3.2184 Y20.0161 I0.795 J0.795
G3 X3.3936 Y19.9215 I0.549 J0.8078
G3 X3.5844 Y19.8645 I0.3738 J0.9023
G3 X3.795 Y19.8446 I0.2107 J1.1045
G1 X7.1049 Y19.8446
G3 X7.2299 Y19.9696 I0 J0.125
G1 X7.2299 Y20.2627
G2 X7.2365 Y20.3322 I0.3707 J0
G2 X7.2538 Y20.3903 I0.2922 J-0.0557
G2 X7.2826 Y20.4436 I0.2748 J-0.1138
G2 X7.3271 Y20.4974 I0.3066 J-0.2084
G2 X7.3809 Y20.5418 I0.2621 J-0.2621
G2 X7.4342 Y20.5706 I0.1672 J-0.246
G2 X7.4923 Y20.588 I0.1138 J-0.2748
G2 X7.5618 Y20.5946 I0.0695 J-0.3641
G1 X7.9181 Y20.5946
G2 X7.9875 Y20.588 I0 J-0.3707
G2 X8.0456 Y20.5706 I-0.0557 J-0.2922
G2 X8.099 Y20.5418 I-0.1138 J-0.2748
G2 X8.1527 Y20.4974 I-0.2084 J-0.3066
G2 X8.1972 Y20.4436 I-0.2621 J-0.2621
G2 X8.226 Y20.3903 I-0.246 J-0.1672
G2 X8.2433 Y20.3322 I-0.2748 J-0.1138
G2 X8.2499 Y20.2627 I-0.3641 J-0.0695
G1 X8.2499 Y18.9849
G1 X8.2499 Y18.9849
G2 X8.2327 Y18.8279 I-0.7256 J0
G2 X8.1819 Y18.6783 I-0.7084 J0.157
G2 X8.1 Y18.5433 I-0.6576 J0.3066
G2 X7.9907 Y18.4291 I-0.5756 J0.4417
G1 X3.5445 Y14.6983
G3 X3.2092 Y14.348 I1.4316 J-1.7061
G3 X2.9576 Y13.9334 I1.767 J-1.3558
G3 X2.8017 Y13.4742 I2.0185 J-0.9413
G3 X2.7489 Y12.9922 I2.1744 J-0.4821
G1 X2.7489 Y9.8041
G1 X2.7489 Y9.3041
G1 X2.7489 Y4.4733
G3 X2.7846 Y4.0962 I2.0128 J0
G3 X2.8858 Y3.7576 I1.7032 J0.3249
G3 X3.0537 Y3.4465 I1.6019 J0.6635
G3 X3.2952 Y3.1546 I1.6648 J1.1314
G3 X3.587 Y2.9131 I1.4233 J1.4233
G3 X3.8981 Y2.7453 I0.9746 J1.434
G3 X4.2368 Y2.644 I0.6635 J1.6019
G3 X4.6139 Y2.6083 I0.3771 J1.9772
G1 Z-0.32 F30
G1 X20.236 Y2.6083 F60
G3 X20.4832 Y2.6243 I0 J1.9272
G3 X20.7189 Y2.6709 I-0.2316 J1.7911
G3 X20.9464 Y2.7484 I-0.4674 J1.7444
G3 X21.1685 Y2.8582 I-0.7416 J1.7788
G3 X21.3746 Y2.9956 I-0.9636 J1.669
G3 X21.5555 Y3.1539 I-1.0961 J1.4353
G3 X21.7137 Y3.3347 I-1.277 J1.277
G3 X21.8511 Y3.5408 I-1.5316 J1.1697
G3 X21.9609 Y3.7629 I-1.669 J0.9636
G3 X22.0384 Y3.9904 I-1.6669 J0.6949
G3 X22.085 Y4.2262 I-1.7444 J0.4674
G3 X22.101 Y4.4733 I-1.9113 J0.2472
G1 X22.101 Y7.3106
G1 X22.101 Y7.8106
G1 X22.101 Y12.9922
G1 X22.101 Y12.9922
G3 X22.0482 Y13.4742 I-2.2272 J0
G3 X21.8923 Y13.9334 I-2.1744 J-0.4821
G3 X21.6407 Y14.348 I-2.0185 J-0.9413
G3 X21.3054 Y14.6983 I-1.767 J-1.3558
G1 X16.8592 Y18.4291
G2 X16.7499 Y18.5433 I0.4664 J0.5558
G2 X16.668 Y18.6783 I0.5756 J0.4417
G2 X16.6172 Y18.8279 I0.6576 J0.3066
G2 X16.6 Y18.9849 I0.7084 J0.157
G1 X16.6 Y20.2627
G2 X16.6113 Y20.3486 I0.3319 J0
G2 X16.6444 Y20.4286 I0.3205 J-0.0859
G2 X16.6972 Y20.4974 I0.2874 J-0.1659
G2 X16.7659 Y20.5501 I0.2347 J-0.2347
G2 X16.8459 Y20.5833 I0.1659 J-0.2874
G2 X16.9318 Y20.5946 I0.0859 J-0.3205
G1 X17.2881 Y20.5946
G2 X17.3576 Y20.588 I0 J-0.3707
G2 X17.4157 Y20.5706 I-0.0557 J-0.2922
G2 X17.469 Y20.5418 I-0.1138 J-0.2748
G2 X17.5228 Y20.4974 I-0.2084 J-0.3066
G2 X17.5673 Y20.4436 I-0.2621 J-0.2621
G2 X17.596 Y20.3903 I-0.246 J-0.1672
G2 X17.6134 Y20.3322 I-0.2748 J-0.1138
G2 X17.62 Y20.2627 I-0.3641 J-0.0695
G1 X17.62 Y19.9696
G3 X17.745 Y19.8446 I0.125 J0
G1 X21.0549 Y19.8446
G3 X21.2655 Y19.8645 I0 J1.1244
G3 X21.4563 Y19.9215 I-0.183 J0.9594
G3 X21.6315 Y20.0161 I-0.3738 J0.9023
G3 X21.7946 Y20.151 I-0.632 J0.9299
G3 X21.9295 Y20.314 I-0.795 J0.795
G3 X22.024 Y20.4892 I-0.8078 J0.549
G3 X22.0811 Y20.68 I-0.9023 J0.3738
G3 X22.101 Y20.8907 I-1.1045 J0.2107
G1 X22.101 Y27.1576
G1 X22.101 Y27.7912
G1 X22.101 Y33.2133
G3 X21.976 Y33.3383 I-0.125 J0
G1 X18.736 Y33.3383
G3 X18.611 Y33.2133 I0 J-0.125
G1 X18.611 Y25.8377
G2 X18.5884 Y25.4876 I-2.7294 J0
G2 X18.5229 Y25.1563 I-2.5165 J0.3255
G2 X18.414 Y24.8367 I-2.4509 J0.6567
G2 X18.2585 Y24.5222 I-2.5193 J1.0503
G2 X18.0639 Y24.2303 I-2.3637 J1.3647
G2 X17.8416 Y23.9762 I-2.0166 J1.5401
G2 X17.5874 Y23.7538 I-1.7942 J1.7942
G2 X17.2955 Y23.5592 I-1.6566 J2.1692
G2 X16.9811 Y23.4037 I-1.3647 J2.3637
G2 X16.6614 Y23.2948 I-0.9764 J2.342
G2 X16.3301 Y23.2293 I-0.6567 J2.4509
G2 X15.9801 Y23.2068 I-0.3501 J2.7069
G1 X8.8698 Y23.2068
G2 X8.333 Y23.2575 I0 J2.8651
G2 X7.8597 Y23.3991 I0.454 J2.3803
G2 X7.425 Y23.6336 I0.9273 J2.2388
G2 X7.0095 Y23.9773 I1.6104 J2.3696
G2 X6.6658 Y24.3928 I2.0259 J2.0259
G2 X6.4312 Y24.8276 I2.0042 J1.3621
G2 X6.2897 Y25.3009 I2.2388 J0.9273
G2 X6.2389 Y25.8377 I2.8143 J0.5368
G1 X6.2389 Y33.2133
G3 X6.1139 Y33.3383 I-0.125 J0
G1 X2.8739 Y33.3383
G3 X2.7489 Y33.2133 I0 J-0.125
G1 X2.7489 Y26.5112
G1 X2.7489 Y26.0112
G1 X2.7489 Y20.8907
G3 X2.7688 Y20.68 I1.1244 J0
G3 X2.8259 Y20.4892 I0.9594 J0.183
G3 X2.9204 Y20.314 I0.9023 J0.3738
G3 X3.0553 Y20.151 I0.9299 J0.632
G3 X3.2184 Y20.0161 I0.795 J0.795
G3 X3.3936 Y19.9215 I0.549 J0.8078
G3 X3.5844 Y19.8645 I0.3738 J0.9023
G3 X3.795 Y19.8446 I0.2107 J1.1045
G1 X7.1049 Y19.8446
G3 X7.2299 Y19.9696 I0 J0.125
G1 X7.2299 Y20.2627
G2 X7.2365 Y20.3322 I0.3707 J0
G2 X7.2538 Y20.3903 I0.2922 J-0.0557
G2 X7.2826 Y20.4436 I0.2748 J-0.1138
G2 X7.3271 Y20.4974 I0.3066 J-0.2084
G2 X7.3809 Y20.5418 I0.2621 J-0.2621
G2 X7.4342 Y20.5706 I0.1672 J-0.246
G2 X7.4923 Y20.588 I0.1138 J-0.2748
G2 X7.5618 Y20.5946 I0.0695 J-0.3641
G1 X7.9181 Y20.5946
G2 X7.9875 Y20.588 I0 J-0.3707
G2 X8.0456 Y20.5706 I-0.0557 J-0.2922
G2 X8.099 Y20.5418 I-0.1138 J-0.2748
G2 X8.1527 Y20.4974 I-0.2084 J-0.3066
G2 X8.1972 Y20.4436 I-0.2621 J-0.2621
G2 X8.226 Y20.3903 I-0.246 J-0.1672
G2 X8.2433 Y20.3322 I-0.2748 J-0.1138
G2 X8.2499 Y20.2627 I-0.3641 J-0.0695
G1 X8.2499 Y18.9849
G1 X8.2499 Y18.9849
G2 X8.2327 Y18.8279 I-0.7256 J0
G2 X8.1819 Y18.6783 I-0.7084 J0.157
G2 X8.1 Y18.5433 I-0.6576 J0.3066
G2 X7.9907 Y18.4291 I-0.5756 J0.4417
G1 X3.5445 Y14.6983
G3 X3.2092 Y14.348 I1.4316 J-1.7061
G3 X2.9576 Y13.9334 I1.767 J-1.3558
G3 X2.8017 Y13.4742 I2.0185 J-0.9413
G3 X2.7489 Y12.9922 I2.1744 J-0.4821
G1 X2.7489 Y9.8041
G1 X2.7489 Y9.3041
G1 X2.7489 Y4.4733
G3 X2.7846 Y4.0962 I2.0128 J0
G3 X2.8858 Y3.7576 I1.7032 J0.3249
G3 X3.0537 Y3.4465 I1.6019 J0.6635
G3 X3.2952 Y3.1546 I1.6648 J1.1314
G3 X3.587 Y2.9131 I1.4233 J1.4233
G3 X3.8981 Y2.7453 I0.9746 J1.434
G3 X4.2368 Y2.644 I0.6635 J1.6019
G3 X4.6139 Y2.6083 I0.3771 J1.9772
G1 Z-0.48 F30
G1 X20.236 Y2.6083 F60
G3 X20.4832 Y2.6243 I0 J1.9272
G3 X20.7189 Y2.6709 I-0.2316 J1.7911
G3 X20.9464 Y2.7484 I-0.4674 J1.7444
G3 X21.1685 Y2.8582 I-0.7416 J1.7788
G3 X21.3746 Y2.9956 I-0.9636 J1.669
G3 X21.5555 Y3.1539 I-1.0961 J1.4353
G3 X21.7137 Y3.3347 I-1.277 J1.277
G3 X21.8511 Y3.5408 I-1.5316 J1.1697
G3 X21.9609 Y3.7629 I-1.669 J0.9636
G3 X22.0384 Y3.9904 I-1.6669 J0.6949
G3 X22.085 Y4.2262 I-1.7444 J0.4674
G3 X22.101 Y4.4733 I-1.9113 J0.2472
G1 X22.101 Y7.3106
G1 X22.101 Y7.8106
G1 X22.101 Y12.9922
G1 X22.101 Y12.9922
G3 X22.0482 Y13.4742 I-2.2272 J0
G3 X21.8923 Y13.9334 I-2.1744 J-0.4821
G3 X21.6407 Y14.348 I-2.0185 J-0.9413
G3 X21.3054 Y14.6983 I-1.767 J-1.3558
G1 X16.8592 Y18.4291
G2 X16.7499 Y18.5433 I0.4664 J0.5558
G2 X16.668 Y18.6783 I0.5756 J0.4417
G2 X16.6172 Y18.8279 I0.6576 J0.3066
G2 X16.6 Y18.9849 I0.7084 J0.157
G1 X16.6 Y20.2627
G2 X16.6113 Y20.3486 I0.3319 J0
G2 X16.6444 Y20.4286 I0.3205 J-0.0859
G2 X16.6972 Y20.4974 I0.2874 J-0.1659
G2 X16.7659 Y20.5501 I0.2347 J-0.2347
G2 X16.8459 Y20.5833 I0.1659 J-0.2874
G2 X16.9318 Y20.5946 I0.0859 J-0.3205
G1 X17.2881 Y20.5946
G2 X17.3576 Y20.588 I0 J-0.3707
G2 X17.4157 Y20.5706 I-0.0557 J-0.2922
G2 X17.469 Y20.5418 I-0.1138 J-0.2748
G2 X17.5228 Y20.4974 I-0.2084 J-0.3066
G2 X17.5673 Y20.4436 I-0.2621 J-0.2621
G2 X17.596 Y20.3903 I-0.246 J-0.1672
G2 X17.6134 Y20.3322 I-0.2748 J-0.1138
G2 X17.62 Y20.2627 I-0.3641 J-0.0695
G1 X17.62 Y19.9696
G3 X17.745 Y19.8446 I0.125 J0
G1 X21.0549 Y19.8446
G3 X21.2655 Y19.8645 I0 J1.1244
G3 X21.4563 Y19.9215 I-0.183 J0.9594
G3 X21.6315 Y20.0161 I-0.3738 J0.9023
G3 X21.7946 Y20.151 I-0.632 J0.9299
G3 X21.9295 Y20.314 I-0.795 J0.795
G3 X22.024 Y20.4892 I-0.8078 J0.549
G3 X22.0811 Y20.68 I-0.9023 J0.3738
G3 X22.101 Y20.8907 I-1.1045 J0.2107
G1 X22.101 Y27.1576
G1 X22.101 Y27.7912
G1 X22.101 Y33.2133
G3 X21.976 Y33.3383 I-0.125 J0
G1 X18.736 Y33.3383
G3 X18.611 Y33.2133 I0 J-0.125
G1 X18.611 Y25.8377
G2 X18.5884 Y25.4876 I-2.7294 J0
G2 X18.5229 Y25.1563 I-2.5165 J0.3255
G2 X18.414 Y24.8367 I-2.4509 J0.6567
G2 X18.2585 Y24.5222 I-2.5193 J1.0503
G2 X18.0639 Y24.2303 I-2.3637 J1.3647
G2 X17.8416 Y23.9762 I-2.0166 J1.5401
G2 X17.5874 Y23.7538 I-1.7942 J1.7942
G2 X17.2955 Y23.5592 I-1.6566 J2.1692
G2 X16.9811 Y23.4037 I-1.3647 J2.3637
G2 X16.6614 Y23.2948 I-0.9764 J2.342
G2 X16.3301 Y23.2293 I-0.6567 J2.4509
G2 X15.9801 Y23.2068 I-0.3501 J2.7069
G1 X8.8698 Y23.2068
G2 X8.333 Y23.2575 I0 J2.8651
G2 X7.8597 Y23.3991 I0.454 J2.3803
G2 X7.425 Y23.6336 I0.9273 J2.2388
G2 X7.0095 Y23.9773 I1.6104 J2.3696
G2 X6.6658 Y24.3928 I2.0259 J2.0259
G2 X6.4312 Y24.8276 I2.0042 J1.3621
G2 X6.2897 Y25.3009 I2.2388 J0.9273
G2 X6.2389 Y25.8377 I2.8143 J0.5368
G1 X6.2389 Y33.2133
G3 X6.1139 Y33.3383 I-0.125 J0
G1 X2.8739 Y33.3383
G3 X2.7489 Y33.2133 I0 J-0.125
G1 X2.7489 Y26.5112
G1 X2.7489 Y26.0112
G1 X2.7489 Y20.8907
G3 X2.7688 Y20.68 I1.1244 J0
G3 X2.8259 Y20.4892 I0.9594 J0.183
G3 X2.9204 Y20.314 I0.9023 J0.3738
G3 X3.0553 Y20.151 I0.9299 J0.632
G3 X3.2184 Y20.0161 I0.795 J0.795
G3 X3.3936 Y19.9215 I0.549 J0.8078
G3 X3.5844 Y19.8645 I0.3738 J0.9023
G3 X3.795 Y19.8446 I0.2107 J1.1045
G1 X7.1049 Y19.8446
G3 X7.2299 Y19.9696 I0 J0.125
G1 X7.2299 Y20.2627
G2 X7.2365 Y20.3322 I0.3707 J0
G2 X7.2538 Y20.3903 I0.2922 J-0.0557
G2 X7.2826 Y20.4436 I0.2748 J-0.1138
G2 X7.3271 Y20.4974 I0.3066 J-0.2084
G2 X7.3809 Y20.5418 I0.2621 J-0.2621
G2 X7.4342 Y20.5706 I0.1672 J-0.246
G2 X7.4923 Y20.588 I0.1138 J-0.2748
G2 X7.5618 Y20.5946 I0.0695 J-0.3641
G1 X7.9181 Y20.5946
G2 X7.9875 Y20.588 I0 J-0.3707
G2 X8.0456 Y20.5706 I-0.0557 J-0.2922
G2 X8.099 Y20.5418 I-0.1138 J-0.2748
G2 X8.1527 Y20.4974 I-0.2084 J-0.3066
G2 X8.1972 Y20.4436 I-0.2621 J-0.2621
G2 X8.226 Y20.3903 I-0.246 J-0.1672
G2 X8.2433 Y20.3322 I-0.2748 J-0.1138
G2 X8.2499 Y20.2627 I-0.3641 J-0.0695
G1 X8.2499 Y18.9849
G1 X8.2499 Y18.9849
G2 X8.2327 Y18.8279 I-0.7256 J0
G2 X8.1819 Y18.6783 I-0.7084 J0.157
G2 X8.1 Y18.5433 I-0.6576 J0.3066
G2 X7.9907 Y18.4291 I-0.5756 J0.4417
G1 X3.5445 Y14.6983
G3 X3.2092 Y14.348 I1.4316 J-1.7061
G3 X2.9576 Y13.9334 I1.767 J-1.3558
G3 X2.8017 Y13.4742 I2.0185 J-0.9413
G3 X2.7489 Y12.9922 I2.1744 J-0.4821
G1 X2.7489 Y9.8041
G1 X2.7489 Y9.3041
G1 X2.7489 Y4.4733
G3 X2.7846 Y4.0962 I2.0128 J0
G3 X2.8858 Y3.7576 I1.7032 J0.3249
G3 X3.0537 Y3.4465 I1.6019 J0.6635
G3 X3.2952 Y3.1546 I1.6648 J1.1314
G3 X3.587 Y2.9131 I1.4233 J1.4233
G3 X3.8981 Y2.7453 I0.9746 J1.434
G3 X4.2368 Y2.644 I0.6635 J1.6019
G3 X4.6139 Y2.6083 I0.3771 J1.9772
G1 Z-0.64 F30
G1 X20.236 Y2.6083 F60
G3 X20.4832 Y2.6243 I0 J1.9272
G3 X20.7189 Y2.6709 I-0.2316 J1.7911
G3 X20.9464 Y2.7484 I-0.4674 J1.7444
G3 X21.1685 Y2.8582 I-0.7416 J1.7788
G3 X21.3746 Y2.9956 I-0.9636 J1.669
G3 X21.5555 Y3.1539 I-1.0961 J1.4353
G3 X21.7137 Y3.3347 I-1.277 J1.277
G3 X21.8511 Y3.5408 I-1.5316 J1.1697
G3 X21.9609 Y3.7629 I-1.669 J0.9636
G3 X22.0384 Y3.9904 I-1.6669 J0.6949
G3 X22.085 Y4.2262 I-1.7444 J0.4674
G3 X22.101 Y4.4733 I-1.9113 J0.2472
G1 X22.101 Y7.3106
G1 Z-0.55 F30
G1 X22.101 Y7.8106 F60
G1 Z-0.64 F30
G1 X22.101 Y12.9922 F60
G1 X22.101 Y12.9922
G3 X22.0482 Y13.4742 I-2.2272 J0
G3 X21.8923 Y13.9334 I-2.1744 J-0.4821
G3 X21.6407 Y14.348 I-2.0185 J-0.9413
G3 X21.3054 Y14.6983 I-1.767 J-1.3558
G1 X16.8592 Y18.4291
G2 X16.7499 Y18.5433 I0.4664 J0.5558
G2 X16.668 Y18.6783 I0.5756 J0.4417
G2 X16.6172 Y18.8279 I0.6576 J0.3066
G2 X16.6 Y18.9849 I0.7084 J0.157
G1 X16.6 Y20.2627
G2 X16.6113 Y20.3486 I0.3319 J0
G2 X16.6444 Y20.4286 I0.3205 J-0.0859
G2 X16.6972 Y20.4974 I0.2874 J-0.1659
G2 X16.7659 Y20.5501 I0.2347 J-0.2347
G2 X16.8459 Y20.5833 I0.1659 J-0.2874
G2 X16.9318 Y20.5946 I0.0859 J-0.3205
G1 X17.2881 Y20.5946
G2 X17.3576 Y20.588 I0 J-0.3707
G2 X17.4157 Y20.5706 I-0.0557 J-0.2922
G2 X17.469 Y20.5418 I-0.1138 J-0.2748
G2 X17.5228 Y20.4974 I-0.2084 J-0.3066
G2 X17.5673 Y20.4436 I-0.2621 J-0.2621
G2 X17.596 Y20.3903 I-0.246 J-0.1672
G2 X17.6134 Y20.3322 I-0.2748 J-0.1138
G2 X17.62 Y20.2627 I-0.3641 J-0.0695
G1 X17.62 Y19.9696
G3 X17.745 Y19.8446 I0.125 J0
G1 X21.0549 Y19.8446
G3 X21.2655 Y19.8645 I0 J1.1244
G3 X21.4563 Y19.9215 I-0.183 J0.9594
G3 X21.6315 Y20.0161 I-0.3738 J0.9023
G3 X21.7946 Y20.151 I-0.632 J0.9299
G3 X21.9295 Y20.314 I-0.795 J0.795
G3 X22.024 Y20.4892 I-0.8078 J0.549
G3 X22.0811 Y20.68 I-0.9023 J0.3738
G3 X22.101 Y20.8907 I-1.1045 J0.2107
G1 X22.101 Y27.1576
G1 Z-0.55 F30
G1 X22.101 Y27.7912 F60
G1 Z-0.64 F30
G1 X22.101 Y33.2133 F60
G3 X21.976 Y33.3383 I-0.125 J0
G1 X18.736 Y33.3383
G3 X18.611 Y33.2133 I0 J-0.125
G1 X18.611 Y25.8377
G2 X18.5884 Y25.4876 I-2.7294 J0
G2 X18.5229 Y25.1563 I-2.5165 J0.3255
G2 X18.414 Y24.8367 I-2.4509 J0.6567
G2 X18.2585 Y24.5222 I-2.5193 J1.0503
G2 X18.0639 Y24.2303 I-2.3637 J1.3647
G2 X17.8416 Y23.9762 I-2.0166 J1.5401
G2 X17.5874 Y23.7538 I-1.7942 J1.7942
G2 X17.2955 Y23.5592 I-1.6566 J2.1692
G2 X16.9811 Y23.4037 I-1.3647 J2.3637
G2 X16.6614 Y23.2948 I-0.9764 J2.342
G2 X16.3301 Y23.2293 I-0.6567 J2.4509
G2 X15.9801 Y23.2068 I-0.3501 J2.7069
G1 X8.8698 Y23.2068
G2 X8.333 Y23.2575 I0 J2.8651
G2 X7.8597 Y23.3991 I0.454 J2.3803
G2 X7.425 Y23.6336 I0.9273 J2.2388
G2 X7.0095 Y23.9773 I1.6104 J2.3696
G2 X6.6658 Y24.3928 I2.0259 J2.0259
G2 X6.4312 Y24.8276 I2.0042 J1.3621
G2 X6.2897 Y25.3009 I2.2388 J0.9273
G2 X6.2389 Y25.8377 I2.8143 J0.5368
G1 X6.2389 Y33.2133
G3 X6.1139 Y33.3383 I-0.125 J0
G1 X2.8739 Y33.3383
G3 X2.7489 Y33.2133 I0 J-0.125
G1 X2.7489 Y26.5112
G1 Z-0.55 F30
G1 X2.7489 Y26.0112 F60
G1 Z-0.64 F30
G1 X2.7489 Y20.8907 F60
G3 X2.7688 Y20.68 I1.1244 J0
G3 X2.8259 Y20.4892 I0.9594 J0.183
G3 X2.9204 Y20.314 I0.9023 J0.3738
G3 X3.0553 Y20.151 I0.9299 J0.632
G3 X3.2184 Y20.0161 I0.795 J0.795
G3 X3.3936 Y19.9215 I0.549 J0.8078
G3 X3.5844 Y19.8645 I0.3738 J0.9023
G3 X3.795 Y19.8446 I0.2107 J1.1045
G1 X7.1049 Y19.8446
G3 X7.2299 Y19.9696 I0 J0.125
G1 X7.2299 Y20.2627
G2 X7.2365 Y20.3322 I0.3707 J0
G2 X7.2538 Y20.3903 I0.2922 J-0.0557
G2 X7.2826 Y20.4436 I0.2748 J-0.1138
G2 X7.3271 Y20.4974 I0.3066 J-0.2084
G2 X7.3809 Y20.5418 I0.2621 J-0.2621
G2 X7.4342 Y20.5706 I0.1672 J-0.246
G2 X7.4923 Y20.588 I0.1138 J-0.2748
G2 X7.5618 Y20.5946 I0.0695 J-0.3641
G1 X7.9181 Y20.5946
G2 X7.9875 Y20.588 I0 J-0.3707
G2 X8.0456 Y20.5706 I-0.0557 J-0.2922
G2 X8.099 Y20.5418 I-0.1138 J-0.2748
G2 X8.1527 Y20.4974 I-0.2084 J-0.3066
G2 X8.1972 Y20.4436 I-0.2621 J-0.2621
G2 X8.226 Y20.3903 I-0.246 J-0.1672
G2 X8.2433 Y20.3322 I-0.2748 J-0.1138
G2 X8.2499 Y20.2627 I-0.3641 J-0.0695
G1 X8.2499 Y18.9849
G1 X8.2499 Y18.9849
G2 X8.2327 Y18.8279 I-0.7256 J0
G2 X8.1819 Y18.6783 I-0.7084 J0.157
G2 X8.1 Y18.5433 I-0.6576 J0.3066
G2 X7.9907 Y18.4291 I-0.5756 J0.4417
G1 X3.5445 Y14.6983
G3 X3.2092 Y14.348 I1.4316 J-1.7061
G3 X2.9576 Y13.9334 I1.767 J-1.3558
G3 X2.8017 Y13.4742 I2.0185 J-0.9413
G3 X2.7489 Y12.9922 I2.1744 J-0.4821
G1 X2.7489 Y9.8041
G1 Z-0.55 F30
G1 X2.7489 Y9.3041 F60
G1 Z-0.64 F30
G1 X2.7489 Y4.4733 F60
G3 X2.7846 Y4.0962 I2.0128 J0
G3 X2.8858 Y3.7576 I1.7032 J0.3249
G3 X3.0537 Y3.4465 I1.6019 J0.6635
G3 X3.2952 Y3.1546 I1.6648 J1.1314
G3 X3.587 Y2.9131 I1.4233 J1.4233
G3 X3.8981 Y2.7453 I0.9746 J1.434
G3 X4.2368 Y2.644 I0.6635 J1.6019
G3 X4.6139 Y2.6083 I0.3771 J1.9772
G1 Z-0.8 F30
G1 X20.236 Y2.6083 F60
G3 X20.4832 Y2.6243 I0 J1.9272
G3 X20.7189 Y2.6709 I-0.2316 J1.7911
G3 X20.9464 Y2.7484 I-0.4674 J1.7444
G3 X21.1685 Y2.8582 I-0.7416 J1.7788
G3 X21.3746 Y2.9956 I-0.9636 J1.669
G3 X21.5555 Y3.1539 I-1.0961 J1.4353
G3 X21.7137 Y3.3347 I-1.277 J1.277
G3 X21.8511 Y3.5408 I-1.5316 J1.1697
G3 X21.9609 Y3.7629 I-1.669 J0.9636
G3 X22.0384 Y3.9904 I-1.6669 J0.6949
G3 X22.085 Y4.2262 I-1.7444 J0.4674
G3 X22.101 Y4.4733 I-1.9113 J0.2472
G1 X22.101 Y7.3106
G1 Z-0.55 F30
G1 X22.101 Y7.8106 F60
G1 Z-0.8 F30
G1 X22.101 Y12.9922 F60
G1 X22.101 Y12.9922
G3 X22.0482 Y13.4742 I-2.2272 J0
G3 X21.8923 Y13.9334 I-2.1744 J-0.4821
G3 X21.6407 Y14.348 I-2.0185 J-0.9413
G3 X21.3054 Y14.6983 I-1.767 J-1.3558
G1 X16.8592 Y18.4291
G2 X16.7499 Y18.5433 I0.4664 J0.5558
G2 X16.668 Y18.6783 I0.5756 J0.4417
G2 X16.6172 Y18.8279 I0.6576 J0.3066
G2 X16.6 Y18.9849 I0.7084 J0.157
G1 X16.6 Y20.2627
G2 X16.6113 Y20.3486 I0.3319 J0
G2 X16.6444 Y20.4286 I0.3205 J-0.0859
G2 X16.6972 Y20.4974 I0.2874 J-0.1659
G2 X16.7659 Y20.5501 I0.2347 J-0.2347
G2 X16.8459 Y20.5833 I0.1659 J-0.2874
G2 X16.9318 Y20.5946 I0.0859 J-0.3205
G1 X17.2881 Y20.5946
G2 X17.3576 Y20.588 I0 J-0.3707
G2 X17.4157 Y20.5706 I-0.0557 J-0.2922
G2 X17.469 Y20.5418 I-0.1138 J-0.2748
G2 X17.5228 Y20.4974 I-0.2084 J-0.3066
G2 X17.5673 Y20.4436 I-0.2621 J-0.2621
G2 X17.596 Y20.3903 I-0.246 J-0.1672
G2 X17.6134 Y20.3322 I-0.2748 J-0.1138
G2 X17.62 Y20.2627 I-0.3641 J-0.0695
G1 X17.62 Y19.9696
G3 X17.745 Y19.8446 I0.125 J0
G1 X21.0549 Y19.8446
G3 X21.2655 Y19.8645 I0 J1.1244
G3 X21.4563 Y19.9215 I-0.183 J0.9594
G3 X21.6315 Y20.0161 I-0.3738 J0.9023
G3 X21.7946 Y20.151 I-0.632 J0.9299
G3 X21.9295 Y20.314 I-0.795 J0.795
G3 X22.024 Y20.4892 I-0.8078 J0.549
G3 X22.0811 Y20.68 I-0.9023 J0.3738
G3 X22.101 Y20.8907 I-1.1045 J0.2107
G1 X22.101 Y27.1576
G1 Z-0.55 F30
G1 X22.101 Y27.7912 F60
G1 Z-0.8 F30
G1 X22.101 Y33.2133 F60
G3 X21.976 Y33.3383 I-0.125 J0
G1 X18.736 Y33.3383
G3 X18.611 Y33.2133 I0 J-0.125
G1 X18.611 Y25.8377
G2 X18.5884 Y25.4876 I-2.7294 J0
G2 X18.5229 Y25.1563 I-2.5165 J0.3255
G2 X18.414 Y24.8367 I-2.4509 J0.6567
G2 X18.2585 Y24.5222 I-2.5193 J1.0503
G2 X18.0639 Y24.2303 I-2.3637 J1.3647
G2 X17.8416 Y23.9762 I-2.0166 J1.5401
G2 X17.5874 Y23.7538 I-1.7942 J1.7942
G2 X17.2955 Y23.5592 I-1.6566 J2.1692
G2 X16.9811 Y23.4037 I-1.3647 J2.3637
G2 X16.6614 Y23.2948 I-0.9764 J2.342
G2 X16.3301 Y23.2293 I-0.6567 J2.4509
G2 X15.9801 Y23.2068 I-0.3501 J2.7069
G1 X8.8698 Y23.2068
G2 X8.333 Y23.2575 I0 J2.8651
G2 X7.8597 Y23.3991 I0.454 J2.3803
G2 X7.425 Y23.6336 I0.9273 J2.2388
G2 X7.0095 Y23.9773 I1.6104 J2.3696
G2 X6.6658 Y24.3928 I2.0259 J2.0259
G2 X6.4312 Y24.8276 I2.0042 J1.3621
G2 X6.2897 Y25.3009 I2.2388 J0.9273
G2 X6.2389 Y25.8377 I2.8143 J0.5368
G1 X6.2389 Y33.2133
G3 X6.1139 Y33.3383 I-0.125 J0
G1 X2.8739 Y33.3383
G3 X2.7489 Y33.2133 I0 J-0.125
G1 X2.7489 Y26.5112
G1 Z-0.55 F30
G1 X2.7489 Y26.0112 F60
G1 Z-0.8 F30
G1 X2.7489 Y20.8907 F60
G3 X2.7688 Y20.68 I1.1244 J0
G3 X2.8259 Y20.4892 I0.9594 J0.183
G3 X2.9204 Y20.314 I0.9023 J0.3738
G3 X3.0553 Y20.151 I0.9299 J0.632
G3 X3.2184 Y20.0161 I0.795 J0.795
G3 X3.3936 Y19.9215 I0.549 J0.8078
G3 X3.5844 Y19.8645 I0.3738 J0.9023
G3 X3.795 Y19.8446 I0.2107 J1.1045
G1 X7.1049 Y19.8446
G3 X7.2299 Y19.9696 I0 J0.125
G1 X7.2299 Y20.2627
G2 X7.2365 Y20.3322 I0.3707 J0
G2 X7.2538 Y20.3903 I0.2922 J-0.0557
G2 X7.2826 Y20.4436 I0.2748 J-0.1138
G2 X7.3271 Y20.4974 I0.3066 J-0.2084
G2 X7.3809 Y20.5418 I0.2621 J-0.2621
G2 X7.4342 Y20.5706 I0.1672 J-0.246
G2 X7.4923 Y20.588 I0.1138 J-0.2748
G2 X7.5618 Y20.5946 I0.0695 J-0.3641
G1 X7.9181 Y20.5946
G2 X7.9875 Y20.588 I0 J-0.3707
G2 X8.0456 Y20.5706 I-0.0557 J-0.2922
G2 X8.099 Y20.5418 I-0.1138 J-0.2748
G2 X8.1527 Y20.4974 I-0.2084 J-0.3066
G2 X8.1972 Y20.4436 I-0.2621 J-0.2621
G2 X8.226 Y20.3903 I-0.246 J-0.1672
G2 X8.2433 Y20.3322 I-0.2748 J-0.1138
G2 X8.2499 Y20.2627 I-0.3641 J-0.0695
G1 X8.2499 Y18.9849
G1 X8.2499 Y18.9849
G2 X8.2327 Y18.8279 I-0.7256 J0
G2 X8.1819 Y18.6783 I-0.7084 J0.157
G2 X8.1 Y18.5433 I-0.6576 J0.3066
G2 X7.9907 Y18.4291 I-0.5756 J0.4417
G1 X3.5445 Y14.6983
G3 X3.2092 Y14.348 I1.4316 J-1.7061
G3 X2.9576 Y13.9334 I1.767 J-1.3558
G3 X2.8017 Y13.4742 I2.0185 J-0.9413
G3 X2.7489 Y12.9922 I2.1744 J-0.4821
G1 X2.7489 Y9.8041
G1 Z-0.55 F30
G1 X2.7489 Y9.3041 F60
G1 Z-0.8 F30
G1 X2.7489 Y4.4733 F60
G3 X2.7846 Y4.0962 I2.0128 J0
G3 X2.8858 Y3.7576 I1.7032 J0.3249
G3 X3.0537 Y3.4465 I1.6019 J0.6635
G3 X3.2952 Y3.1546 I1.6648 J1.1314
G3 X3.587 Y2.9131 I1.4233 J1.4233
G3 X3.8981 Y2.7453 I0.9746 J1.434
G3 X4.2368 Y2.644 I0.6635 J1.6019
G3 X4.6139 Y2.6083 I0.3771 J1.9772

(Throw away bit)
G0 Z0.1
G0 X18.476 Y34.3383
G1 Z-0.16 F30
G1 X6.3739 Y34.3383 F60
G3 X6.2489 Y34.2133 I0 J-0.125
G1 X6.2489 Y30.6193
G1 X6.2489 Y30.1193
G1 X6.2489 Y25.8377
G3 X6.2713 Y25.4901 I2.7101 J0
G3 X6.3368 Y25.159 I2.5153 J0.3253
G3 X6.4456 Y24.8395 I2.4498 J0.6564
G3 X6.6001 Y24.5272 I2.5015 J1.0428
G3 X6.7932 Y24.2374 I2.347 J1.3551
G3 X7.0155 Y23.9834 I2.0156 J1.5394
G3 X7.2695 Y23.7611 I1.7934 J1.7934
G3 X7.5594 Y23.5679 I1.6449 J2.1538
G3 X7.8716 Y23.4135 I1.3551 J2.347
G3 X8.1911 Y23.3046 I0.9759 J2.3409
G3 X8.5222 Y23.2392 I0.6564 J2.4498
G3 X8.8698 Y23.2168 I0.3476 J2.6877
G1 X11.8318 Y23.2168
G1 X12.3318 Y23.2168
G1 X15.9801 Y23.2168
G3 X16.3277 Y23.2392 I0 J2.7101
G3 X16.6588 Y23.3046 I-0.3253 J2.5153
G3 X16.9783 Y23.4135 I-0.6564 J2.4498
G3 X17.2905 Y23.5679 I-1.0428 J2.5015
G3 X17.5804 Y23.7611 I-1.3551 J2.347
G3 X17.8344 Y23.9834 I-1.5394 J2.0156
G3 X18.0566 Y24.2374 I-1.7934 J1.7934
G3 X18.2498 Y24.5272 I-2.1538 J1.6449
G3 X18.4043 Y24.8395 I-2.347 J1.3551
G3 X18.5131 Y25.159 I-2.3409 J0.9759
G3 X18.5786 Y25.4901 I-2.4498 J0.6564
G3 X18.601 Y25.8377 I-2.6877 J0.3476
G1 X18.601 Y30.7707
G1 X18.601 Y31.2707
G1 X18.601 Y34.2133
G3 X18.476 Y34.3383 I-0.125 J0
G1 Z-0.32 F30
G1 X6.3739 Y34.3383 F60
G3 X6.2489 Y34.2133 I0 J-0.125
G1 X6.2489 Y30.6193
G1 X6.2489 Y30.1193
G1 X6.2489 Y25.8377
G3 X6.2713 Y25.4901 I2.7101 J0
G3 X6.3368 Y25.159 I2.5153 J0.3253
G3 X6.4456 Y24.8395 I2.4498 J0.6564
G3 X6.6001 Y24.5272 I2.5015 J1.0428
G3 X6.7932 Y24.2374 I2.347 J1.3551
G3 X7.0155 Y23.9834 I2.0156 J1.5394
G3 X7.2695 Y23.7611 I1.7934 J1.7934
G3 X7.5594 Y23.5679 I1.6449 J2.1538
G3 X7.8716 Y23.4135 I1.3551 J2.347
G3 X8.1911 Y23.3046 I0.9759 J2.3409
G3 X8.5222 Y23.2392 I0.6564 J2.4498
G3 X8.8698 Y23.2168 I0.3476 J2.6877
G1 X11.8318 Y23.2168
G1 X12.3318 Y23.2168
G1 X15.9801 Y23.2168
G3 X16.3277 Y23.2392 I0 J2.7101
G3 X16.6588 Y23.3046 I-0.3253 J2.5153
G3 X16.9783 Y23.4135 I-0.6564 J2.4498
G3 X17.2905 Y23.5679 I-1.0428 J2.5015
G3 X17.5804 Y23.7611 I-1.3551 J2.347
G3 X17.8344 Y23.9834 I-1.5394 J2.0156
G3 X18.0566 Y24.2374 I-1.7934 J1.7934
G3 X18.2498 Y24.5272 I-2.1538 J1.6449
G3 X18.4043 Y24.8395 I-2.347 J1.3551
G3 X18.5131 Y25.159 I-2.3409 J0.9759
G3 X18.5786 Y25.4901 I-2.4498 J0.6564
G3 X18.601 Y25.8377 I-2.6877 J0.3476
G1 X18.601 Y30.7707
G1 X18.601 Y31.2707
G1 X18.601 Y34.2133
G3 X18.476 Y34.3383 I-0.125 J0
G1 Z-0.48 F30
G1 X6.3739 Y34.3383 F60
G3 X6.2489 Y34.2133 I0 J-0.125
G1 X6.2489 Y30.6193
G1 X6.2489 Y30.1193
G1 X6.2489 Y25.8377
G3 X6.2713 Y25.4901 I2.7101 J0
G3 X6.3368 Y25.159 I2.5153 J0.3253
G3 X6.4456 Y24.8395 I2.4498 J0.6564
G3 X6.6001 Y24.5272 I2.5015 J1.0428
G3 X6.7932 Y24.2374 I2.347 J1.3551
G3 X7.0155 Y23.9834 I2.0156 J1.5394
G3 X7.2695 Y23.7611 I1.7934 J1.7934
G3 X7.5594 Y23.5679 I1.6449 J2.1538
G3 X7.8716 Y23.4135 I1.3551 J2.347
G3 X8.1911 Y23.3046 I0.9759 J2.3409
G3 X8.5222 Y23.2392 I0.6564 J2.4498
G3 X8.8698 Y23.2168 I0.3476 J2.6877
G1 X11.8318 Y23.2168
G1 X12.3318 Y23.2168
G1 X15.9801 Y23.2168
G3 X16.3277 Y23.2392 I0 J2.7101
G3 X16.6588 Y23.3046 I-0.3253 J2.5153
G3 X16.9783 Y23.4135 I-0.6564 J2.4498
G3 X17.2905 Y23.5679 I-1.0428 J2.5015
G3 X17.5804 Y23.7611 I-1.3551 J2.347
G3 X17.8344 Y23.9834 I-1.5394 J2.0156
G3 X18.0566 Y24.2374 I-1.7934 J1.7934
G3 X18.2498 Y24.5272 I-2.1538 J1.6449
G3 X18.4043 Y24.8395 I-2.347 J1.3551
G3 X18.5131 Y25.159 I-2.3409 J0.9759
G3 X18.5786 Y25.4901 I-2.4498 J0.6564
G3 X18.601 Y25.8377 I-2.6877 J0.3476
G1 X18.601 Y30.7707
G1 X18.601 Y31.2707
G1 X18.601 Y34.2133
G3 X18.476 Y34.3383 I-0.125 J0
G1 Z-0.64 F30
G1 X6.3739 Y34.3383 F60
G3 X6.2489 Y34.2133 I0 J-0.125
G1 X6.2489 Y30.6193
G1 Z-0.55 F30
G1 X6.2489 Y30.1193 F60
G1 Z-0.64 F30
G1 X6.2489 Y25.8377 F60
G3 X6.2713 Y25.4901 I2.7101 J0
G3 X6.3368 Y25.159 I2.5153 J0.3253
G3 X6.4456 Y24.8395 I2.4498 J0.6564
G3 X6.6001 Y24.5272 I2.5015 J1.0428
G3 X6.7932 Y24.2374 I2.347 J1.3551
G3 X7.0155 Y23.9834 I2.0156 J1.5394
G3 X7.2695 Y23.7611 I1.7934 J1.7934
G3 X7.5594 Y23.5679 I1.6449 J2.1538
G3 X7.8716 Y23.4135 I1.3551 J2.347
G3 X8.1911 Y23.3046 I0.9759 J2.3409
G3 X8.5222 Y23.2392 I0.6564 J2.4498
G3 X8.8698 Y23.2168 I0.3476 J2.6877
G1 X11.8318 Y23.2168
G1 Z-0.55 F30
G1 X12.3318 Y23.2168 F60
G1 Z-0.64 F30
G1 X15.9801 Y23.2168 F60
G3 X16.3277 Y23.2392 I0 J2.7101
G3 X16.6588 Y23.3046 I-0.3253 J2.5153
G3 X16.9783 Y23.4135 I-0.6564 J2.4498
G3 X17.2905 Y23.5679 I-1.0428 J2.5015
G3 X17.5804 Y23.7611 I-1.3551 J2.347
G3 X17.8344 Y23.9834 I-1.5394 J2.0156
G3 X18.0566 Y24.2374 I-1.7934 J1.7934
G3 X18.2498 Y24.5272 I-2.1538 J1.6449
G3 X18.4043 Y24.8395 I-2.347 J1.3551
G3 X18.5131 Y25.159 I-2.3409 J0.9759
G3 X18.5786 Y25.4901 I-2.4498 J0.6564
G3 X18.601 Y25.8377 I-2.6877 J0.3476
G1 X18.601 Y30.7707
G1 Z-0.55 F30
G1 X18.601 Y31.2707 F60
G1 Z-0.64 F30
G1 X18.601 Y34.2133 F60
G3 X18.476 Y34.3383 I-0.125 J0
G1 Z-0.8 F30
G1 X6.3739 Y34.3383 F60
G3 X6.2489 Y34.2133 I0 J-0.125
G1 X6.2489 Y30.6193
G1 Z-0.55 F30
G1 X6.2489 Y30.1193 F60
G1 Z-0.8 F30
G1 X6.2489 Y25.8377 F60
G3 X6.2713 Y25.4901 I2.7101 J0
G3 X6.3368 Y25.159 I2.5153 J0.3253
G3 X6.4456 Y24.8395 I2.4498 J0.6564
G3 X6.6001 Y24.5272 I2.5015 J1.0428
G3 X6.7932 Y24.2374 I2.347 J1.3551
G3 X7.0155 Y23.9834 I2.0156 J1.5394
G3 X7.2695 Y23.7611 I1.7934 J1.7934
G3 X7.5594 Y23.5679 I1.6449 J2.1538
G3 X7.8716 Y23.4135 I1.3551 J2.347
G3 X8.1911 Y23.3046 I0.9759 J2.3409
G3 X8.5222 Y23.2392 I0.6564 J2.4498
G3 X8.8698 Y23.2168 I0.3476 J2.6877
G1 X11.8318 Y23.2168
G1 Z-0.55 F30
G1 X12.3318 Y23.2168 F60
G1 Z-0.8 F30
G1 X15.9801 Y23.2168 F60
G3 X16.3277 Y23.2392 I0 J2.7101
G3 X16.6588 Y23.3046 I-0.3253 J2.5153
G3 X16.9783 Y23.4135 I-0.6564 J2.4498
G3 X17.2905 Y23.5679 I-1.0428 J2.5015
G3 X17.5804 Y23.7611 I-1.3551 J2.347
G3 X17.8344 Y23.9834 I-1.5394 J2.0156
G3 X18.0566 Y24.2374 I-1.7934 J1.7934
G3 X18.2498 Y24.5272 I-2.1538 J1.6449
G3 X18.4043 Y24.8395 I-2.347 J1.3551
G3 X18.5131 Y25.159 I-2.3409 J0.9759
G3 X18.5786 Y25.4901 I-2.4498 J0.6564
G3 X18.601 Y25.8377 I-2.6877 J0.3476
G1 X18.601 Y30.7707
G1 Z-0.55 F30
G1 X18.601 Y31.2707 F60
G1 Z-0.8 F30
G1 X18.601 Y34.2133 F60
G3 X18.476 Y34.3383 I-0.125 J0

(Outside Cut)
G0 Z0.1
G0 X0.4889 Y32.4733
G1 Z-0.16 F30
G1 X0.4889 Y7.4733 F60
G1 X0.4889 Y6.9733
G1 X0.4889 Y4.4733
G3 X0.5083 Y4.0495 I4.6391 J0
G3 X0.5644 Y3.6518 I4.125 J0.3785
G3 X0.6595 Y3.2613 I3.9092 J0.7457
G3 X0.7913 Y2.89 I3.6617 J1.0908
G3 X0.9607 Y2.5342 I3.5299 J1.4621
G3 X1.1695 Y2.1908 I3.5003 J1.8936
G3 X1.4111 Y1.87 I3.426 J2.3284
G3 X1.6971 Y1.5565 I3.5664 J2.9669
G3 X2.0105 Y1.2705 I3.2804 J3.2804
G3 X2.3313 Y1.029 I2.6492 J3.1844
G3 X2.6747 Y0.8201 I2.237 J3.2915
G3 X3.0306 Y0.6508 I1.8179 J3.3605
G3 X3.4019 Y0.5189 I1.4621 J3.5299
G3 X3.7924 Y0.4238 I1.1361 J3.814
G3 X4.1901 Y0.3678 I0.7761 J4.0689
G3 X4.6139 Y0.3483 I0.4238 J4.6197
G1 X18.2121 Y0.3483
G1 X18.7121 Y0.3483
G1 X20.236 Y0.3483
G3 X20.6598 Y0.3678 I0 J4.6391
G3 X21.0575 Y0.4238 I-0.3785 J4.125
G3 X21.448 Y0.5189 I-0.7457 J3.9092
G3 X21.8193 Y0.6508 I-1.0908 J3.6617
G3 X22.1751 Y0.8201 I-1.4621 J3.5299
G3 X22.5185 Y1.029 I-1.8936 J3.5003
G3 X22.8394 Y1.2705 I-2.3284 J3.426
G3 X23.1528 Y1.5565 I-2.9669 J3.5664
G3 X23.4388 Y1.87 I-3.2804 J3.2804
G3 X23.6803 Y2.1908 I-3.1844 J2.6492
G3 X23.8892 Y2.5342 I-3.2915 J2.237
G3 X24.0586 Y2.89 I-3.3605 J1.8179
G3 X24.1904 Y3.2613 I-3.5299 J1.4621
G3 X24.2855 Y3.6518 I-3.814 J1.1361
G3 X24.3416 Y4.0495 I-4.0689 J0.7761
G3 X24.361 Y4.4733 I-4.6197 J0.4238
G1 X24.361 Y28.5623
G1 X24.361 Y29.0623
G1 X24.361 Y32.4733
G3 X24.3416 Y32.8972 I-4.6391 J0
G3 X24.2855 Y33.2949 I-4.125 J-0.3785
G3 X24.1904 Y33.6854 I-3.9092 J-0.7457
G3 X24.0586 Y34.0567 I-3.6617 J-1.0908
G3 X23.8892 Y34.4125 I-3.5299 J-1.4621
G3 X23.6803 Y34.7559 I-3.5003 J-1.8936
G3 X23.4388 Y35.0767 I-3.426 J-2.3284
G3 X23.1528 Y35.3902 I-3.5664 J-2.9669
G3 X22.8394 Y35.6762 I-3.2804 J-3.2804
G3 X22.5185 Y35.9177 I-2.6492 J-3.1844
G3 X22.1751 Y36.1266 I-2.237 J-3.2915
G3 X21.8193 Y36.2959 I-1.8179 J-3.3605
G3 X21.448 Y36.4278 I-1.4621 J-3.5299
G3 X21.0575 Y36.5229 I-1.1361 J-3.814
G3 X20.6598 Y36.5789 I-0.7761 J-4.0689
G3 X20.236 Y36.5983 I-0.4238 J-4.6197
G1 X6.5246 Y36.5983
G1 X6.0246 Y36.5983
G1 X4.6139 Y36.5983
G3 X4.1901 Y36.5789 I0 J-4.6391
G3 X3.7924 Y36.5229 I0.3785 J-4.125
G3 X3.4019 Y36.4278 I0.7457 J-3.9092
G3 X3.0306 Y36.2959 I1.0908 J-3.6617
G3 X2.6747 Y36.1266 I1.4621 J-3.5299
G3 X2.3313 Y35.9177 I1.8936 J-3.5003
G3 X2.0105 Y35.6762 I2.3284 J-3.426
G3 X1.6971 Y35.3902 I2.9669 J-3.5664
G3 X1.4111 Y35.0767 I3.2804 J-3.2804
G3 X1.1695 Y34.7559 I3.1844 J-2.6492
G3 X0.9607 Y34.4125 I3.2915 J-2.237
G3 X0.7913 Y34.0567 I3.3605 J-1.8179
G3 X0.6595 Y33.6854 I3.5299 J-1.4621
G3 X0.5644 Y33.2949 I3.814 J-1.1361
G3 X0.5083 Y32.8972 I4.0689 J-0.7761
G3 X0.4889 Y32.4733 I4.6197 J-0.4238
G1 Z-0.32 F30
G1 X0.4889 Y7.4733 F60
G1 X0.4889 Y6.9733
G1 X0.4889 Y4.4733
G3 X0.5083 Y4.0495 I4.6391 J0
G3 X0.5644 Y3.6518 I4.125 J0.3785
G3 X0.6595 Y3.2613 I3.9092 J0.7457
G3 X0.7913 Y2.89 I3.6617 J1.0908
G3 X0.9607 Y2.5342 I3.5299 J1.4621
G3 X1.1695 Y2.1908 I3.5003 J1.8936
G3 X1.4111 Y1.87 I3.426 J2.3284
G3 X1.6971 Y1.5565 I3.5664 J2.9669
G3 X2.0105 Y1.2705 I3.2804 J3.2804
G3 X2.3313 Y1.029 I2.6492 J3.1844
G3 X2.6747 Y0.8201 I2.237 J3.2915
G3 X3.0306 Y0.6508 I1.8179 J3.3605
G3 X3.4019 Y0.5189 I1.4621 J3.5299
G3 X3.7924 Y0.4238 I1.1361 J3.814
G3 X4.1901 Y0.3678 I0.7761 J4.0689
G3 X4.6139 Y0.3483 I0.4238 J4.6197
G1 X18.2121 Y0.3483
G1 X18.7121 Y0.3483
G1 X20.236 Y0.3483
G3 X20.6598 Y0.3678 I0 J4.6391
G3 X21.0575 Y0.4238 I-0.3785 J4.125
G3 X21.448 Y0.5189 I-0.7457 J3.9092
G3 X21.8193 Y0.6508 I-1.0908 J3.6617
G3 X22.1751 Y0.8201 I-1.4621 J3.5299
G3 X22.5185 Y1.029 I-1.8936 J3.5003
G3 X22.8394 Y1.2705 I-2.3284 J3.426
G3 X23.1528 Y1.5565 I-2.9669 J3.5664
G3 X23.4388 Y1.87 I-3.2804 J3.2804
G3 X23.6803 Y2.1908 I-3.1844 J2.6492
G3 X23.8892 Y2.5342 I-3.2915 J2.237
G3 X24.0586 Y2.89 I-3.3605 J1.8179
G3 X24.1904 Y3.2613 I-3.5299 J1.4621
G3 X24.2855 Y3.6518 I-3.814 J1.1361
G3 X24.3416 Y4.0495 I-4.0689 J0.7761
G3 X24.361 Y4.4733 I-4.6197 J0.4238
G1 X24.361 Y28.5623
G1 X24.361 Y29.0623
G1 X24.361 Y32.4733
G3 X24.3416 Y32.8972 I-4.6391 J0
G3 X24.2855 Y33.2949 I-4.125 J-0.3785
G3 X24.1904 Y33.6854 I-3.9092 J-0.7457
G3 X24.0586 Y34.0567 I-3.6617 J-1.0908
G3 X23.8892 Y34.4125 I-3.5299 J-1.4621
G3 X23.6803 Y34.7559 I-3.5003 J-1.8936
G3 X23.4388 Y35.0767 I-3.426 J-2.3284
G3 X23.1528 Y35.3902 I-3.5664 J-2.9669
G3 X22.8394 Y35.6762 I-3.2804 J-3.2804
G3 X22.5185 Y35.9177 I-2.6492 J-3.1844
G3 X22.1751 Y36.1266 I-2.237 J-3.2915
G3 X21.8193 Y36.2959 I-1.8179 J-3.3605
G3 X21.448 Y36.4278 I-1.4621 J-3.5299
G3 X21.0575 Y36.5229 I-1.1361 J-3.814
G3 X20.6598 Y36.5789 I-0.7761 J-4.0689
G3 X20.236 Y36.5983 I-0.4238 J-4.6197
G1 X6.5246 Y36.5983
G1 X6.0246 Y36.5983
G1 X4.6139 Y36.5983
G3 X4.1901 Y36.5789 I0 J-4.6391
G3 X3.7924 Y36.5229 I0.3785 J-4.125
G3 X3.4019 Y36.4278 I0.7457 J-3.9092
G3 X3.0306 Y36.2959 I1.0908 J-3.6617
G3 X2.6747 Y36.1266 I1.4621 J-3.5299
G3 X2.3313 Y35.9177 I1.8936 J-3.5003
G3 X2.0105 Y35.6762 I2.3284 J-3.426
G3 X1.6971 Y35.3902 I2.9669 J-3.5664
G3 X1.4111 Y35.0767 I3.2804 J-3.2804
G3 X1.1695 Y34.7559 I3.1844 J-2.6492
G3 X0.9607 Y34.4125 I3.2915 J-2.237
G3 X0.7913 Y34.0567 I3.3605 J-1.8179
G3 X0.6595 Y33.6854 I3.5299 J-1.4621
G3 X0.5644 Y33.2949 I3.814 J-1.1361
G3 X0.5083 Y32.8972 I4.0689 J-0.7761
G3 X0.4889 Y32.4733 I4.6197 J-0.4238
G1 Z-0.48 F30
G1 X0.4889 Y7.4733 F60
G1 X0.4889 Y6.9733
G1 X0.4889 Y4.4733
G3 X0.5083 Y4.0495 I4.6391 J0
G3 X0.5644 Y3.6518 I4.125 J0.3785
G3 X0.6595 Y3.2613 I3.9092 J0.7457
G3 X0.7913 Y2.89 I3.6617 J1.0908
G3 X0.9607 Y2.5342 I3.5299 J1.4621
G3 X1.1695 Y2.1908 I3.5003 J1.8936
G3 X1.4111 Y1.87 I3.426 J2.3284
G3 X1.6971 Y1.5565 I3.5664 J2.9669
G3 X2.0105 Y1.2705 I3.2804 J3.2804
G3 X2.3313 Y1.029 I2.6492 J3.1844
G3 X2.6747 Y0.8201 I2.237 J3.2915
G3 X3.0306 Y0.6508 I1.8179 J3.3605
G3 X3.4019 Y0.5189 I1.4621 J3.5299
G3 X3.7924 Y0.4238 I1.1361 J3.814
G3 X4.1901 Y0.3678 I0.7761 J4.0689
G3 X4.6139 Y0.3483 I0.4238 J4.6197
G1 X18.2121 Y0.3483
G1 X18.7121 Y0.3483
G1 X20.236 Y0.3483
G3 X20.6598 Y0.3678 I0 J4.6391
G3 X21.0575 Y0.4238 I-0.3785 J4.125
G3 X21.448 Y0.5189 I-0.7457 J3.9092
G3 X21.8193 Y0.6508 I-1.0908 J3.6617
G3 X22.1751 Y0.8201 I-1.4621 J3.5299
G3 X22.5185 Y1.029 I-1.8936 J3.5003
G3 X22.8394 Y1.2705 I-2.3284 J3.426
G3 X23.1528 Y1.5565 I-2.9669 J3.5664
G3 X23.4388 Y1.87 I-3.2804 J3.2804
G3 X23.6803 Y2.1908 I-3.1844 J2.6492
G3 X23.8892 Y2.5342 I-3.2915 J2.237
G3 X24.0586 Y2.89 I-3.3605 J1.8179
G3 X24.1904 Y3.2613 I-3.5299 J1.4621
G3 X24.2855 Y3.6518 I-3.814 J1.1361
G3 X24.3416 Y4.0495 I-4.0689 J0.7761
G3 X24.361 Y4.4733 I-4.6197 J0.4238
G1 X24.361 Y28.5623
G1 X24.361 Y29.0623
G1 X24.361 Y32.4733
G3 X24.3416 Y32.8972 I-4.6391 J0
G3 X24.2855 Y33.2949 I-4.125 J-0.3785
G3 X24.1904 Y33.6854 I-3.9092 J-0.7457
G3 X24.0586 Y34.0567 I-3.6617 J-1.0908
G3 X23.8892 Y34.4125 I-3.5299 J-1.4621
G3 X23.6803 Y34.7559 I-3.5003 J-1.8936
G3 X23.4388 Y35.0767 I-3.426 J-2.3284
G3 X23.1528 Y35.3902 I-3.5664 J-2.9669
G3 X22.8394 Y35.6762 I-3.2804 J-3.2804
G3 X22.5185 Y35.9177 I-2.6492 J-3.1844
G3 X22.1751 Y36.1266 I-2.237 J-3.2915
G3 X21.8193 Y36.2959 I-1.8179 J-3.3605
G3 X21.448 Y36.4278 I-1.4621 J-3.5299
G3 X21.0575 Y36.5229 I-1.1361 J-3.814
G3 X20.6598 Y36.5789 I-0.7761 J-4.0689
G3 X20.236 Y36.5983 I-0.4238 J-4.6197
G1 X6.5246 Y36.5983
G1 X6.0246 Y36.5983
G1 X4.6139 Y36.5983
G3 X4.1901 Y36.5789 I0 J-4.6391
G3 X3.7924 Y36.5229 I0.3785 J-4.125
G3 X3.4019 Y36.4278 I0.7457 J-3.9092
G3 X3.0306 Y36.2959 I1.0908 J-3.6617
G3 X2.6747 Y36.1266 I1.4621 J-3.5299
G3 X2.3313 Y35.9177 I1.8936 J-3.5003
G3 X2.0105 Y35.6762 I2.3284 J-3.426
G3 X1.6971 Y35.3902 I2.9669 J-3.5664
G3 X1.4111 Y35.0767 I3.2804 J-3.2804
G3 X1.1695 Y34.7559 I3.1844 J-2.6492
G3 X0.9607 Y34.4125 I3.2915 J-2.237
G3 X0.7913 Y34.0567 I3.3605 J-1.8179
G3 X0.6595 Y33.6854 I3.5299 J-1.4621
G3 X0.5644 Y33.2949 I3.814 J-1.1361
G3 X0.5083 Y32.8972 I4.0689 J-0.7761
G3 X0.4889 Y32.4733 I4.6197 J-0.4238
G1 Z-0.64 F30
G1 X0.4889 Y7.4733 F60
G1 Z-0.55 F30
G1 X0.4889 Y6.9733 F60
G1 Z-0.64 F30
G1 X0.4889 Y4.4733 F60
G3 X0.5083 Y4.0495 I4.6391 J0
G3 X0.5644 Y3.6518 I4.125 J0.3785
G3 X0.6595 Y3.2613 I3.9092 J0.7457
G3 X0.7913 Y2.89 I3.6617 J1.0908
G3 X0.9607 Y2.5342 I3.5299 J1.4621
G3 X1.1695 Y2.1908 I3.5003 J1.8936
G3 X1.4111 Y1.87 I3.426 J2.3284
G3 X1.6971 Y1.5565 I3.5664 J2.9669
G3 X2.0105 Y1.2705 I3.2804 J3.2804
G3 X2.3313 Y1.029 I2.6492 J3.1844
G3 X2.6747 Y0.8201 I2.237 J3.2915
G3 X3.0306 Y0.6508 I1.8179 J3.3605
G3 X3.4019 Y0.5189 I1.4621 J3.5299
G3 X3.7924 Y0.4238 I1.1361 J3.814
G3 X4.1901 Y0.3678 I0.7761 J4.0689
G3 X4.6139 Y0.3483 I0.4238 J4.6197
G1 X18.2121 Y0.3483
G1 Z-0.55 F30
G1 X18.7121 Y0.3483 F60
G1 Z-0.64 F30
G1 X20.236 Y0.3483 F60
G3 X20.6598 Y0.3678 I0 J4.6391
G3 X21.0575 Y0.4238 I-0.3785 J4.125
G3 X21.448 Y0.5189 I-0.7457 J3.9092
G3 X21.8193 Y0.6508 I-1.0908 J3.6617
G3 X22.1751 Y0.8201 I-1.4621 J3.5299
G3 X22.5185 Y1.029 I-1.8936 J3.5003
G3 X22.8394 Y1.2705 I-2.3284 J3.426
G3 X23.1528 Y1.5565 I-2.9669 J3.5664
G3 X23.4388 Y1.87 I-3.2804 J3.2804
G3 X23.6803 Y2.1908 I-3.1844 J2.6492
G3 X23.8892 Y2.5342 I-3.2915 J2.237
G3 X24.0586 Y2.89 I-3.3605 J1.8179
G3 X24.1904 Y3.2613 I-3.5299 J1.4621
G3 X24.2855 Y3.6518 I-3.814 J1.1361
G3 X24.3416 Y4.0495 I-4.0689 J0.7761
G3 X24.361 Y4.4733 I-4.6197 J0.4238
G1 X24.361 Y28.5623
G1 Z-0.55 F30
G1 X24.361 Y29.0623 F60
G1 Z-0.64 F30
G1 X24.361 Y32.4733 F60
G3 X24.3416 Y32.8972 I-4.6391 J0
G3 X24.2855 Y33.2949 I-4.125 J-0.3785
G3 X24.1904 Y33.6854 I-3.9092 J-0.7457
G3 X24.0586 Y34.0567 I-3.6617 J-1.0908
G3 X23.8892 Y34.4125 I-3.5299 J-1.4621
G3 X23.6803 Y34.7559 I-3.5003 J-1.8936
G3 X23.4388 Y35.0767 I-3.426 J-2.3284
G3 X23.1528 Y35.3902 I-3.5664 J-2.9669
G3 X22.8394 Y35.6762 I-3.2804 J-3.2804
G3 X22.5185 Y35.9177 I-2.6492 J-3.1844
G3 X22.1751 Y36.1266 I-2.237 J-3.2915
G3 X21.8193 Y36.2959 I-1.8179 J-3.3605
G3 X21.448 Y36.4278 I-1.4621 J-3.5299
G3 X21.0575 Y36.5229 I-1.1361 J-3.814
G3 X20.6598 Y36.5789 I-0.7761 J-4.0689
G3 X20.236 Y36.5983 I-0.4238 J-4.6197
G1 X6.5246 Y36.5983
G1 Z-0.55 F30
G1 X6.0246 Y36.5983 F60
G1 Z-0.64 F30
G1 X4.6139 Y36.5983 F60
G3 X4.1901 Y36.5789 I0 J-4.6391
G3 X3.7924 Y36.5229 I0.3785 J-4.125
G3 X3.4019 Y36.4278 I0.7457 J-3.9092
G3 X3.0306 Y36.2959 I1.0908 J-3.6617
G3 X2.6747 Y36.1266 I1.4621 J-3.5299
G3 X2.3313 Y35.9177 I1.8936 J-3.5003
G3 X2.0105 Y35.6762 I2.3284 J-3.426
G3 X1.6971 Y35.3902 I2.9669 J-3.5664
G3 X1.4111 Y35.0767 I3.2804 J-3.2804
G3 X1.1695 Y34.7559 I3.1844 J-2.6492
G3 X0.9607 Y34.4125 I3.2915 J-2.237
G3 X0.7913 Y34.0567 I3.3605 J-1.8179
G3 X0.6595 Y33.6854 I3.5299 J-1.4621
G3 X0.5644 Y33.2949 I3.814 J-1.1361
G3 X0.5083 Y32.8972 I4.0689 J-0.7761
G3 X0.4889 Y32.4733 I4.6197 J-0.4238
G1 Z-0.8 F30
G1 X0.4889 Y7.4733 F60
G1 Z-0.55 F30
G1 X0.4889 Y6.9733 F60
G1 Z-0.8 F30
G1 X0.4889 Y4.4733 F60
G3 X0.5083 Y4.0495 I4.6391 J0
G3 X0.5644 Y3.6518 I4.125 J0.3785
G3 X0.6595 Y3.2613 I3.9092 J0.7457
G3 X0.7913 Y2.89 I3.6617 J1.0908
G3 X0.9607 Y2.5342 I3.5299 J1.4621
G3 X1.1695 Y2.1908 I3.5003 J1.8936
G3 X1.4111 Y1.87 I3.426 J2.3284
G3 X1.6971 Y1.5565 I3.5664 J2.9669
G3 X2.0105 Y1.2705 I3.2804 J3.2804
G3 X2.3313 Y1.029 I2.6492 J3.1844
G3 X2.6747 Y0.8201 I2.237 J3.2915
G3 X3.0306 Y0.6508 I1.8179 J3.3605
G3 X3.4019 Y0.5189 I1.4621 J3.5299
G3 X3.7924 Y0.4238 I1.1361 J3.814
G3 X4.1901 Y0.3678 I0.7761 J4.0689
G3 X4.6139 Y0.3483 I0.4238 J4.6197
G1 X18.2121 Y0.3483
G1 Z-0.55 F30
G1 X18.7121 Y0.3483 F60
G1 Z-0.8 F30
G1 X20.236 Y0.3483 F60
G3 X20.6598 Y0.3678 I0 J4.6391
G3 X21.0575 Y0.4238 I-0.3785 J4.125
G3 X21.448 Y0.5189 I-0.7457 J3.9092
G3 X21.8193 Y0.6508 I-1.0908 J3.6617
G3 X22.1751 Y0.8201 I-1.4621 J3.5299
G3 X22.5185 Y1.029 I-1.8936 J3.5003
G3 X22.8394 Y1.2705 I-2.3284 J3.426
G3 X23.1528 Y1.5565 I-2.9669 J3.5664
G3 X23.4388 Y1.87 I-3.2804 J3.2804
G3 X23.6803 Y2.1908 I-3.1844 J2.6492
G3 X23.8892 Y2.5342 I-3.2915 J2.237
G3 X24.0586 Y2.89 I-3.3605 J1.8179
G3 X24.1904 Y3.2613 I-3.5299 J1.4621
G3 X24.2855 Y3.6518 I-3.814 J1.1361
G3 X24.3416 Y4.0495 I-4.0689 J0.7761
G3 X24.361 Y4.4733 I-4.6197 J0.4238
G1 X24.361 Y28.5623
G1 Z-0.55 F30
G1 X24.361 Y29.0623 F60
G1 Z-0.8 F30
G1 X24.361 Y32.4733 F60
G3 X24.3416 Y32.8972 I-4.6391 J0
G3 X24.2855 Y33.2949 I-4.125 J-0.3785
G3 X24.1904 Y33.6854 I-3.9092 J-0.7457
G3 X24.0586 Y34.0567 I-3.6617 J-1.0908
G3 X23.8892 Y34.4125 I-3.5299 J-1.4621
G3 X23.6803 Y34.7559 I-3.5003 J-1.8936
G3 X23.4388 Y35.0767 I-3.426 J-2.3284
G3 X23.1528 Y35.3902 I-3.5664 J-2.9669
G3 X22.8394 Y35.6762 I-3.2804 J-3.2804
G3 X22.5185 Y35.9177 I-2.6492 J-3.1844
G3 X22.1751 Y36.1266 I-2.237 J-3.2915
G3 X21.8193 Y36.2959 I-1.8179 J-3.3605
G3 X21.448 Y36.4278 I-1.4621 J-3.5299
G3 X21.0575 Y36.5229 I-1.1361 J-3.814
G3 X20.6598 Y36.5789 I-0.7761 J-4.0689
G3 X20.236 Y36.5983 I-0.4238 J-4.6197
G1 X6.5246 Y36.5983
G1 Z-0.55 F30
G1 X6.0246 Y36.5983 F60
G1 Z-0.8 F30
G1 X4.6139 Y36.5983 F60
G3 X4.1901 Y36.5789 I0 J-4.6391
G3 X3.7924 Y36.5229 I0.3785 J-4.125
G3 X3.4019 Y36.4278 I0.7457 J-3.9092
G3 X3.0306 Y36.2959 I1.0908 J-3.6617
G3 X2.6747 Y36.1266 I1.4621 J-3.5299
G3 X2.3313 Y35.9177 I1.8936 J-3.5003
G3 X2.0105 Y35.6762 I2.3284 J-3.426
G3 X1.6971 Y35.3902 I2.9669 J-3.5664
G3 X1.4111 Y35.0767 I3.2804 J-3.2804
G3 X1.1695 Y34.7559 I3.1844 J-2.6492
G3 X0.9607 Y34.4125 I3.2915 J-2.237
G3 X0.7913 Y34.0567 I3.3605 J-1.8179
G3 X0.6595 Y33.6854 I3.5299 J-1.4621
G3 X0.5644 Y33.2949 I3.814 J-1.1361
G3 X0.5083 Y32.8972 I4.0689 J-0.7761
G3 X0.4889 Y32.4733 I4.6197 J-0.4238
G0 Z0.1
M5
M30
