(Generated by PartKam Version 0.05)

G20 G90 G40

(Cut Holes)
G0 Z0.15
T0 M6
G17
M3
G0 X17.5689 Y13.0997
G1 Z-0.1 F30
G3 X17.5616 Y13.1763 I-0.4089 J0 F25
G3 X17.5423 Y13.2407 I-0.3242 J-0.0618
G3 X17.5104 Y13.3 I-0.3049 J-0.1263
G3 X17.4613 Y13.3593 I-0.3382 J-0.2299
G3 X17.402 Y13.4083 I-0.2892 J-0.2892
G3 X17.3428 Y13.4403 I-0.1855 J-0.273
G3 X17.2784 Y13.4595 I-0.1263 J-0.3049
G3 X17.2017 Y13.4668 I-0.0766 J-0.4017
G3 X17.1251 Y13.4595 I0 J-0.4089
G3 X17.0607 Y13.4403 I0.0618 J-0.3242
G3 X17.0014 Y13.4083 I0.1263 J-0.3049
G3 X16.9421 Y13.3593 I0.2299 J-0.3382
G3 X16.8931 Y13.3 I0.2892 J-0.2892
G3 X16.8611 Y13.2407 I0.273 J-0.1855
G3 X16.8419 Y13.1763 I0.3049 J-0.1263
G3 X16.8346 Y13.0997 I0.4017 J-0.0766
G3 X16.8419 Y13.023 I0.4089 J0
G3 X16.8611 Y12.9586 I0.3242 J0.0618
G3 X16.8931 Y12.8994 I0.3049 J0.1263
G3 X16.9421 Y12.8401 I0.3382 J0.2299
G3 X17.0014 Y12.791 I0.2892 J0.2892
G3 X17.0607 Y12.7591 I0.1855 J0.273
G3 X17.1251 Y12.7398 I0.1263 J0.3049
G3 X17.2017 Y12.7325 I0.0766 J0.4017
G3 X17.2784 Y12.7398 I0 J0.4089
G3 X17.3428 Y12.7591 I-0.0618 J0.3242
G3 X17.402 Y12.791 I-0.1263 J0.3049
G3 X17.4613 Y12.8401 I-0.2299 J0.3382
G3 X17.5104 Y12.8994 I-0.2892 J0.2892
G3 X17.5423 Y12.9586 I-0.273 J0.1855
G3 X17.5616 Y13.023 I-0.3049 J0.1263
G3 X17.5689 Y13.0997 I-0.4017 J0.0766
G1 Z-0.2 F30
G3 X17.5616 Y13.1763 I-0.4089 J0 F25
G3 X17.5423 Y13.2407 I-0.3242 J-0.0618
G3 X17.5104 Y13.3 I-0.3049 J-0.1263
G3 X17.4613 Y13.3593 I-0.3382 J-0.2299
G3 X17.402 Y13.4083 I-0.2892 J-0.2892
G3 X17.3428 Y13.4403 I-0.1855 J-0.273
G3 X17.2784 Y13.4595 I-0.1263 J-0.3049
G3 X17.2017 Y13.4668 I-0.0766 J-0.4017
G3 X17.1251 Y13.4595 I0 J-0.4089
G3 X17.0607 Y13.4403 I0.0618 J-0.3242
G3 X17.0014 Y13.4083 I0.1263 J-0.3049
G3 X16.9421 Y13.3593 I0.2299 J-0.3382
G3 X16.8931 Y13.3 I0.2892 J-0.2892
G3 X16.8611 Y13.2407 I0.273 J-0.1855
G3 X16.8419 Y13.1763 I0.3049 J-0.1263
G3 X16.8346 Y13.0997 I0.4017 J-0.0766
G3 X16.8419 Y13.023 I0.4089 J0
G3 X16.8611 Y12.9586 I0.3242 J0.0618
G3 X16.8931 Y12.8994 I0.3049 J0.1263
G3 X16.9421 Y12.8401 I0.3382 J0.2299
G3 X17.0014 Y12.791 I0.2892 J0.2892
G3 X17.0607 Y12.7591 I0.1855 J0.273
G3 X17.1251 Y12.7398 I0.1263 J0.3049
G3 X17.2017 Y12.7325 I0.0766 J0.4017
G3 X17.2784 Y12.7398 I0 J0.4089
G3 X17.3428 Y12.7591 I-0.0618 J0.3242
G3 X17.402 Y12.791 I-0.1263 J0.3049
G3 X17.4613 Y12.8401 I-0.2299 J0.3382
G3 X17.5104 Y12.8994 I-0.2892 J0.2892
G3 X17.5423 Y12.9586 I-0.273 J0.1855
G3 X17.5616 Y13.023 I-0.3049 J0.1263
G3 X17.5689 Y13.0997 I-0.4017 J0.0766
G1 Z-0.3 F30
G3 X17.5616 Y13.1763 I-0.4089 J0 F25
G3 X17.5423 Y13.2407 I-0.3242 J-0.0618
G3 X17.5104 Y13.3 I-0.3049 J-0.1263
G3 X17.4613 Y13.3593 I-0.3382 J-0.2299
G3 X17.402 Y13.4083 I-0.2892 J-0.2892
G3 X17.3428 Y13.4403 I-0.1855 J-0.273
G3 X17.2784 Y13.4595 I-0.1263 J-0.3049
G3 X17.2017 Y13.4668 I-0.0766 J-0.4017
G3 X17.1251 Y13.4595 I0 J-0.4089
G3 X17.0607 Y13.4403 I0.0618 J-0.3242
G3 X17.0014 Y13.4083 I0.1263 J-0.3049
G3 X16.9421 Y13.3593 I0.2299 J-0.3382
G3 X16.8931 Y13.3 I0.2892 J-0.2892
G3 X16.8611 Y13.2407 I0.273 J-0.1855
G3 X16.8419 Y13.1763 I0.3049 J-0.1263
G3 X16.8346 Y13.0997 I0.4017 J-0.0766
G3 X16.8419 Y13.023 I0.4089 J0
G3 X16.8611 Y12.9586 I0.3242 J0.0618
G3 X16.8931 Y12.8994 I0.3049 J0.1263
G3 X16.9421 Y12.8401 I0.3382 J0.2299
G3 X17.0014 Y12.791 I0.2892 J0.2892
G3 X17.0607 Y12.7591 I0.1855 J0.273
G3 X17.1251 Y12.7398 I0.1263 J0.3049
G3 X17.2017 Y12.7325 I0.0766 J0.4017
G3 X17.2784 Y12.7398 I0 J0.4089
G3 X17.3428 Y12.7591 I-0.0618 J0.3242
G3 X17.402 Y12.791 I-0.1263 J0.3049
G3 X17.4613 Y12.8401 I-0.2299 J0.3382
G3 X17.5104 Y12.8994 I-0.2892 J0.2892
G3 X17.5423 Y12.9586 I-0.273 J0.1855
G3 X17.5616 Y13.023 I-0.3049 J0.1263
G3 X17.5689 Y13.0997 I-0.4017 J0.0766
G1 Z-0.4 F30
G3 X17.5616 Y13.1763 I-0.4089 J0 F25
G3 X17.5423 Y13.2407 I-0.3242 J-0.0618
G3 X17.5104 Y13.3 I-0.3049 J-0.1263
G3 X17.4613 Y13.3593 I-0.3382 J-0.2299
G3 X17.402 Y13.4083 I-0.2892 J-0.2892
G3 X17.3428 Y13.4403 I-0.1855 J-0.273
G3 X17.2784 Y13.4595 I-0.1263 J-0.3049
G3 X17.2017 Y13.4668 I-0.0766 J-0.4017
G3 X17.1251 Y13.4595 I0 J-0.4089
G3 X17.0607 Y13.4403 I0.0618 J-0.3242
G3 X17.0014 Y13.4083 I0.1263 J-0.3049
G3 X16.9421 Y13.3593 I0.2299 J-0.3382
G3 X16.8931 Y13.3 I0.2892 J-0.2892
G3 X16.8611 Y13.2407 I0.273 J-0.1855
G3 X16.8419 Y13.1763 I0.3049 J-0.1263
G3 X16.8346 Y13.0997 I0.4017 J-0.0766
G3 X16.8419 Y13.023 I0.4089 J0
G3 X16.8611 Y12.9586 I0.3242 J0.0618
G3 X16.8931 Y12.8994 I0.3049 J0.1263
G3 X16.9421 Y12.8401 I0.3382 J0.2299
G3 X17.0014 Y12.791 I0.2892 J0.2892
G3 X17.0607 Y12.7591 I0.1855 J0.273
G3 X17.1251 Y12.7398 I0.1263 J0.3049
G3 X17.2017 Y12.7325 I0.0766 J0.4017
G3 X17.2784 Y12.7398 I0 J0.4089
G3 X17.3428 Y12.7591 I-0.0618 J0.3242
G3 X17.402 Y12.791 I-0.1263 J0.3049
G3 X17.4613 Y12.8401 I-0.2299 J0.3382
G3 X17.5104 Y12.8994 I-0.2892 J0.2892
G3 X17.5423 Y12.9586 I-0.273 J0.1855
G3 X17.5616 Y13.023 I-0.3049 J0.1263
G3 X17.5689 Y13.0997 I-0.4017 J0.0766
G1 Z-0.5 F30
G3 X17.5616 Y13.1763 I-0.4089 J0 F25
G3 X17.5423 Y13.2407 I-0.3242 J-0.0618
G3 X17.5104 Y13.3 I-0.3049 J-0.1263
G3 X17.4613 Y13.3593 I-0.3382 J-0.2299
G3 X17.402 Y13.4083 I-0.2892 J-0.2892
G3 X17.3428 Y13.4403 I-0.1855 J-0.273
G3 X17.2784 Y13.4595 I-0.1263 J-0.3049
G3 X17.2017 Y13.4668 I-0.0766 J-0.4017
G3 X17.1251 Y13.4595 I0 J-0.4089
G3 X17.0607 Y13.4403 I0.0618 J-0.3242
G3 X17.0014 Y13.4083 I0.1263 J-0.3049
G3 X16.9421 Y13.3593 I0.2299 J-0.3382
G3 X16.8931 Y13.3 I0.2892 J-0.2892
G3 X16.8611 Y13.2407 I0.273 J-0.1855
G3 X16.8419 Y13.1763 I0.3049 J-0.1263
G3 X16.8346 Y13.0997 I0.4017 J-0.0766
G3 X16.8419 Y13.023 I0.4089 J0
G3 X16.8611 Y12.9586 I0.3242 J0.0618
G3 X16.8931 Y12.8994 I0.3049 J0.1263
G3 X16.9421 Y12.8401 I0.3382 J0.2299
G3 X17.0014 Y12.791 I0.2892 J0.2892
G3 X17.0607 Y12.7591 I0.1855 J0.273
G3 X17.1251 Y12.7398 I0.1263 J0.3049
G3 X17.2017 Y12.7325 I0.0766 J0.4017
G3 X17.2784 Y12.7398 I0 J0.4089
G3 X17.3428 Y12.7591 I-0.0618 J0.3242
G3 X17.402 Y12.791 I-0.1263 J0.3049
G3 X17.4613 Y12.8401 I-0.2299 J0.3382
G3 X17.5104 Y12.8994 I-0.2892 J0.2892
G3 X17.5423 Y12.9586 I-0.273 J0.1855
G3 X17.5616 Y13.023 I-0.3049 J0.1263
G3 X17.5689 Y13.0997 I-0.4017 J0.0766
G1 Z-0.6 F30
G3 X17.5616 Y13.1763 I-0.4089 J0 F25
G3 X17.5423 Y13.2407 I-0.3242 J-0.0618
G3 X17.5104 Y13.3 I-0.3049 J-0.1263
G3 X17.4613 Y13.3593 I-0.3382 J-0.2299
G3 X17.402 Y13.4083 I-0.2892 J-0.2892
G3 X17.3428 Y13.4403 I-0.1855 J-0.273
G3 X17.2784 Y13.4595 I-0.1263 J-0.3049
G3 X17.2017 Y13.4668 I-0.0766 J-0.4017
G3 X17.1251 Y13.4595 I0 J-0.4089
G3 X17.0607 Y13.4403 I0.0618 J-0.3242
G3 X17.0014 Y13.4083 I0.1263 J-0.3049
G3 X16.9421 Y13.3593 I0.2299 J-0.3382
G3 X16.8931 Y13.3 I0.2892 J-0.2892
G3 X16.8611 Y13.2407 I0.273 J-0.1855
G3 X16.8419 Y13.1763 I0.3049 J-0.1263
G3 X16.8346 Y13.0997 I0.4017 J-0.0766
G3 X16.8419 Y13.023 I0.4089 J0
G3 X16.8611 Y12.9586 I0.3242 J0.0618
G3 X16.8931 Y12.8994 I0.3049 J0.1263
G3 X16.9421 Y12.8401 I0.3382 J0.2299
G3 X17.0014 Y12.791 I0.2892 J0.2892
G3 X17.0607 Y12.7591 I0.1855 J0.273
G3 X17.1251 Y12.7398 I0.1263 J0.3049
G3 X17.2017 Y12.7325 I0.0766 J0.4017
G3 X17.2784 Y12.7398 I0 J0.4089
G3 X17.3428 Y12.7591 I-0.0618 J0.3242
G3 X17.402 Y12.791 I-0.1263 J0.3049
G3 X17.4613 Y12.8401 I-0.2299 J0.3382
G3 X17.5104 Y12.8994 I-0.2892 J0.2892
G3 X17.5423 Y12.9586 I-0.273 J0.1855
G3 X17.5616 Y13.023 I-0.3049 J0.1263
G3 X17.5689 Y13.0997 I-0.4017 J0.0766
G1 Z-0.7 F30
G3 X17.5616 Y13.1763 I-0.4089 J0 F25
G3 X17.5423 Y13.2407 I-0.3242 J-0.0618
G3 X17.5104 Y13.3 I-0.3049 J-0.1263
G3 X17.4613 Y13.3593 I-0.3382 J-0.2299
G3 X17.402 Y13.4083 I-0.2892 J-0.2892
G3 X17.3428 Y13.4403 I-0.1855 J-0.273
G3 X17.2784 Y13.4595 I-0.1263 J-0.3049
G3 X17.2017 Y13.4668 I-0.0766 J-0.4017
G3 X17.1251 Y13.4595 I0 J-0.4089
G3 X17.0607 Y13.4403 I0.0618 J-0.3242
G3 X17.0014 Y13.4083 I0.1263 J-0.3049
G3 X16.9421 Y13.3593 I0.2299 J-0.3382
G3 X16.8931 Y13.3 I0.2892 J-0.2892
G3 X16.8611 Y13.2407 I0.273 J-0.1855
G3 X16.8419 Y13.1763 I0.3049 J-0.1263
G3 X16.8346 Y13.0997 I0.4017 J-0.0766
G3 X16.8419 Y13.023 I0.4089 J0
G3 X16.8611 Y12.9586 I0.3242 J0.0618
G3 X16.8931 Y12.8994 I0.3049 J0.1263
G3 X16.9421 Y12.8401 I0.3382 J0.2299
G3 X17.0014 Y12.791 I0.2892 J0.2892
G3 X17.0607 Y12.7591 I0.1855 J0.273
G3 X17.1251 Y12.7398 I0.1263 J0.3049
G3 X17.2017 Y12.7325 I0.0766 J0.4017
G3 X17.2784 Y12.7398 I0 J0.4089
G3 X17.3428 Y12.7591 I-0.0618 J0.3242
G3 X17.402 Y12.791 I-0.1263 J0.3049
G3 X17.4613 Y12.8401 I-0.2299 J0.3382
G3 X17.5104 Y12.8994 I-0.2892 J0.2892
G3 X17.5423 Y12.9586 I-0.273 J0.1855
G3 X17.5616 Y13.023 I-0.3049 J0.1263
G3 X17.5689 Y13.0997 I-0.4017 J0.0766
G1 Z-0.8 F30
G3 X17.5616 Y13.1763 I-0.4089 J0 F25
G3 X17.5423 Y13.2407 I-0.3242 J-0.0618
G3 X17.5104 Y13.3 I-0.3049 J-0.1263
G3 X17.4613 Y13.3593 I-0.3382 J-0.2299
G3 X17.402 Y13.4083 I-0.2892 J-0.2892
G3 X17.3428 Y13.4403 I-0.1855 J-0.273
G3 X17.2784 Y13.4595 I-0.1263 J-0.3049
G3 X17.2017 Y13.4668 I-0.0766 J-0.4017
G3 X17.1251 Y13.4595 I0 J-0.4089
G3 X17.0607 Y13.4403 I0.0618 J-0.3242
G3 X17.0014 Y13.4083 I0.1263 J-0.3049
G3 X16.9421 Y13.3593 I0.2299 J-0.3382
G3 X16.8931 Y13.3 I0.2892 J-0.2892
G3 X16.8611 Y13.2407 I0.273 J-0.1855
G3 X16.8419 Y13.1763 I0.3049 J-0.1263
G3 X16.8346 Y13.0997 I0.4017 J-0.0766
G3 X16.8419 Y13.023 I0.4089 J0
G3 X16.8611 Y12.9586 I0.3242 J0.0618
G3 X16.8931 Y12.8994 I0.3049 J0.1263
G3 X16.9421 Y12.8401 I0.3382 J0.2299
G3 X17.0014 Y12.791 I0.2892 J0.2892
G3 X17.0607 Y12.7591 I0.1855 J0.273
G3 X17.1251 Y12.7398 I0.1263 J0.3049
G3 X17.2017 Y12.7325 I0.0766 J0.4017
G3 X17.2784 Y12.7398 I0 J0.4089
G3 X17.3428 Y12.7591 I-0.0618 J0.3242
G3 X17.402 Y12.791 I-0.1263 J0.3049
G3 X17.4613 Y12.8401 I-0.2299 J0.3382
G3 X17.5104 Y12.8994 I-0.2892 J0.2892
G3 X17.5423 Y12.9586 I-0.273 J0.1855
G3 X17.5616 Y13.023 I-0.3049 J0.1263
G3 X17.5689 Y13.0997 I-0.4017 J0.0766
G0 Z0.15
G0 X7.8317 Y13.4668
G1 Z-0.1 F30
G3 X7.755 Y13.4595 I0 J-0.4089 F25
G3 X7.6906 Y13.4403 I0.0618 J-0.3242
G3 X7.6314 Y13.4083 I0.1263 J-0.3049
G3 X7.5721 Y13.3593 I0.2299 J-0.3382
G3 X7.523 Y13.3 I0.2892 J-0.2892
G3 X7.491 Y13.2407 I0.273 J-0.1855
G3 X7.4718 Y13.1763 I0.3049 J-0.1263
G3 X7.4645 Y13.0997 I0.4017 J-0.0766
G3 X7.4718 Y13.023 I0.4089 J0
G3 X7.491 Y12.9586 I0.3242 J0.0618
G3 X7.523 Y12.8994 I0.3049 J0.1263
G3 X7.5721 Y12.8401 I0.3382 J0.2299
G3 X7.6314 Y12.791 I0.2892 J0.2892
G3 X7.6906 Y12.7591 I0.1855 J0.273
G3 X7.755 Y12.7398 I0.1263 J0.3049
G3 X7.8317 Y12.7325 I0.0766 J0.4017
G3 X7.9083 Y12.7398 I0 J0.4089
G3 X7.9727 Y12.7591 I-0.0618 J0.3242
G3 X8.032 Y12.791 I-0.1263 J0.3049
G3 X8.0913 Y12.8401 I-0.2299 J0.3382
G3 X8.1403 Y12.8994 I-0.2892 J0.2892
G3 X8.1723 Y12.9586 I-0.273 J0.1855
G3 X8.1915 Y13.023 I-0.3049 J0.1263
G3 X8.1988 Y13.0997 I-0.4017 J0.0766
G3 X8.1915 Y13.1763 I-0.4089 J0
G3 X8.1723 Y13.2407 I-0.3242 J-0.0618
G3 X8.1403 Y13.3 I-0.3049 J-0.1263
G3 X8.0913 Y13.3593 I-0.3382 J-0.2299
G3 X8.032 Y13.4083 I-0.2892 J-0.2892
G3 X7.9727 Y13.4403 I-0.1855 J-0.273
G3 X7.9083 Y13.4595 I-0.1263 J-0.3049
G3 X7.8317 Y13.4668 I-0.0766 J-0.4017
G1 Z-0.2 F30
G3 X7.755 Y13.4595 I0 J-0.4089 F25
G3 X7.6906 Y13.4403 I0.0618 J-0.3242
G3 X7.6314 Y13.4083 I0.1263 J-0.3049
G3 X7.5721 Y13.3593 I0.2299 J-0.3382
G3 X7.523 Y13.3 I0.2892 J-0.2892
G3 X7.491 Y13.2407 I0.273 J-0.1855
G3 X7.4718 Y13.1763 I0.3049 J-0.1263
G3 X7.4645 Y13.0997 I0.4017 J-0.0766
G3 X7.4718 Y13.023 I0.4089 J0
G3 X7.491 Y12.9586 I0.3242 J0.0618
G3 X7.523 Y12.8994 I0.3049 J0.1263
G3 X7.5721 Y12.8401 I0.3382 J0.2299
G3 X7.6314 Y12.791 I0.2892 J0.2892
G3 X7.6906 Y12.7591 I0.1855 J0.273
G3 X7.755 Y12.7398 I0.1263 J0.3049
G3 X7.8317 Y12.7325 I0.0766 J0.4017
G3 X7.9083 Y12.7398 I0 J0.4089
G3 X7.9727 Y12.7591 I-0.0618 J0.3242
G3 X8.032 Y12.791 I-0.1263 J0.3049
G3 X8.0913 Y12.8401 I-0.2299 J0.3382
G3 X8.1403 Y12.8994 I-0.2892 J0.2892
G3 X8.1723 Y12.9586 I-0.273 J0.1855
G3 X8.1915 Y13.023 I-0.3049 J0.1263
G3 X8.1988 Y13.0997 I-0.4017 J0.0766
G3 X8.1915 Y13.1763 I-0.4089 J0
G3 X8.1723 Y13.2407 I-0.3242 J-0.0618
G3 X8.1403 Y13.3 I-0.3049 J-0.1263
G3 X8.0913 Y13.3593 I-0.3382 J-0.2299
G3 X8.032 Y13.4083 I-0.2892 J-0.2892
G3 X7.9727 Y13.4403 I-0.1855 J-0.273
G3 X7.9083 Y13.4595 I-0.1263 J-0.3049
G3 X7.8317 Y13.4668 I-0.0766 J-0.4017
G1 Z-0.3 F30
G3 X7.755 Y13.4595 I0 J-0.4089 F25
G3 X7.6906 Y13.4403 I0.0618 J-0.3242
G3 X7.6314 Y13.4083 I0.1263 J-0.3049
G3 X7.5721 Y13.3593 I0.2299 J-0.3382
G3 X7.523 Y13.3 I0.2892 J-0.2892
G3 X7.491 Y13.2407 I0.273 J-0.1855
G3 X7.4718 Y13.1763 I0.3049 J-0.1263
G3 X7.4645 Y13.0997 I0.4017 J-0.0766
G3 X7.4718 Y13.023 I0.4089 J0
G3 X7.491 Y12.9586 I0.3242 J0.0618
G3 X7.523 Y12.8994 I0.3049 J0.1263
G3 X7.5721 Y12.8401 I0.3382 J0.2299
G3 X7.6314 Y12.791 I0.2892 J0.2892
G3 X7.6906 Y12.7591 I0.1855 J0.273
G3 X7.755 Y12.7398 I0.1263 J0.3049
G3 X7.8317 Y12.7325 I0.0766 J0.4017
G3 X7.9083 Y12.7398 I0 J0.4089
G3 X7.9727 Y12.7591 I-0.0618 J0.3242
G3 X8.032 Y12.791 I-0.1263 J0.3049
G3 X8.0913 Y12.8401 I-0.2299 J0.3382
G3 X8.1403 Y12.8994 I-0.2892 J0.2892
G3 X8.1723 Y12.9586 I-0.273 J0.1855
G3 X8.1915 Y13.023 I-0.3049 J0.1263
G3 X8.1988 Y13.0997 I-0.4017 J0.0766
G3 X8.1915 Y13.1763 I-0.4089 J0
G3 X8.1723 Y13.2407 I-0.3242 J-0.0618
G3 X8.1403 Y13.3 I-0.3049 J-0.1263
G3 X8.0913 Y13.3593 I-0.3382 J-0.2299
G3 X8.032 Y13.4083 I-0.2892 J-0.2892
G3 X7.9727 Y13.4403 I-0.1855 J-0.273
G3 X7.9083 Y13.4595 I-0.1263 J-0.3049
G3 X7.8317 Y13.4668 I-0.0766 J-0.4017
G1 Z-0.4 F30
G3 X7.755 Y13.4595 I0 J-0.4089 F25
G3 X7.6906 Y13.4403 I0.0618 J-0.3242
G3 X7.6314 Y13.4083 I0.1263 J-0.3049
G3 X7.5721 Y13.3593 I0.2299 J-0.3382
G3 X7.523 Y13.3 I0.2892 J-0.2892
G3 X7.491 Y13.2407 I0.273 J-0.1855
G3 X7.4718 Y13.1763 I0.3049 J-0.1263
G3 X7.4645 Y13.0997 I0.4017 J-0.0766
G3 X7.4718 Y13.023 I0.4089 J0
G3 X7.491 Y12.9586 I0.3242 J0.0618
G3 X7.523 Y12.8994 I0.3049 J0.1263
G3 X7.5721 Y12.8401 I0.3382 J0.2299
G3 X7.6314 Y12.791 I0.2892 J0.2892
G3 X7.6906 Y12.7591 I0.1855 J0.273
G3 X7.755 Y12.7398 I0.1263 J0.3049
G3 X7.8317 Y12.7325 I0.0766 J0.4017
G3 X7.9083 Y12.7398 I0 J0.4089
G3 X7.9727 Y12.7591 I-0.0618 J0.3242
G3 X8.032 Y12.791 I-0.1263 J0.3049
G3 X8.0913 Y12.8401 I-0.2299 J0.3382
G3 X8.1403 Y12.8994 I-0.2892 J0.2892
G3 X8.1723 Y12.9586 I-0.273 J0.1855
G3 X8.1915 Y13.023 I-0.3049 J0.1263
G3 X8.1988 Y13.0997 I-0.4017 J0.0766
G3 X8.1915 Y13.1763 I-0.4089 J0
G3 X8.1723 Y13.2407 I-0.3242 J-0.0618
G3 X8.1403 Y13.3 I-0.3049 J-0.1263
G3 X8.0913 Y13.3593 I-0.3382 J-0.2299
G3 X8.032 Y13.4083 I-0.2892 J-0.2892
G3 X7.9727 Y13.4403 I-0.1855 J-0.273
G3 X7.9083 Y13.4595 I-0.1263 J-0.3049
G3 X7.8317 Y13.4668 I-0.0766 J-0.4017
G1 Z-0.5 F30
G3 X7.755 Y13.4595 I0 J-0.4089 F25
G3 X7.6906 Y13.4403 I0.0618 J-0.3242
G3 X7.6314 Y13.4083 I0.1263 J-0.3049
G3 X7.5721 Y13.3593 I0.2299 J-0.3382
G3 X7.523 Y13.3 I0.2892 J-0.2892
G3 X7.491 Y13.2407 I0.273 J-0.1855
G3 X7.4718 Y13.1763 I0.3049 J-0.1263
G3 X7.4645 Y13.0997 I0.4017 J-0.0766
G3 X7.4718 Y13.023 I0.4089 J0
G3 X7.491 Y12.9586 I0.3242 J0.0618
G3 X7.523 Y12.8994 I0.3049 J0.1263
G3 X7.5721 Y12.8401 I0.3382 J0.2299
G3 X7.6314 Y12.791 I0.2892 J0.2892
G3 X7.6906 Y12.7591 I0.1855 J0.273
G3 X7.755 Y12.7398 I0.1263 J0.3049
G3 X7.8317 Y12.7325 I0.0766 J0.4017
G3 X7.9083 Y12.7398 I0 J0.4089
G3 X7.9727 Y12.7591 I-0.0618 J0.3242
G3 X8.032 Y12.791 I-0.1263 J0.3049
G3 X8.0913 Y12.8401 I-0.2299 J0.3382
G3 X8.1403 Y12.8994 I-0.2892 J0.2892
G3 X8.1723 Y12.9586 I-0.273 J0.1855
G3 X8.1915 Y13.023 I-0.3049 J0.1263
G3 X8.1988 Y13.0997 I-0.4017 J0.0766
G3 X8.1915 Y13.1763 I-0.4089 J0
G3 X8.1723 Y13.2407 I-0.3242 J-0.0618
G3 X8.1403 Y13.3 I-0.3049 J-0.1263
G3 X8.0913 Y13.3593 I-0.3382 J-0.2299
G3 X8.032 Y13.4083 I-0.2892 J-0.2892
G3 X7.9727 Y13.4403 I-0.1855 J-0.273
G3 X7.9083 Y13.4595 I-0.1263 J-0.3049
G3 X7.8317 Y13.4668 I-0.0766 J-0.4017
G1 Z-0.6 F30
G3 X7.755 Y13.4595 I0 J-0.4089 F25
G3 X7.6906 Y13.4403 I0.0618 J-0.3242
G3 X7.6314 Y13.4083 I0.1263 J-0.3049
G3 X7.5721 Y13.3593 I0.2299 J-0.3382
G3 X7.523 Y13.3 I0.2892 J-0.2892
G3 X7.491 Y13.2407 I0.273 J-0.1855
G3 X7.4718 Y13.1763 I0.3049 J-0.1263
G3 X7.4645 Y13.0997 I0.4017 J-0.0766
G3 X7.4718 Y13.023 I0.4089 J0
G3 X7.491 Y12.9586 I0.3242 J0.0618
G3 X7.523 Y12.8994 I0.3049 J0.1263
G3 X7.5721 Y12.8401 I0.3382 J0.2299
G3 X7.6314 Y12.791 I0.2892 J0.2892
G3 X7.6906 Y12.7591 I0.1855 J0.273
G3 X7.755 Y12.7398 I0.1263 J0.3049
G3 X7.8317 Y12.7325 I0.0766 J0.4017
G3 X7.9083 Y12.7398 I0 J0.4089
G3 X7.9727 Y12.7591 I-0.0618 J0.3242
G3 X8.032 Y12.791 I-0.1263 J0.3049
G3 X8.0913 Y12.8401 I-0.2299 J0.3382
G3 X8.1403 Y12.8994 I-0.2892 J0.2892
G3 X8.1723 Y12.9586 I-0.273 J0.1855
G3 X8.1915 Y13.023 I-0.3049 J0.1263
G3 X8.1988 Y13.0997 I-0.4017 J0.0766
G3 X8.1915 Y13.1763 I-0.4089 J0
G3 X8.1723 Y13.2407 I-0.3242 J-0.0618
G3 X8.1403 Y13.3 I-0.3049 J-0.1263
G3 X8.0913 Y13.3593 I-0.3382 J-0.2299
G3 X8.032 Y13.4083 I-0.2892 J-0.2892
G3 X7.9727 Y13.4403 I-0.1855 J-0.273
G3 X7.9083 Y13.4595 I-0.1263 J-0.3049
G3 X7.8317 Y13.4668 I-0.0766 J-0.4017
G1 Z-0.7 F30
G3 X7.755 Y13.4595 I0 J-0.4089 F25
G3 X7.6906 Y13.4403 I0.0618 J-0.3242
G3 X7.6314 Y13.4083 I0.1263 J-0.3049
G3 X7.5721 Y13.3593 I0.2299 J-0.3382
G3 X7.523 Y13.3 I0.2892 J-0.2892
G3 X7.491 Y13.2407 I0.273 J-0.1855
G3 X7.4718 Y13.1763 I0.3049 J-0.1263
G3 X7.4645 Y13.0997 I0.4017 J-0.0766
G3 X7.4718 Y13.023 I0.4089 J0
G3 X7.491 Y12.9586 I0.3242 J0.0618
G3 X7.523 Y12.8994 I0.3049 J0.1263
G3 X7.5721 Y12.8401 I0.3382 J0.2299
G3 X7.6314 Y12.791 I0.2892 J0.2892
G3 X7.6906 Y12.7591 I0.1855 J0.273
G3 X7.755 Y12.7398 I0.1263 J0.3049
G3 X7.8317 Y12.7325 I0.0766 J0.4017
G3 X7.9083 Y12.7398 I0 J0.4089
G3 X7.9727 Y12.7591 I-0.0618 J0.3242
G3 X8.032 Y12.791 I-0.1263 J0.3049
G3 X8.0913 Y12.8401 I-0.2299 J0.3382
G3 X8.1403 Y12.8994 I-0.2892 J0.2892
G3 X8.1723 Y12.9586 I-0.273 J0.1855
G3 X8.1915 Y13.023 I-0.3049 J0.1263
G3 X8.1988 Y13.0997 I-0.4017 J0.0766
G3 X8.1915 Y13.1763 I-0.4089 J0
G3 X8.1723 Y13.2407 I-0.3242 J-0.0618
G3 X8.1403 Y13.3 I-0.3049 J-0.1263
G3 X8.0913 Y13.3593 I-0.3382 J-0.2299
G3 X8.032 Y13.4083 I-0.2892 J-0.2892
G3 X7.9727 Y13.4403 I-0.1855 J-0.273
G3 X7.9083 Y13.4595 I-0.1263 J-0.3049
G3 X7.8317 Y13.4668 I-0.0766 J-0.4017
G1 Z-0.8 F30
G3 X7.755 Y13.4595 I0 J-0.4089 F25
G3 X7.6906 Y13.4403 I0.0618 J-0.3242
G3 X7.6314 Y13.4083 I0.1263 J-0.3049
G3 X7.5721 Y13.3593 I0.2299 J-0.3382
G3 X7.523 Y13.3 I0.2892 J-0.2892
G3 X7.491 Y13.2407 I0.273 J-0.1855
G3 X7.4718 Y13.1763 I0.3049 J-0.1263
G3 X7.4645 Y13.0997 I0.4017 J-0.0766
G3 X7.4718 Y13.023 I0.4089 J0
G3 X7.491 Y12.9586 I0.3242 J0.0618
G3 X7.523 Y12.8994 I0.3049 J0.1263
G3 X7.5721 Y12.8401 I0.3382 J0.2299
G3 X7.6314 Y12.791 I0.2892 J0.2892
G3 X7.6906 Y12.7591 I0.1855 J0.273
G3 X7.755 Y12.7398 I0.1263 J0.3049
G3 X7.8317 Y12.7325 I0.0766 J0.4017
G3 X7.9083 Y12.7398 I0 J0.4089
G3 X7.9727 Y12.7591 I-0.0618 J0.3242
G3 X8.032 Y12.791 I-0.1263 J0.3049
G3 X8.0913 Y12.8401 I-0.2299 J0.3382
G3 X8.1403 Y12.8994 I-0.2892 J0.2892
G3 X8.1723 Y12.9586 I-0.273 J0.1855
G3 X8.1915 Y13.023 I-0.3049 J0.1263
G3 X8.1988 Y13.0997 I-0.4017 J0.0766
G3 X8.1915 Y13.1763 I-0.4089 J0
G3 X8.1723 Y13.2407 I-0.3242 J-0.0618
G3 X8.1403 Y13.3 I-0.3049 J-0.1263
G3 X8.0913 Y13.3593 I-0.3382 J-0.2299
G3 X8.032 Y13.4083 I-0.2892 J-0.2892
G3 X7.9727 Y13.4403 I-0.1855 J-0.273
G3 X7.9083 Y13.4595 I-0.1263 J-0.3049
G3 X7.8317 Y13.4668 I-0.0766 J-0.4017

(Seat)
G0 Z0.15
G0 X8.1153 Y5.1006
G1 Z-0.16 F30
G1 X11.8754 Y5.1006 F60
G1 X12.3754 Y5.1006
G1 X16.9181 Y5.1006
G3 X17.5289 Y5.1584 I0 J3.2601
G3 X18.0752 Y5.3217 I-0.524 J2.7473
G3 X18.577 Y5.5925 I-1.0703 J2.5839
G3 X19.0498 Y5.9836 I-1.8325 J2.6964
G3 X19.4409 Y6.4564 I-2.3053 J2.3053
G3 X19.7116 Y6.9581 I-2.3132 J1.5721
G3 X19.875 Y7.5044 I-2.5839 J1.0703
G3 X19.9327 Y8.1153 I-3.2024 J0.6108
G1 X19.9327 Y9.5699
G1 X19.9327 Y10.0699
G1 X19.9327 Y11.4363
G3 X19.9101 Y11.8549 I-3.8921 J0
G3 X19.8436 Y12.2594 I-3.6936 J-0.3996
G3 X19.733 Y12.6541 I-3.627 J-0.8041
G3 X19.5765 Y13.0431 I-3.6839 J-1.2559
G3 X19.3791 Y13.413 I-3.5274 J-1.6449
G3 X19.1479 Y13.7514 I-3.1786 J-1.9231
G3 X18.8808 Y14.0624 I-2.9474 J-2.2616
G3 X18.5746 Y14.3488 I-2.808 J-2.6951
G1 X15.4982 Y16.9302
G2 X15.0487 Y17.3998 I1.9191 J2.2871
G2 X14.7115 Y17.9555 I2.3686 J1.8175
G2 X14.5025 Y18.5711 I2.7058 J1.2617
G2 X14.4317 Y19.2172 I2.9148 J0.6462
G1 X14.4317 Y20.5321
G3 X14.3067 Y20.6571 I-0.125 J0
G1 X12.624 Y20.6571
G1 X12.124 Y20.6571
G1 X10.7267 Y20.6571
G3 X10.6017 Y20.5321 I0 J-0.125
G1 X10.6017 Y19.2172
G1 X10.6017 Y19.2172
G2 X10.5309 Y18.5711 I-2.9856 J0
G2 X10.3219 Y17.9555 I-2.9148 J0.6462
G2 X9.9847 Y17.3998 I-2.7058 J1.2617
G2 X9.5352 Y16.9302 I-2.3686 J1.8175
G1 X6.4588 Y14.3488
G3 X6.1526 Y14.0624 I2.5018 J-2.9815
G3 X5.8855 Y13.7514 I2.6803 J-2.5726
G3 X5.6543 Y13.413 I2.9474 J-2.2616
G3 X5.4569 Y13.0431 I3.3301 J-2.0147
G3 X5.3004 Y12.6541 I3.5274 J-1.6449
G3 X5.1898 Y12.2594 I3.5164 J-1.1988
G3 X5.1233 Y11.8549 I3.627 J-0.8041
G3 X5.1007 Y11.4363 I3.8695 J-0.4186
G1 X5.1007 Y8.1153
G3 X5.1584 Y7.5044 I3.2601 J0
G3 X5.3218 Y6.9581 I2.7473 J0.524
G3 X5.5925 Y6.4564 I2.5839 J1.0703
G3 X5.9836 Y5.9836 I2.6964 J1.8325
G3 X6.4564 Y5.5925 I2.3053 J2.3053
G3 X6.9582 Y5.3217 I1.5721 J2.3132
G3 X7.5044 Y5.1584 I1.0703 J2.5839
G3 X8.1153 Y5.1006 I0.6108 J3.2024
G1 Z-0.32 F30
G1 X11.8754 Y5.1006 F60
G1 X12.3754 Y5.1006
G1 X16.9181 Y5.1006
G3 X17.5289 Y5.1584 I0 J3.2601
G3 X18.0752 Y5.3217 I-0.524 J2.7473
G3 X18.577 Y5.5925 I-1.0703 J2.5839
G3 X19.0498 Y5.9836 I-1.8325 J2.6964
G3 X19.4409 Y6.4564 I-2.3053 J2.3053
G3 X19.7116 Y6.9581 I-2.3132 J1.5721
G3 X19.875 Y7.5044 I-2.5839 J1.0703
G3 X19.9327 Y8.1153 I-3.2024 J0.6108
G1 X19.9327 Y9.5699
G1 X19.9327 Y10.0699
G1 X19.9327 Y11.4363
G3 X19.9101 Y11.8549 I-3.8921 J0
G3 X19.8436 Y12.2594 I-3.6936 J-0.3996
G3 X19.733 Y12.6541 I-3.627 J-0.8041
G3 X19.5765 Y13.0431 I-3.6839 J-1.2559
G3 X19.3791 Y13.413 I-3.5274 J-1.6449
G3 X19.1479 Y13.7514 I-3.1786 J-1.9231
G3 X18.8808 Y14.0624 I-2.9474 J-2.2616
G3 X18.5746 Y14.3488 I-2.808 J-2.6951
G1 X15.4982 Y16.9302
G2 X15.0487 Y17.3998 I1.9191 J2.2871
G2 X14.7115 Y17.9555 I2.3686 J1.8175
G2 X14.5025 Y18.5711 I2.7058 J1.2617
G2 X14.4317 Y19.2172 I2.9148 J0.6462
G1 X14.4317 Y20.5321
G3 X14.3067 Y20.6571 I-0.125 J0
G1 X12.624 Y20.6571
G1 X12.124 Y20.6571
G1 X10.7267 Y20.6571
G3 X10.6017 Y20.5321 I0 J-0.125
G1 X10.6017 Y19.2172
G1 X10.6017 Y19.2172
G2 X10.5309 Y18.5711 I-2.9856 J0
G2 X10.3219 Y17.9555 I-2.9148 J0.6462
G2 X9.9847 Y17.3998 I-2.7058 J1.2617
G2 X9.5352 Y16.9302 I-2.3686 J1.8175
G1 X6.4588 Y14.3488
G3 X6.1526 Y14.0624 I2.5018 J-2.9815
G3 X5.8855 Y13.7514 I2.6803 J-2.5726
G3 X5.6543 Y13.413 I2.9474 J-2.2616
G3 X5.4569 Y13.0431 I3.3301 J-2.0147
G3 X5.3004 Y12.6541 I3.5274 J-1.6449
G3 X5.1898 Y12.2594 I3.5164 J-1.1988
G3 X5.1233 Y11.8549 I3.627 J-0.8041
G3 X5.1007 Y11.4363 I3.8695 J-0.4186
G1 X5.1007 Y8.1153
G3 X5.1584 Y7.5044 I3.2601 J0
G3 X5.3218 Y6.9581 I2.7473 J0.524
G3 X5.5925 Y6.4564 I2.5839 J1.0703
G3 X5.9836 Y5.9836 I2.6964 J1.8325
G3 X6.4564 Y5.5925 I2.3053 J2.3053
G3 X6.9582 Y5.3217 I1.5721 J2.3132
G3 X7.5044 Y5.1584 I1.0703 J2.5839
G3 X8.1153 Y5.1006 I0.6108 J3.2024
G1 Z-0.48 F30
G1 X11.8754 Y5.1006 F60
G1 X12.3754 Y5.1006
G1 X16.9181 Y5.1006
G3 X17.5289 Y5.1584 I0 J3.2601
G3 X18.0752 Y5.3217 I-0.524 J2.7473
G3 X18.577 Y5.5925 I-1.0703 J2.5839
G3 X19.0498 Y5.9836 I-1.8325 J2.6964
G3 X19.4409 Y6.4564 I-2.3053 J2.3053
G3 X19.7116 Y6.9581 I-2.3132 J1.5721
G3 X19.875 Y7.5044 I-2.5839 J1.0703
G3 X19.9327 Y8.1153 I-3.2024 J0.6108
G1 X19.9327 Y9.5699
G1 X19.9327 Y10.0699
G1 X19.9327 Y11.4363
G3 X19.9101 Y11.8549 I-3.8921 J0
G3 X19.8436 Y12.2594 I-3.6936 J-0.3996
G3 X19.733 Y12.6541 I-3.627 J-0.8041
G3 X19.5765 Y13.0431 I-3.6839 J-1.2559
G3 X19.3791 Y13.413 I-3.5274 J-1.6449
G3 X19.1479 Y13.7514 I-3.1786 J-1.9231
G3 X18.8808 Y14.0624 I-2.9474 J-2.2616
G3 X18.5746 Y14.3488 I-2.808 J-2.6951
G1 X15.4982 Y16.9302
G2 X15.0487 Y17.3998 I1.9191 J2.2871
G2 X14.7115 Y17.9555 I2.3686 J1.8175
G2 X14.5025 Y18.5711 I2.7058 J1.2617
G2 X14.4317 Y19.2172 I2.9148 J0.6462
G1 X14.4317 Y20.5321
G3 X14.3067 Y20.6571 I-0.125 J0
G1 X12.624 Y20.6571
G1 X12.124 Y20.6571
G1 X10.7267 Y20.6571
G3 X10.6017 Y20.5321 I0 J-0.125
G1 X10.6017 Y19.2172
G1 X10.6017 Y19.2172
G2 X10.5309 Y18.5711 I-2.9856 J0
G2 X10.3219 Y17.9555 I-2.9148 J0.6462
G2 X9.9847 Y17.3998 I-2.7058 J1.2617
G2 X9.5352 Y16.9302 I-2.3686 J1.8175
G1 X6.4588 Y14.3488
G3 X6.1526 Y14.0624 I2.5018 J-2.9815
G3 X5.8855 Y13.7514 I2.6803 J-2.5726
G3 X5.6543 Y13.413 I2.9474 J-2.2616
G3 X5.4569 Y13.0431 I3.3301 J-2.0147
G3 X5.3004 Y12.6541 I3.5274 J-1.6449
G3 X5.1898 Y12.2594 I3.5164 J-1.1988
G3 X5.1233 Y11.8549 I3.627 J-0.8041
G3 X5.1007 Y11.4363 I3.8695 J-0.4186
G1 X5.1007 Y8.1153
G3 X5.1584 Y7.5044 I3.2601 J0
G3 X5.3218 Y6.9581 I2.7473 J0.524
G3 X5.5925 Y6.4564 I2.5839 J1.0703
G3 X5.9836 Y5.9836 I2.6964 J1.8325
G3 X6.4564 Y5.5925 I2.3053 J2.3053
G3 X6.9582 Y5.3217 I1.5721 J2.3132
G3 X7.5044 Y5.1584 I1.0703 J2.5839
G3 X8.1153 Y5.1006 I0.6108 J3.2024
G1 Z-0.64 F30
G1 X11.8754 Y5.1006 F60
G1 Z-0.55 F30
G1 X12.3754 Y5.1006 F60
G1 Z-0.64 F30
G1 X16.9181 Y5.1006 F60
G3 X17.5289 Y5.1584 I0 J3.2601
G3 X18.0752 Y5.3217 I-0.524 J2.7473
G3 X18.577 Y5.5925 I-1.0703 J2.5839
G3 X19.0498 Y5.9836 I-1.8325 J2.6964
G3 X19.4409 Y6.4564 I-2.3053 J2.3053
G3 X19.7116 Y6.9581 I-2.3132 J1.5721
G3 X19.875 Y7.5044 I-2.5839 J1.0703
G3 X19.9327 Y8.1153 I-3.2024 J0.6108
G1 X19.9327 Y9.5699
G1 Z-0.55 F30
G1 X19.9327 Y10.0699 F60
G1 Z-0.64 F30
G1 X19.9327 Y11.4363 F60
G3 X19.9101 Y11.8549 I-3.8921 J0
G3 X19.8436 Y12.2594 I-3.6936 J-0.3996
G3 X19.733 Y12.6541 I-3.627 J-0.8041
G3 X19.5765 Y13.0431 I-3.6839 J-1.2559
G3 X19.3791 Y13.413 I-3.5274 J-1.6449
G3 X19.1479 Y13.7514 I-3.1786 J-1.9231
G3 X18.8808 Y14.0624 I-2.9474 J-2.2616
G3 X18.5746 Y14.3488 I-2.808 J-2.6951
G1 X15.4982 Y16.9302
G2 X15.0487 Y17.3998 I1.9191 J2.2871
G2 X14.7115 Y17.9555 I2.3686 J1.8175
G2 X14.5025 Y18.5711 I2.7058 J1.2617
G2 X14.4317 Y19.2172 I2.9148 J0.6462
G1 X14.4317 Y20.5321
G3 X14.3067 Y20.6571 I-0.125 J0
G1 X12.624 Y20.6571
G1 Z-0.55 F30
G1 X12.124 Y20.6571 F60
G1 Z-0.64 F30
G1 X10.7267 Y20.6571 F60
G3 X10.6017 Y20.5321 I0 J-0.125
G1 X10.6017 Y19.2172
G1 X10.6017 Y19.2172
G2 X10.5309 Y18.5711 I-2.9856 J0
G2 X10.3219 Y17.9555 I-2.9148 J0.6462
G2 X9.9847 Y17.3998 I-2.7058 J1.2617
G2 X9.5352 Y16.9302 I-2.3686 J1.8175
G1 X6.4588 Y14.3488
G3 X6.1526 Y14.0624 I2.5018 J-2.9815
G3 X5.8855 Y13.7514 I2.6803 J-2.5726
G3 X5.6543 Y13.413 I2.9474 J-2.2616
G3 X5.4569 Y13.0431 I3.3301 J-2.0147
G3 X5.3004 Y12.6541 I3.5274 J-1.6449
G3 X5.1898 Y12.2594 I3.5164 J-1.1988
G3 X5.1233 Y11.8549 I3.627 J-0.8041
G3 X5.1007 Y11.4363 I3.8695 J-0.4186
G1 X5.1007 Y8.1153
G3 X5.1584 Y7.5044 I3.2601 J0
G3 X5.3218 Y6.9581 I2.7473 J0.524
G3 X5.5925 Y6.4564 I2.5839 J1.0703
G3 X5.9836 Y5.9836 I2.6964 J1.8325
G3 X6.4564 Y5.5925 I2.3053 J2.3053
G3 X6.9582 Y5.3217 I1.5721 J2.3132
G3 X7.5044 Y5.1584 I1.0703 J2.5839
G3 X8.1153 Y5.1006 I0.6108 J3.2024
G1 Z-0.8 F30
G1 X11.8754 Y5.1006 F60
G1 Z-0.55 F30
G1 X12.3754 Y5.1006 F60
G1 Z-0.8 F30
G1 X16.9181 Y5.1006 F60
G3 X17.5289 Y5.1584 I0 J3.2601
G3 X18.0752 Y5.3217 I-0.524 J2.7473
G3 X18.577 Y5.5925 I-1.0703 J2.5839
G3 X19.0498 Y5.9836 I-1.8325 J2.6964
G3 X19.4409 Y6.4564 I-2.3053 J2.3053
G3 X19.7116 Y6.9581 I-2.3132 J1.5721
G3 X19.875 Y7.5044 I-2.5839 J1.0703
G3 X19.9327 Y8.1153 I-3.2024 J0.6108
G1 X19.9327 Y9.5699
G1 Z-0.55 F30
G1 X19.9327 Y10.0699 F60
G1 Z-0.8 F30
G1 X19.9327 Y11.4363 F60
G3 X19.9101 Y11.8549 I-3.8921 J0
G3 X19.8436 Y12.2594 I-3.6936 J-0.3996
G3 X19.733 Y12.6541 I-3.627 J-0.8041
G3 X19.5765 Y13.0431 I-3.6839 J-1.2559
G3 X19.3791 Y13.413 I-3.5274 J-1.6449
G3 X19.1479 Y13.7514 I-3.1786 J-1.9231
G3 X18.8808 Y14.0624 I-2.9474 J-2.2616
G3 X18.5746 Y14.3488 I-2.808 J-2.6951
G1 X15.4982 Y16.9302
G2 X15.0487 Y17.3998 I1.9191 J2.2871
G2 X14.7115 Y17.9555 I2.3686 J1.8175
G2 X14.5025 Y18.5711 I2.7058 J1.2617
G2 X14.4317 Y19.2172 I2.9148 J0.6462
G1 X14.4317 Y20.5321
G3 X14.3067 Y20.6571 I-0.125 J0
G1 X12.624 Y20.6571
G1 Z-0.55 F30
G1 X12.124 Y20.6571 F60
G1 Z-0.8 F30
G1 X10.7267 Y20.6571 F60
G3 X10.6017 Y20.5321 I0 J-0.125
G1 X10.6017 Y19.2172
G1 X10.6017 Y19.2172
G2 X10.5309 Y18.5711 I-2.9856 J0
G2 X10.3219 Y17.9555 I-2.9148 J0.6462
G2 X9.9847 Y17.3998 I-2.7058 J1.2617
G2 X9.5352 Y16.9302 I-2.3686 J1.8175
G1 X6.4588 Y14.3488
G3 X6.1526 Y14.0624 I2.5018 J-2.9815
G3 X5.8855 Y13.7514 I2.6803 J-2.5726
G3 X5.6543 Y13.413 I2.9474 J-2.2616
G3 X5.4569 Y13.0431 I3.3301 J-2.0147
G3 X5.3004 Y12.6541 I3.5274 J-1.6449
G3 X5.1898 Y12.2594 I3.5164 J-1.1988
G3 X5.1233 Y11.8549 I3.627 J-0.8041
G3 X5.1007 Y11.4363 I3.8695 J-0.4186
G1 X5.1007 Y8.1153
G3 X5.1584 Y7.5044 I3.2601 J0
G3 X5.3218 Y6.9581 I2.7473 J0.524
G3 X5.5925 Y6.4564 I2.5839 J1.0703
G3 X5.9836 Y5.9836 I2.6964 J1.8325
G3 X6.4564 Y5.5925 I2.3053 J2.3053
G3 X6.9582 Y5.3217 I1.5721 J2.3132
G3 X7.5044 Y5.1584 I1.0703 J2.5839
G3 X8.1153 Y5.1006 I0.6108 J3.2024

(Center)
G0 Z0.15
G0 X4.7057 Y2.8406
G1 Z-0.16 F30
G1 X12.7374 Y2.8406 F60
G1 X13.2374 Y2.8406
G1 X20.3277 Y2.8406
G3 X20.5749 Y2.8566 I0 J1.9272
G3 X20.8107 Y2.9032 I-0.2316 J1.7911
G3 X21.0382 Y2.9807 I-0.4674 J1.7444
G3 X21.2602 Y3.0905 I-0.7416 J1.7788
G3 X21.4663 Y3.2279 I-0.9636 J1.669
G3 X21.6472 Y3.3862 I-1.0961 J1.4353
G3 X21.8055 Y3.567 I-1.277 J1.277
G3 X21.9429 Y3.7731 I-1.5316 J1.1697
G3 X22.0527 Y3.9952 I-1.669 J0.9636
G3 X22.1302 Y4.2227 I-1.6669 J0.6949
G3 X22.1768 Y4.4585 I-1.7444 J0.4674
G3 X22.1927 Y4.7056 I-1.9113 J0.2472
G1 X22.1927 Y13.2245
G1 X22.1927 Y13.2245
G3 X22.1399 Y13.7065 I-2.2272 J0
G3 X21.984 Y14.1657 I-2.1744 J-0.4821
G3 X21.7325 Y14.5803 I-2.0185 J-0.9413
G3 X21.3971 Y14.9306 I-1.767 J-1.3558
G1 X20.1783 Y15.9534
G1 X19.7952 Y16.2748
G1 X16.9509 Y18.6614
G2 X16.8417 Y18.7756 I0.4664 J0.5558
G2 X16.7597 Y18.9106 I0.5756 J0.4417
G2 X16.7089 Y19.0602 I0.6576 J0.3066
G2 X16.6917 Y19.2172 I0.7084 J0.157
G1 X16.6917 Y20.495
G2 X16.703 Y20.5809 I0.3319 J0
G2 X16.7362 Y20.6609 I0.3205 J-0.0859
G2 X16.7889 Y20.7297 I0.2874 J-0.1659
G2 X16.8577 Y20.7824 I0.2347 J-0.2347
G2 X16.9377 Y20.8156 I0.1659 J-0.2874
G2 X17.0236 Y20.8269 I0.0859 J-0.3205
G1 X17.3799 Y20.8269
G2 X17.4493 Y20.8203 I0 J-0.3707
G2 X17.5074 Y20.8029 I-0.0557 J-0.2922
G2 X17.5608 Y20.7741 I-0.1138 J-0.2748
G2 X17.6145 Y20.7297 I-0.2084 J-0.3066
G2 X17.659 Y20.6759 I-0.2621 J-0.2621
G2 X17.6878 Y20.6226 I-0.246 J-0.1672
G2 X17.7052 Y20.5645 I-0.2748 J-0.1138
G2 X17.7117 Y20.495 I-0.3641 J-0.0695
G1 X17.7117 Y20.2019
G3 X17.8367 Y20.0769 I0.125 J0
G1 X21.1466 Y20.0769
G3 X21.3573 Y20.0968 I0 J1.1244
G3 X21.548 Y20.1538 I-0.183 J0.9594
G3 X21.7233 Y20.2484 I-0.3738 J0.9023
G3 X21.8863 Y20.3833 I-0.632 J0.9299
G3 X22.0212 Y20.5463 I-0.795 J0.795
G3 X22.1158 Y20.7215 I-0.8078 J0.549
G3 X22.1728 Y20.9123 I-0.9023 J0.3738
G3 X22.1927 Y21.123 I-1.1045 J0.2107
G1 X22.1927 Y31.3835
G1 X22.1927 Y31.9091
G1 X22.1927 Y33.4456
G3 X22.0677 Y33.5706 I-0.125 J0
G1 X18.8277 Y33.5706
G3 X18.7027 Y33.4456 I0 J-0.125
G1 X18.7027 Y31.1131
G1 X18.7027 Y30.6131
G1 X18.7027 Y26.07
G2 X18.6802 Y25.7199 I-2.7294 J0
G2 X18.6147 Y25.3886 I-2.5165 J0.3255
G2 X18.5058 Y25.069 I-2.4509 J0.6567
G2 X18.3502 Y24.7545 I-2.5193 J1.0503
G2 X18.1557 Y24.4626 I-2.3637 J1.3647
G2 X17.9333 Y24.2085 I-2.0166 J1.5401
G2 X17.6792 Y23.9861 I-1.7942 J1.7942
G2 X17.3873 Y23.7915 I-1.6566 J2.1692
G2 X17.0728 Y23.636 I-1.3647 J2.3637
G2 X16.7532 Y23.5271 I-0.9764 J2.342
G2 X16.4219 Y23.4616 I-0.6567 J2.4509
G2 X16.0718 Y23.4391 I-0.3501 J2.7069
G1 X12.1585 Y23.4391
G1 X11.6116 Y23.4391
G1 X8.9616 Y23.4391
G2 X8.4248 Y23.4898 I0 J2.8651
G2 X7.9515 Y23.6314 I0.454 J2.3803
G2 X7.5167 Y23.8659 I0.9273 J2.2388
G2 X7.1012 Y24.2096 I1.6104 J2.3696
G2 X6.7575 Y24.6251 I2.0259 J2.0259
G2 X6.523 Y25.0599 I2.0042 J1.3621
G2 X6.3814 Y25.5332 I2.2388 J0.9273
G2 X6.3307 Y26.07 I2.8143 J0.5368
G1 X6.3307 Y30.4882
G1 X6.3307 Y30.9882
G1 X6.3307 Y33.4456
G3 X6.2057 Y33.5706 I-0.125 J0
G1 X2.9657 Y33.5706
G3 X2.8407 Y33.4456 I0 J-0.125
G1 X2.8407 Y31.4869
G1 X2.8407 Y30.9869
G1 X2.8407 Y21.123
G3 X2.8606 Y20.9123 I1.1244 J0
G3 X2.9176 Y20.7215 I0.9594 J0.183
G3 X3.0122 Y20.5463 I0.9023 J0.3738
G3 X3.1471 Y20.3833 I0.9299 J0.632
G3 X3.3101 Y20.2484 I0.795 J0.795
G3 X3.4853 Y20.1538 I0.549 J0.8078
G3 X3.6761 Y20.0968 I0.3738 J0.9023
G3 X3.8868 Y20.0769 I0.2107 J1.1045
G1 X7.1967 Y20.0769
G3 X7.3217 Y20.2019 I0 J0.125
G1 X7.3217 Y20.495
G2 X7.333 Y20.5809 I0.3319 J0
G2 X7.3661 Y20.6609 I0.3205 J-0.0859
G2 X7.4189 Y20.7297 I0.2874 J-0.1659
G2 X7.4876 Y20.7824 I0.2347 J-0.2347
G2 X7.5676 Y20.8156 I0.1659 J-0.2874
G2 X7.6535 Y20.8269 I0.0859 J-0.3205
G1 X8.0098 Y20.8269
G2 X8.0957 Y20.8156 I0 J-0.3319
G2 X8.1757 Y20.7824 I-0.0859 J-0.3205
G2 X8.2445 Y20.7297 I-0.1659 J-0.2874
G2 X8.2972 Y20.6609 I-0.2347 J-0.2347
G2 X8.3303 Y20.5809 I-0.2874 J-0.1659
G2 X8.3417 Y20.495 I-0.3205 J-0.0859
G1 X8.3417 Y19.2172
G1 X8.3417 Y19.2172
G2 X8.3245 Y19.0602 I-0.7256 J0
G2 X8.2737 Y18.9106 I-0.7084 J0.157
G2 X8.1917 Y18.7756 I-0.6576 J0.3066
G2 X8.0825 Y18.6614 I-0.5756 J0.4417
G1 X4.9237 Y16.0109
G1 X4.5406 Y15.6895
G1 X3.6363 Y14.9306
G3 X3.3009 Y14.5803 I1.4316 J-1.7061
G3 X3.0493 Y14.1657 I1.767 J-1.3558
G3 X2.8935 Y13.7065 I2.0185 J-0.9413
G3 X2.8407 Y13.2245 I2.1744 J-0.4821
G1 X2.8407 Y4.7056
G3 X2.8763 Y4.3285 I2.0128 J0
G3 X2.9776 Y3.9899 I1.7032 J0.3249
G3 X3.1454 Y3.6788 I1.6019 J0.6635
G3 X3.3869 Y3.3869 I1.6648 J1.1314
G3 X3.6788 Y3.1454 I1.4233 J1.4233
G3 X3.9899 Y2.9776 I0.9746 J1.434
G3 X4.3285 Y2.8763 I0.6635 J1.6019
G3 X4.7057 Y2.8406 I0.3771 J1.9772
G1 Z-0.32 F30
G1 X12.7374 Y2.8406 F60
G1 X13.2374 Y2.8406
G1 X20.3277 Y2.8406
G3 X20.5749 Y2.8566 I0 J1.9272
G3 X20.8107 Y2.9032 I-0.2316 J1.7911
G3 X21.0382 Y2.9807 I-0.4674 J1.7444
G3 X21.2602 Y3.0905 I-0.7416 J1.7788
G3 X21.4663 Y3.2279 I-0.9636 J1.669
G3 X21.6472 Y3.3862 I-1.0961 J1.4353
G3 X21.8055 Y3.567 I-1.277 J1.277
G3 X21.9429 Y3.7731 I-1.5316 J1.1697
G3 X22.0527 Y3.9952 I-1.669 J0.9636
G3 X22.1302 Y4.2227 I-1.6669 J0.6949
G3 X22.1768 Y4.4585 I-1.7444 J0.4674
G3 X22.1927 Y4.7056 I-1.9113 J0.2472
G1 X22.1927 Y13.2245
G1 X22.1927 Y13.2245
G3 X22.1399 Y13.7065 I-2.2272 J0
G3 X21.984 Y14.1657 I-2.1744 J-0.4821
G3 X21.7325 Y14.5803 I-2.0185 J-0.9413
G3 X21.3971 Y14.9306 I-1.767 J-1.3558
G1 X20.1783 Y15.9534
G1 X19.7952 Y16.2748
G1 X16.9509 Y18.6614
G2 X16.8417 Y18.7756 I0.4664 J0.5558
G2 X16.7597 Y18.9106 I0.5756 J0.4417
G2 X16.7089 Y19.0602 I0.6576 J0.3066
G2 X16.6917 Y19.2172 I0.7084 J0.157
G1 X16.6917 Y20.495
G2 X16.703 Y20.5809 I0.3319 J0
G2 X16.7362 Y20.6609 I0.3205 J-0.0859
G2 X16.7889 Y20.7297 I0.2874 J-0.1659
G2 X16.8577 Y20.7824 I0.2347 J-0.2347
G2 X16.9377 Y20.8156 I0.1659 J-0.2874
G2 X17.0236 Y20.8269 I0.0859 J-0.3205
G1 X17.3799 Y20.8269
G2 X17.4493 Y20.8203 I0 J-0.3707
G2 X17.5074 Y20.8029 I-0.0557 J-0.2922
G2 X17.5608 Y20.7741 I-0.1138 J-0.2748
G2 X17.6145 Y20.7297 I-0.2084 J-0.3066
G2 X17.659 Y20.6759 I-0.2621 J-0.2621
G2 X17.6878 Y20.6226 I-0.246 J-0.1672
G2 X17.7052 Y20.5645 I-0.2748 J-0.1138
G2 X17.7117 Y20.495 I-0.3641 J-0.0695
G1 X17.7117 Y20.2019
G3 X17.8367 Y20.0769 I0.125 J0
G1 X21.1466 Y20.0769
G3 X21.3573 Y20.0968 I0 J1.1244
G3 X21.548 Y20.1538 I-0.183 J0.9594
G3 X21.7233 Y20.2484 I-0.3738 J0.9023
G3 X21.8863 Y20.3833 I-0.632 J0.9299
G3 X22.0212 Y20.5463 I-0.795 J0.795
G3 X22.1158 Y20.7215 I-0.8078 J0.549
G3 X22.1728 Y20.9123 I-0.9023 J0.3738
G3 X22.1927 Y21.123 I-1.1045 J0.2107
G1 X22.1927 Y31.3835
G1 X22.1927 Y31.9091
G1 X22.1927 Y33.4456
G3 X22.0677 Y33.5706 I-0.125 J0
G1 X18.8277 Y33.5706
G3 X18.7027 Y33.4456 I0 J-0.125
G1 X18.7027 Y31.1131
G1 X18.7027 Y30.6131
G1 X18.7027 Y26.07
G2 X18.6802 Y25.7199 I-2.7294 J0
G2 X18.6147 Y25.3886 I-2.5165 J0.3255
G2 X18.5058 Y25.069 I-2.4509 J0.6567
G2 X18.3502 Y24.7545 I-2.5193 J1.0503
G2 X18.1557 Y24.4626 I-2.3637 J1.3647
G2 X17.9333 Y24.2085 I-2.0166 J1.5401
G2 X17.6792 Y23.9861 I-1.7942 J1.7942
G2 X17.3873 Y23.7915 I-1.6566 J2.1692
G2 X17.0728 Y23.636 I-1.3647 J2.3637
G2 X16.7532 Y23.5271 I-0.9764 J2.342
G2 X16.4219 Y23.4616 I-0.6567 J2.4509
G2 X16.0718 Y23.4391 I-0.3501 J2.7069
G1 X12.1585 Y23.4391
G1 X11.6116 Y23.4391
G1 X8.9616 Y23.4391
G2 X8.4248 Y23.4898 I0 J2.8651
G2 X7.9515 Y23.6314 I0.454 J2.3803
G2 X7.5167 Y23.8659 I0.9273 J2.2388
G2 X7.1012 Y24.2096 I1.6104 J2.3696
G2 X6.7575 Y24.6251 I2.0259 J2.0259
G2 X6.523 Y25.0599 I2.0042 J1.3621
G2 X6.3814 Y25.5332 I2.2388 J0.9273
G2 X6.3307 Y26.07 I2.8143 J0.5368
G1 X6.3307 Y30.4882
G1 X6.3307 Y30.9882
G1 X6.3307 Y33.4456
G3 X6.2057 Y33.5706 I-0.125 J0
G1 X2.9657 Y33.5706
G3 X2.8407 Y33.4456 I0 J-0.125
G1 X2.8407 Y31.4869
G1 X2.8407 Y30.9869
G1 X2.8407 Y21.123
G3 X2.8606 Y20.9123 I1.1244 J0
G3 X2.9176 Y20.7215 I0.9594 J0.183
G3 X3.0122 Y20.5463 I0.9023 J0.3738
G3 X3.1471 Y20.3833 I0.9299 J0.632
G3 X3.3101 Y20.2484 I0.795 J0.795
G3 X3.4853 Y20.1538 I0.549 J0.8078
G3 X3.6761 Y20.0968 I0.3738 J0.9023
G3 X3.8868 Y20.0769 I0.2107 J1.1045
G1 X7.1967 Y20.0769
G3 X7.3217 Y20.2019 I0 J0.125
G1 X7.3217 Y20.495
G2 X7.333 Y20.5809 I0.3319 J0
G2 X7.3661 Y20.6609 I0.3205 J-0.0859
G2 X7.4189 Y20.7297 I0.2874 J-0.1659
G2 X7.4876 Y20.7824 I0.2347 J-0.2347
G2 X7.5676 Y20.8156 I0.1659 J-0.2874
G2 X7.6535 Y20.8269 I0.0859 J-0.3205
G1 X8.0098 Y20.8269
G2 X8.0957 Y20.8156 I0 J-0.3319
G2 X8.1757 Y20.7824 I-0.0859 J-0.3205
G2 X8.2445 Y20.7297 I-0.1659 J-0.2874
G2 X8.2972 Y20.6609 I-0.2347 J-0.2347
G2 X8.3303 Y20.5809 I-0.2874 J-0.1659
G2 X8.3417 Y20.495 I-0.3205 J-0.0859
G1 X8.3417 Y19.2172
G1 X8.3417 Y19.2172
G2 X8.3245 Y19.0602 I-0.7256 J0
G2 X8.2737 Y18.9106 I-0.7084 J0.157
G2 X8.1917 Y18.7756 I-0.6576 J0.3066
G2 X8.0825 Y18.6614 I-0.5756 J0.4417
G1 X4.9237 Y16.0109
G1 X4.5406 Y15.6895
G1 X3.6363 Y14.9306
G3 X3.3009 Y14.5803 I1.4316 J-1.7061
G3 X3.0493 Y14.1657 I1.767 J-1.3558
G3 X2.8935 Y13.7065 I2.0185 J-0.9413
G3 X2.8407 Y13.2245 I2.1744 J-0.4821
G1 X2.8407 Y4.7056
G3 X2.8763 Y4.3285 I2.0128 J0
G3 X2.9776 Y3.9899 I1.7032 J0.3249
G3 X3.1454 Y3.6788 I1.6019 J0.6635
G3 X3.3869 Y3.3869 I1.6648 J1.1314
G3 X3.6788 Y3.1454 I1.4233 J1.4233
G3 X3.9899 Y2.9776 I0.9746 J1.434
G3 X4.3285 Y2.8763 I0.6635 J1.6019
G3 X4.7057 Y2.8406 I0.3771 J1.9772
G1 Z-0.48 F30
G1 X12.7374 Y2.8406 F60
G1 X13.2374 Y2.8406
G1 X20.3277 Y2.8406
G3 X20.5749 Y2.8566 I0 J1.9272
G3 X20.8107 Y2.9032 I-0.2316 J1.7911
G3 X21.0382 Y2.9807 I-0.4674 J1.7444
G3 X21.2602 Y3.0905 I-0.7416 J1.7788
G3 X21.4663 Y3.2279 I-0.9636 J1.669
G3 X21.6472 Y3.3862 I-1.0961 J1.4353
G3 X21.8055 Y3.567 I-1.277 J1.277
G3 X21.9429 Y3.7731 I-1.5316 J1.1697
G3 X22.0527 Y3.9952 I-1.669 J0.9636
G3 X22.1302 Y4.2227 I-1.6669 J0.6949
G3 X22.1768 Y4.4585 I-1.7444 J0.4674
G3 X22.1927 Y4.7056 I-1.9113 J0.2472
G1 X22.1927 Y13.2245
G1 X22.1927 Y13.2245
G3 X22.1399 Y13.7065 I-2.2272 J0
G3 X21.984 Y14.1657 I-2.1744 J-0.4821
G3 X21.7325 Y14.5803 I-2.0185 J-0.9413
G3 X21.3971 Y14.9306 I-1.767 J-1.3558
G1 X20.1783 Y15.9534
G1 X19.7952 Y16.2748
G1 X16.9509 Y18.6614
G2 X16.8417 Y18.7756 I0.4664 J0.5558
G2 X16.7597 Y18.9106 I0.5756 J0.4417
G2 X16.7089 Y19.0602 I0.6576 J0.3066
G2 X16.6917 Y19.2172 I0.7084 J0.157
G1 X16.6917 Y20.495
G2 X16.703 Y20.5809 I0.3319 J0
G2 X16.7362 Y20.6609 I0.3205 J-0.0859
G2 X16.7889 Y20.7297 I0.2874 J-0.1659
G2 X16.8577 Y20.7824 I0.2347 J-0.2347
G2 X16.9377 Y20.8156 I0.1659 J-0.2874
G2 X17.0236 Y20.8269 I0.0859 J-0.3205
G1 X17.3799 Y20.8269
G2 X17.4493 Y20.8203 I0 J-0.3707
G2 X17.5074 Y20.8029 I-0.0557 J-0.2922
G2 X17.5608 Y20.7741 I-0.1138 J-0.2748
G2 X17.6145 Y20.7297 I-0.2084 J-0.3066
G2 X17.659 Y20.6759 I-0.2621 J-0.2621
G2 X17.6878 Y20.6226 I-0.246 J-0.1672
G2 X17.7052 Y20.5645 I-0.2748 J-0.1138
G2 X17.7117 Y20.495 I-0.3641 J-0.0695
G1 X17.7117 Y20.2019
G3 X17.8367 Y20.0769 I0.125 J0
G1 X21.1466 Y20.0769
G3 X21.3573 Y20.0968 I0 J1.1244
G3 X21.548 Y20.1538 I-0.183 J0.9594
G3 X21.7233 Y20.2484 I-0.3738 J0.9023
G3 X21.8863 Y20.3833 I-0.632 J0.9299
G3 X22.0212 Y20.5463 I-0.795 J0.795
G3 X22.1158 Y20.7215 I-0.8078 J0.549
G3 X22.1728 Y20.9123 I-0.9023 J0.3738
G3 X22.1927 Y21.123 I-1.1045 J0.2107
G1 X22.1927 Y31.3835
G1 X22.1927 Y31.9091
G1 X22.1927 Y33.4456
G3 X22.0677 Y33.5706 I-0.125 J0
G1 X18.8277 Y33.5706
G3 X18.7027 Y33.4456 I0 J-0.125
G1 X18.7027 Y31.1131
G1 X18.7027 Y30.6131
G1 X18.7027 Y26.07
G2 X18.6802 Y25.7199 I-2.7294 J0
G2 X18.6147 Y25.3886 I-2.5165 J0.3255
G2 X18.5058 Y25.069 I-2.4509 J0.6567
G2 X18.3502 Y24.7545 I-2.5193 J1.0503
G2 X18.1557 Y24.4626 I-2.3637 J1.3647
G2 X17.9333 Y24.2085 I-2.0166 J1.5401
G2 X17.6792 Y23.9861 I-1.7942 J1.7942
G2 X17.3873 Y23.7915 I-1.6566 J2.1692
G2 X17.0728 Y23.636 I-1.3647 J2.3637
G2 X16.7532 Y23.5271 I-0.9764 J2.342
G2 X16.4219 Y23.4616 I-0.6567 J2.4509
G2 X16.0718 Y23.4391 I-0.3501 J2.7069
G1 X12.1585 Y23.4391
G1 X11.6116 Y23.4391
G1 X8.9616 Y23.4391
G2 X8.4248 Y23.4898 I0 J2.8651
G2 X7.9515 Y23.6314 I0.454 J2.3803
G2 X7.5167 Y23.8659 I0.9273 J2.2388
G2 X7.1012 Y24.2096 I1.6104 J2.3696
G2 X6.7575 Y24.6251 I2.0259 J2.0259
G2 X6.523 Y25.0599 I2.0042 J1.3621
G2 X6.3814 Y25.5332 I2.2388 J0.9273
G2 X6.3307 Y26.07 I2.8143 J0.5368
G1 X6.3307 Y30.4882
G1 X6.3307 Y30.9882
G1 X6.3307 Y33.4456
G3 X6.2057 Y33.5706 I-0.125 J0
G1 X2.9657 Y33.5706
G3 X2.8407 Y33.4456 I0 J-0.125
G1 X2.8407 Y31.4869
G1 X2.8407 Y30.9869
G1 X2.8407 Y21.123
G3 X2.8606 Y20.9123 I1.1244 J0
G3 X2.9176 Y20.7215 I0.9594 J0.183
G3 X3.0122 Y20.5463 I0.9023 J0.3738
G3 X3.1471 Y20.3833 I0.9299 J0.632
G3 X3.3101 Y20.2484 I0.795 J0.795
G3 X3.4853 Y20.1538 I0.549 J0.8078
G3 X3.6761 Y20.0968 I0.3738 J0.9023
G3 X3.8868 Y20.0769 I0.2107 J1.1045
G1 X7.1967 Y20.0769
G3 X7.3217 Y20.2019 I0 J0.125
G1 X7.3217 Y20.495
G2 X7.333 Y20.5809 I0.3319 J0
G2 X7.3661 Y20.6609 I0.3205 J-0.0859
G2 X7.4189 Y20.7297 I0.2874 J-0.1659
G2 X7.4876 Y20.7824 I0.2347 J-0.2347
G2 X7.5676 Y20.8156 I0.1659 J-0.2874
G2 X7.6535 Y20.8269 I0.0859 J-0.3205
G1 X8.0098 Y20.8269
G2 X8.0957 Y20.8156 I0 J-0.3319
G2 X8.1757 Y20.7824 I-0.0859 J-0.3205
G2 X8.2445 Y20.7297 I-0.1659 J-0.2874
G2 X8.2972 Y20.6609 I-0.2347 J-0.2347
G2 X8.3303 Y20.5809 I-0.2874 J-0.1659
G2 X8.3417 Y20.495 I-0.3205 J-0.0859
G1 X8.3417 Y19.2172
G1 X8.3417 Y19.2172
G2 X8.3245 Y19.0602 I-0.7256 J0
G2 X8.2737 Y18.9106 I-0.7084 J0.157
G2 X8.1917 Y18.7756 I-0.6576 J0.3066
G2 X8.0825 Y18.6614 I-0.5756 J0.4417
G1 X4.9237 Y16.0109
G1 X4.5406 Y15.6895
G1 X3.6363 Y14.9306
G3 X3.3009 Y14.5803 I1.4316 J-1.7061
G3 X3.0493 Y14.1657 I1.767 J-1.3558
G3 X2.8935 Y13.7065 I2.0185 J-0.9413
G3 X2.8407 Y13.2245 I2.1744 J-0.4821
G1 X2.8407 Y4.7056
G3 X2.8763 Y4.3285 I2.0128 J0
G3 X2.9776 Y3.9899 I1.7032 J0.3249
G3 X3.1454 Y3.6788 I1.6019 J0.6635
G3 X3.3869 Y3.3869 I1.6648 J1.1314
G3 X3.6788 Y3.1454 I1.4233 J1.4233
G3 X3.9899 Y2.9776 I0.9746 J1.434
G3 X4.3285 Y2.8763 I0.6635 J1.6019
G3 X4.7057 Y2.8406 I0.3771 J1.9772
G1 Z-0.64 F30
G1 X12.7374 Y2.8406 F60
G1 Z-0.55 F30
G1 X13.2374 Y2.8406 F60
G1 Z-0.64 F30
G1 X20.3277 Y2.8406 F60
G3 X20.5749 Y2.8566 I0 J1.9272
G3 X20.8107 Y2.9032 I-0.2316 J1.7911
G3 X21.0382 Y2.9807 I-0.4674 J1.7444
G3 X21.2602 Y3.0905 I-0.7416 J1.7788
G3 X21.4663 Y3.2279 I-0.9636 J1.669
G3 X21.6472 Y3.3862 I-1.0961 J1.4353
G3 X21.8055 Y3.567 I-1.277 J1.277
G3 X21.9429 Y3.7731 I-1.5316 J1.1697
G3 X22.0527 Y3.9952 I-1.669 J0.9636
G3 X22.1302 Y4.2227 I-1.6669 J0.6949
G3 X22.1768 Y4.4585 I-1.7444 J0.4674
G3 X22.1927 Y4.7056 I-1.9113 J0.2472
G1 X22.1927 Y13.2245
G1 X22.1927 Y13.2245
G3 X22.1399 Y13.7065 I-2.2272 J0
G3 X21.984 Y14.1657 I-2.1744 J-0.4821
G3 X21.7325 Y14.5803 I-2.0185 J-0.9413
G3 X21.3971 Y14.9306 I-1.767 J-1.3558
G1 X20.1783 Y15.9534
G1 Z-0.55 F30
G1 X19.7952 Y16.2748 F60
G1 Z-0.64 F30
G1 X16.9509 Y18.6614 F60
G2 X16.8417 Y18.7756 I0.4664 J0.5558
G2 X16.7597 Y18.9106 I0.5756 J0.4417
G2 X16.7089 Y19.0602 I0.6576 J0.3066
G2 X16.6917 Y19.2172 I0.7084 J0.157
G1 X16.6917 Y20.495
G2 X16.703 Y20.5809 I0.3319 J0
G2 X16.7362 Y20.6609 I0.3205 J-0.0859
G2 X16.7889 Y20.7297 I0.2874 J-0.1659
G2 X16.8577 Y20.7824 I0.2347 J-0.2347
G2 X16.9377 Y20.8156 I0.1659 J-0.2874
G2 X17.0236 Y20.8269 I0.0859 J-0.3205
G1 X17.3799 Y20.8269
G2 X17.4493 Y20.8203 I0 J-0.3707
G2 X17.5074 Y20.8029 I-0.0557 J-0.2922
G2 X17.5608 Y20.7741 I-0.1138 J-0.2748
G2 X17.6145 Y20.7297 I-0.2084 J-0.3066
G2 X17.659 Y20.6759 I-0.2621 J-0.2621
G2 X17.6878 Y20.6226 I-0.246 J-0.1672
G2 X17.7052 Y20.5645 I-0.2748 J-0.1138
G2 X17.7117 Y20.495 I-0.3641 J-0.0695
G1 X17.7117 Y20.2019
G3 X17.8367 Y20.0769 I0.125 J0
G1 X21.1466 Y20.0769
G3 X21.3573 Y20.0968 I0 J1.1244
G3 X21.548 Y20.1538 I-0.183 J0.9594
G3 X21.7233 Y20.2484 I-0.3738 J0.9023
G3 X21.8863 Y20.3833 I-0.632 J0.9299
G3 X22.0212 Y20.5463 I-0.795 J0.795
G3 X22.1158 Y20.7215 I-0.8078 J0.549
G3 X22.1728 Y20.9123 I-0.9023 J0.3738
G3 X22.1927 Y21.123 I-1.1045 J0.2107
G1 X22.1927 Y31.3835
G1 Z-0.55 F30
G1 X22.1927 Y31.9091 F60
G1 Z-0.64 F30
G1 X22.1927 Y33.4456 F60
G3 X22.0677 Y33.5706 I-0.125 J0
G1 X18.8277 Y33.5706
G3 X18.7027 Y33.4456 I0 J-0.125
G1 X18.7027 Y31.1131
G1 Z-0.55 F30
G1 X18.7027 Y30.6131 F60
G1 Z-0.64 F30
G1 X18.7027 Y26.07 F60
G2 X18.6802 Y25.7199 I-2.7294 J0
G2 X18.6147 Y25.3886 I-2.5165 J0.3255
G2 X18.5058 Y25.069 I-2.4509 J0.6567
G2 X18.3502 Y24.7545 I-2.5193 J1.0503
G2 X18.1557 Y24.4626 I-2.3637 J1.3647
G2 X17.9333 Y24.2085 I-2.0166 J1.5401
G2 X17.6792 Y23.9861 I-1.7942 J1.7942
G2 X17.3873 Y23.7915 I-1.6566 J2.1692
G2 X17.0728 Y23.636 I-1.3647 J2.3637
G2 X16.7532 Y23.5271 I-0.9764 J2.342
G2 X16.4219 Y23.4616 I-0.6567 J2.4509
G2 X16.0718 Y23.4391 I-0.3501 J2.7069
G1 X12.1585 Y23.4391
G1 Z-0.55 F30
G1 X11.6116 Y23.4391 F60
G1 Z-0.64 F30
G1 X8.9616 Y23.4391 F60
G2 X8.4248 Y23.4898 I0 J2.8651
G2 X7.9515 Y23.6314 I0.454 J2.3803
G2 X7.5167 Y23.8659 I0.9273 J2.2388
G2 X7.1012 Y24.2096 I1.6104 J2.3696
G2 X6.7575 Y24.6251 I2.0259 J2.0259
G2 X6.523 Y25.0599 I2.0042 J1.3621
G2 X6.3814 Y25.5332 I2.2388 J0.9273
G2 X6.3307 Y26.07 I2.8143 J0.5368
G1 X6.3307 Y30.4882
G1 Z-0.55 F30
G1 X6.3307 Y30.9882 F60
G1 Z-0.64 F30
G1 X6.3307 Y33.4456 F60
G3 X6.2057 Y33.5706 I-0.125 J0
G1 X2.9657 Y33.5706
G3 X2.8407 Y33.4456 I0 J-0.125
G1 X2.8407 Y31.4869
G1 Z-0.55 F30
G1 X2.8407 Y30.9869 F60
G1 Z-0.64 F30
G1 X2.8407 Y21.123 F60
G3 X2.8606 Y20.9123 I1.1244 J0
G3 X2.9176 Y20.7215 I0.9594 J0.183
G3 X3.0122 Y20.5463 I0.9023 J0.3738
G3 X3.1471 Y20.3833 I0.9299 J0.632
G3 X3.3101 Y20.2484 I0.795 J0.795
G3 X3.4853 Y20.1538 I0.549 J0.8078
G3 X3.6761 Y20.0968 I0.3738 J0.9023
G3 X3.8868 Y20.0769 I0.2107 J1.1045
G1 X7.1967 Y20.0769
G3 X7.3217 Y20.2019 I0 J0.125
G1 X7.3217 Y20.495
G2 X7.333 Y20.5809 I0.3319 J0
G2 X7.3661 Y20.6609 I0.3205 J-0.0859
G2 X7.4189 Y20.7297 I0.2874 J-0.1659
G2 X7.4876 Y20.7824 I0.2347 J-0.2347
G2 X7.5676 Y20.8156 I0.1659 J-0.2874
G2 X7.6535 Y20.8269 I0.0859 J-0.3205
G1 X8.0098 Y20.8269
G2 X8.0957 Y20.8156 I0 J-0.3319
G2 X8.1757 Y20.7824 I-0.0859 J-0.3205
G2 X8.2445 Y20.7297 I-0.1659 J-0.2874
G2 X8.2972 Y20.6609 I-0.2347 J-0.2347
G2 X8.3303 Y20.5809 I-0.2874 J-0.1659
G2 X8.3417 Y20.495 I-0.3205 J-0.0859
G1 X8.3417 Y19.2172
G1 X8.3417 Y19.2172
G2 X8.3245 Y19.0602 I-0.7256 J0
G2 X8.2737 Y18.9106 I-0.7084 J0.157
G2 X8.1917 Y18.7756 I-0.6576 J0.3066
G2 X8.0825 Y18.6614 I-0.5756 J0.4417
G1 X4.9237 Y16.0109
G1 Z-0.55 F30
G1 X4.5406 Y15.6895 F60
G1 Z-0.64 F30
G1 X3.6363 Y14.9306 F60
G3 X3.3009 Y14.5803 I1.4316 J-1.7061
G3 X3.0493 Y14.1657 I1.767 J-1.3558
G3 X2.8935 Y13.7065 I2.0185 J-0.9413
G3 X2.8407 Y13.2245 I2.1744 J-0.4821
G1 X2.8407 Y4.7056
G3 X2.8763 Y4.3285 I2.0128 J0
G3 X2.9776 Y3.9899 I1.7032 J0.3249
G3 X3.1454 Y3.6788 I1.6019 J0.6635
G3 X3.3869 Y3.3869 I1.6648 J1.1314
G3 X3.6788 Y3.1454 I1.4233 J1.4233
G3 X3.9899 Y2.9776 I0.9746 J1.434
G3 X4.3285 Y2.8763 I0.6635 J1.6019
G3 X4.7057 Y2.8406 I0.3771 J1.9772
G1 Z-0.8 F30
G1 X12.7374 Y2.8406 F60
G1 Z-0.55 F30
G1 X13.2374 Y2.8406 F60
G1 Z-0.8 F30
G1 X20.3277 Y2.8406 F60
G3 X20.5749 Y2.8566 I0 J1.9272
G3 X20.8107 Y2.9032 I-0.2316 J1.7911
G3 X21.0382 Y2.9807 I-0.4674 J1.7444
G3 X21.2602 Y3.0905 I-0.7416 J1.7788
G3 X21.4663 Y3.2279 I-0.9636 J1.669
G3 X21.6472 Y3.3862 I-1.0961 J1.4353
G3 X21.8055 Y3.567 I-1.277 J1.277
G3 X21.9429 Y3.7731 I-1.5316 J1.1697
G3 X22.0527 Y3.9952 I-1.669 J0.9636
G3 X22.1302 Y4.2227 I-1.6669 J0.6949
G3 X22.1768 Y4.4585 I-1.7444 J0.4674
G3 X22.1927 Y4.7056 I-1.9113 J0.2472
G1 X22.1927 Y13.2245
G1 X22.1927 Y13.2245
G3 X22.1399 Y13.7065 I-2.2272 J0
G3 X21.984 Y14.1657 I-2.1744 J-0.4821
G3 X21.7325 Y14.5803 I-2.0185 J-0.9413
G3 X21.3971 Y14.9306 I-1.767 J-1.3558
G1 X20.1783 Y15.9534
G1 Z-0.55 F30
G1 X19.7952 Y16.2748 F60
G1 Z-0.8 F30
G1 X16.9509 Y18.6614 F60
G2 X16.8417 Y18.7756 I0.4664 J0.5558
G2 X16.7597 Y18.9106 I0.5756 J0.4417
G2 X16.7089 Y19.0602 I0.6576 J0.3066
G2 X16.6917 Y19.2172 I0.7084 J0.157
G1 X16.6917 Y20.495
G2 X16.703 Y20.5809 I0.3319 J0
G2 X16.7362 Y20.6609 I0.3205 J-0.0859
G2 X16.7889 Y20.7297 I0.2874 J-0.1659
G2 X16.8577 Y20.7824 I0.2347 J-0.2347
G2 X16.9377 Y20.8156 I0.1659 J-0.2874
G2 X17.0236 Y20.8269 I0.0859 J-0.3205
G1 X17.3799 Y20.8269
G2 X17.4493 Y20.8203 I0 J-0.3707
G2 X17.5074 Y20.8029 I-0.0557 J-0.2922
G2 X17.5608 Y20.7741 I-0.1138 J-0.2748
G2 X17.6145 Y20.7297 I-0.2084 J-0.3066
G2 X17.659 Y20.6759 I-0.2621 J-0.2621
G2 X17.6878 Y20.6226 I-0.246 J-0.1672
G2 X17.7052 Y20.5645 I-0.2748 J-0.1138
G2 X17.7117 Y20.495 I-0.3641 J-0.0695
G1 X17.7117 Y20.2019
G3 X17.8367 Y20.0769 I0.125 J0
G1 X21.1466 Y20.0769
G3 X21.3573 Y20.0968 I0 J1.1244
G3 X21.548 Y20.1538 I-0.183 J0.9594
G3 X21.7233 Y20.2484 I-0.3738 J0.9023
G3 X21.8863 Y20.3833 I-0.632 J0.9299
G3 X22.0212 Y20.5463 I-0.795 J0.795
G3 X22.1158 Y20.7215 I-0.8078 J0.549
G3 X22.1728 Y20.9123 I-0.9023 J0.3738
G3 X22.1927 Y21.123 I-1.1045 J0.2107
G1 X22.1927 Y31.3835
G1 Z-0.55 F30
G1 X22.1927 Y31.9091 F60
G1 Z-0.8 F30
G1 X22.1927 Y33.4456 F60
G3 X22.0677 Y33.5706 I-0.125 J0
G1 X18.8277 Y33.5706
G3 X18.7027 Y33.4456 I0 J-0.125
G1 X18.7027 Y31.1131
G1 Z-0.55 F30
G1 X18.7027 Y30.6131 F60
G1 Z-0.8 F30
G1 X18.7027 Y26.07 F60
G2 X18.6802 Y25.7199 I-2.7294 J0
G2 X18.6147 Y25.3886 I-2.5165 J0.3255
G2 X18.5058 Y25.069 I-2.4509 J0.6567
G2 X18.3502 Y24.7545 I-2.5193 J1.0503
G2 X18.1557 Y24.4626 I-2.3637 J1.3647
G2 X17.9333 Y24.2085 I-2.0166 J1.5401
G2 X17.6792 Y23.9861 I-1.7942 J1.7942
G2 X17.3873 Y23.7915 I-1.6566 J2.1692
G2 X17.0728 Y23.636 I-1.3647 J2.3637
G2 X16.7532 Y23.5271 I-0.9764 J2.342
G2 X16.4219 Y23.4616 I-0.6567 J2.4509
G2 X16.0718 Y23.4391 I-0.3501 J2.7069
G1 X12.1585 Y23.4391
G1 Z-0.55 F30
G1 X11.6116 Y23.4391 F60
G1 Z-0.8 F30
G1 X8.9616 Y23.4391 F60
G2 X8.4248 Y23.4898 I0 J2.8651
G2 X7.9515 Y23.6314 I0.454 J2.3803
G2 X7.5167 Y23.8659 I0.9273 J2.2388
G2 X7.1012 Y24.2096 I1.6104 J2.3696
G2 X6.7575 Y24.6251 I2.0259 J2.0259
G2 X6.523 Y25.0599 I2.0042 J1.3621
G2 X6.3814 Y25.5332 I2.2388 J0.9273
G2 X6.3307 Y26.07 I2.8143 J0.5368
G1 X6.3307 Y30.4882
G1 Z-0.55 F30
G1 X6.3307 Y30.9882 F60
G1 Z-0.8 F30
G1 X6.3307 Y33.4456 F60
G3 X6.2057 Y33.5706 I-0.125 J0
G1 X2.9657 Y33.5706
G3 X2.8407 Y33.4456 I0 J-0.125
G1 X2.8407 Y31.4869
G1 Z-0.55 F30
G1 X2.8407 Y30.9869 F60
G1 Z-0.8 F30
G1 X2.8407 Y21.123 F60
G3 X2.8606 Y20.9123 I1.1244 J0
G3 X2.9176 Y20.7215 I0.9594 J0.183
G3 X3.0122 Y20.5463 I0.9023 J0.3738
G3 X3.1471 Y20.3833 I0.9299 J0.632
G3 X3.3101 Y20.2484 I0.795 J0.795
G3 X3.4853 Y20.1538 I0.549 J0.8078
G3 X3.6761 Y20.0968 I0.3738 J0.9023
G3 X3.8868 Y20.0769 I0.2107 J1.1045
G1 X7.1967 Y20.0769
G3 X7.3217 Y20.2019 I0 J0.125
G1 X7.3217 Y20.495
G2 X7.333 Y20.5809 I0.3319 J0
G2 X7.3661 Y20.6609 I0.3205 J-0.0859
G2 X7.4189 Y20.7297 I0.2874 J-0.1659
G2 X7.4876 Y20.7824 I0.2347 J-0.2347
G2 X7.5676 Y20.8156 I0.1659 J-0.2874
G2 X7.6535 Y20.8269 I0.0859 J-0.3205
G1 X8.0098 Y20.8269
G2 X8.0957 Y20.8156 I0 J-0.3319
G2 X8.1757 Y20.7824 I-0.0859 J-0.3205
G2 X8.2445 Y20.7297 I-0.1659 J-0.2874
G2 X8.2972 Y20.6609 I-0.2347 J-0.2347
G2 X8.3303 Y20.5809 I-0.2874 J-0.1659
G2 X8.3417 Y20.495 I-0.3205 J-0.0859
G1 X8.3417 Y19.2172
G1 X8.3417 Y19.2172
G2 X8.3245 Y19.0602 I-0.7256 J0
G2 X8.2737 Y18.9106 I-0.7084 J0.157
G2 X8.1917 Y18.7756 I-0.6576 J0.3066
G2 X8.0825 Y18.6614 I-0.5756 J0.4417
G1 X4.9237 Y16.0109
G1 Z-0.55 F30
G1 X4.5406 Y15.6895 F60
G1 Z-0.8 F30
G1 X3.6363 Y14.9306 F60
G3 X3.3009 Y14.5803 I1.4316 J-1.7061
G3 X3.0493 Y14.1657 I1.767 J-1.3558
G3 X2.8935 Y13.7065 I2.0185 J-0.9413
G3 X2.8407 Y13.2245 I2.1744 J-0.4821
G1 X2.8407 Y4.7056
G3 X2.8763 Y4.3285 I2.0128 J0
G3 X2.9776 Y3.9899 I1.7032 J0.3249
G3 X3.1454 Y3.6788 I1.6019 J0.6635
G3 X3.3869 Y3.3869 I1.6648 J1.1314
G3 X3.6788 Y3.1454 I1.4233 J1.4233
G3 X3.9899 Y2.9776 I0.9746 J1.434
G3 X4.3285 Y2.8763 I0.6635 J1.6019
G3 X4.7057 Y2.8406 I0.3771 J1.9772

(Top Part)
G0 Z0.15
G0 X19.5677 Y34.5706
G1 Z-0.16 F30
G1 X5.4657 Y34.5706 F60
G3 X5.3407 Y34.4456 I0 J-0.125
G1 X5.3407 Y33.7056
G3 X5.4657 Y33.5806 I0.125 J0
G1 X6.3407 Y33.5806
G1 X6.3407 Y26.07
G3 X6.3631 Y25.7224 I2.7101 J0
G3 X6.4285 Y25.3913 I2.5153 J0.3253
G3 X6.5374 Y25.0718 I2.4498 J0.6564
G3 X6.6918 Y24.7595 I2.5015 J1.0428
G3 X6.885 Y24.4697 I2.347 J1.3551
G3 X7.1073 Y24.2157 I2.0156 J1.5394
G3 X7.3613 Y23.9934 I1.7934 J1.7934
G3 X7.6511 Y23.8002 I1.6449 J2.1538
G3 X7.9634 Y23.6458 I1.3551 J2.347
G3 X8.2828 Y23.5369 I0.9759 J2.3409
G3 X8.614 Y23.4715 I0.6564 J2.4498
G3 X8.9616 Y23.4491 I0.3476 J2.6877
G1 X16.0718 Y23.4491
G3 X16.4194 Y23.4715 I0 J2.7101
G3 X16.7505 Y23.5369 I-0.3253 J2.5153
G3 X17.07 Y23.6458 I-0.6564 J2.4498
G3 X17.3823 Y23.8002 I-1.0428 J2.5015
G3 X17.6721 Y23.9934 I-1.3551 J2.347
G3 X17.9261 Y24.2157 I-1.5394 J2.0156
G3 X18.1484 Y24.4697 I-1.7934 J1.7934
G3 X18.3416 Y24.7595 I-2.1538 J1.6449
G3 X18.496 Y25.0718 I-2.347 J1.3551
G3 X18.6049 Y25.3913 I-2.3409 J0.9759
G3 X18.6703 Y25.7224 I-2.4498 J0.6564
G3 X18.6927 Y26.07 I-2.6877 J0.3476
G1 X18.6927 Y33.5806
G1 X19.5677 Y33.5806
G3 X19.6927 Y33.7056 I0 J0.125
G1 X19.6927 Y34.4456
G3 X19.5677 Y34.5706 I-0.125 J0
G1 Z-0.32 F30
G1 X5.4657 Y34.5706 F60
G3 X5.3407 Y34.4456 I0 J-0.125
G1 X5.3407 Y33.7056
G3 X5.4657 Y33.5806 I0.125 J0
G1 X6.3407 Y33.5806
G1 X6.3407 Y26.07
G3 X6.3631 Y25.7224 I2.7101 J0
G3 X6.4285 Y25.3913 I2.5153 J0.3253
G3 X6.5374 Y25.0718 I2.4498 J0.6564
G3 X6.6918 Y24.7595 I2.5015 J1.0428
G3 X6.885 Y24.4697 I2.347 J1.3551
G3 X7.1073 Y24.2157 I2.0156 J1.5394
G3 X7.3613 Y23.9934 I1.7934 J1.7934
G3 X7.6511 Y23.8002 I1.6449 J2.1538
G3 X7.9634 Y23.6458 I1.3551 J2.347
G3 X8.2828 Y23.5369 I0.9759 J2.3409
G3 X8.614 Y23.4715 I0.6564 J2.4498
G3 X8.9616 Y23.4491 I0.3476 J2.6877
G1 X16.0718 Y23.4491
G3 X16.4194 Y23.4715 I0 J2.7101
G3 X16.7505 Y23.5369 I-0.3253 J2.5153
G3 X17.07 Y23.6458 I-0.6564 J2.4498
G3 X17.3823 Y23.8002 I-1.0428 J2.5015
G3 X17.6721 Y23.9934 I-1.3551 J2.347
G3 X17.9261 Y24.2157 I-1.5394 J2.0156
G3 X18.1484 Y24.4697 I-1.7934 J1.7934
G3 X18.3416 Y24.7595 I-2.1538 J1.6449
G3 X18.496 Y25.0718 I-2.347 J1.3551
G3 X18.6049 Y25.3913 I-2.3409 J0.9759
G3 X18.6703 Y25.7224 I-2.4498 J0.6564
G3 X18.6927 Y26.07 I-2.6877 J0.3476
G1 X18.6927 Y33.5806
G1 X19.5677 Y33.5806
G3 X19.6927 Y33.7056 I0 J0.125
G1 X19.6927 Y34.4456
G3 X19.5677 Y34.5706 I-0.125 J0
G1 Z-0.48 F30
G1 X5.4657 Y34.5706 F60
G3 X5.3407 Y34.4456 I0 J-0.125
G1 X5.3407 Y33.7056
G3 X5.4657 Y33.5806 I0.125 J0
G1 X6.3407 Y33.5806
G1 X6.3407 Y26.07
G3 X6.3631 Y25.7224 I2.7101 J0
G3 X6.4285 Y25.3913 I2.5153 J0.3253
G3 X6.5374 Y25.0718 I2.4498 J0.6564
G3 X6.6918 Y24.7595 I2.5015 J1.0428
G3 X6.885 Y24.4697 I2.347 J1.3551
G3 X7.1073 Y24.2157 I2.0156 J1.5394
G3 X7.3613 Y23.9934 I1.7934 J1.7934
G3 X7.6511 Y23.8002 I1.6449 J2.1538
G3 X7.9634 Y23.6458 I1.3551 J2.347
G3 X8.2828 Y23.5369 I0.9759 J2.3409
G3 X8.614 Y23.4715 I0.6564 J2.4498
G3 X8.9616 Y23.4491 I0.3476 J2.6877
G1 X16.0718 Y23.4491
G3 X16.4194 Y23.4715 I0 J2.7101
G3 X16.7505 Y23.5369 I-0.3253 J2.5153
G3 X17.07 Y23.6458 I-0.6564 J2.4498
G3 X17.3823 Y23.8002 I-1.0428 J2.5015
G3 X17.6721 Y23.9934 I-1.3551 J2.347
G3 X17.9261 Y24.2157 I-1.5394 J2.0156
G3 X18.1484 Y24.4697 I-1.7934 J1.7934
G3 X18.3416 Y24.7595 I-2.1538 J1.6449
G3 X18.496 Y25.0718 I-2.347 J1.3551
G3 X18.6049 Y25.3913 I-2.3409 J0.9759
G3 X18.6703 Y25.7224 I-2.4498 J0.6564
G3 X18.6927 Y26.07 I-2.6877 J0.3476
G1 X18.6927 Y33.5806
G1 X19.5677 Y33.5806
G3 X19.6927 Y33.7056 I0 J0.125
G1 X19.6927 Y34.4456
G3 X19.5677 Y34.5706 I-0.125 J0
G1 Z-0.64 F30
G1 X5.4657 Y34.5706 F60
G3 X5.3407 Y34.4456 I0 J-0.125
G1 X5.3407 Y33.7056
G3 X5.4657 Y33.5806 I0.125 J0
G1 X6.3407 Y33.5806
G1 X6.3407 Y26.07
G3 X6.3631 Y25.7224 I2.7101 J0
G3 X6.4285 Y25.3913 I2.5153 J0.3253
G3 X6.5374 Y25.0718 I2.4498 J0.6564
G3 X6.6918 Y24.7595 I2.5015 J1.0428
G3 X6.885 Y24.4697 I2.347 J1.3551
G3 X7.1073 Y24.2157 I2.0156 J1.5394
G3 X7.3613 Y23.9934 I1.7934 J1.7934
G3 X7.6511 Y23.8002 I1.6449 J2.1538
G3 X7.9634 Y23.6458 I1.3551 J2.347
G3 X8.2828 Y23.5369 I0.9759 J2.3409
G3 X8.614 Y23.4715 I0.6564 J2.4498
G3 X8.9616 Y23.4491 I0.3476 J2.6877
G1 X16.0718 Y23.4491
G3 X16.4194 Y23.4715 I0 J2.7101
G3 X16.7505 Y23.5369 I-0.3253 J2.5153
G3 X17.07 Y23.6458 I-0.6564 J2.4498
G3 X17.3823 Y23.8002 I-1.0428 J2.5015
G3 X17.6721 Y23.9934 I-1.3551 J2.347
G3 X17.9261 Y24.2157 I-1.5394 J2.0156
G3 X18.1484 Y24.4697 I-1.7934 J1.7934
G3 X18.3416 Y24.7595 I-2.1538 J1.6449
G3 X18.496 Y25.0718 I-2.347 J1.3551
G3 X18.6049 Y25.3913 I-2.3409 J0.9759
G3 X18.6703 Y25.7224 I-2.4498 J0.6564
G3 X18.6927 Y26.07 I-2.6877 J0.3476
G1 X18.6927 Y33.5806
G1 X19.5677 Y33.5806
G3 X19.6927 Y33.7056 I0 J0.125
G1 X19.6927 Y34.4456
G3 X19.5677 Y34.5706 I-0.125 J0
G1 Z-0.8 F30
G1 X5.4657 Y34.5706 F60
G3 X5.3407 Y34.4456 I0 J-0.125
G1 X5.3407 Y33.7056
G3 X5.4657 Y33.5806 I0.125 J0
G1 X6.3407 Y33.5806
G1 X6.3407 Y26.07
G3 X6.3631 Y25.7224 I2.7101 J0
G3 X6.4285 Y25.3913 I2.5153 J0.3253
G3 X6.5374 Y25.0718 I2.4498 J0.6564
G3 X6.6918 Y24.7595 I2.5015 J1.0428
G3 X6.885 Y24.4697 I2.347 J1.3551
G3 X7.1073 Y24.2157 I2.0156 J1.5394
G3 X7.3613 Y23.9934 I1.7934 J1.7934
G3 X7.6511 Y23.8002 I1.6449 J2.1538
G3 X7.9634 Y23.6458 I1.3551 J2.347
G3 X8.2828 Y23.5369 I0.9759 J2.3409
G3 X8.614 Y23.4715 I0.6564 J2.4498
G3 X8.9616 Y23.4491 I0.3476 J2.6877
G1 X16.0718 Y23.4491
G3 X16.4194 Y23.4715 I0 J2.7101
G3 X16.7505 Y23.5369 I-0.3253 J2.5153
G3 X17.07 Y23.6458 I-0.6564 J2.4498
G3 X17.3823 Y23.8002 I-1.0428 J2.5015
G3 X17.6721 Y23.9934 I-1.3551 J2.347
G3 X17.9261 Y24.2157 I-1.5394 J2.0156
G3 X18.1484 Y24.4697 I-1.7934 J1.7934
G3 X18.3416 Y24.7595 I-2.1538 J1.6449
G3 X18.496 Y25.0718 I-2.347 J1.3551
G3 X18.6049 Y25.3913 I-2.3409 J0.9759
G3 X18.6703 Y25.7224 I-2.4498 J0.6564
G3 X18.6927 Y26.07 I-2.6877 J0.3476
G1 X18.6927 Y33.5806
G1 X19.5677 Y33.5806
G3 X19.6927 Y33.7056 I0 J0.125
G1 X19.6927 Y34.4456
G3 X19.5677 Y34.5706 I-0.125 J0

(Ouside Edge)
G0 Z0.15
G0 X0.5807 Y32.7056
G1 Z-0.16 F30
G1 X0.5807 Y7.7056 F60
G1 X0.5807 Y7.2056
G1 X0.5807 Y4.7056
G3 X0.6001 Y4.2818 I4.6391 J0
G3 X0.6561 Y3.8841 I4.125 J0.3785
G3 X0.7513 Y3.4936 I3.9092 J0.7457
G3 X0.8831 Y3.1223 I3.6617 J1.0908
G3 X1.0525 Y2.7665 I3.5299 J1.4621
G3 X1.2613 Y2.4231 I3.5003 J1.8936
G3 X1.5029 Y2.1023 I3.426 J2.3284
G3 X1.7889 Y1.7888 I3.5664 J2.9669
G3 X2.1023 Y1.5028 I3.2804 J3.2804
G3 X2.4231 Y1.2613 I2.6492 J3.1844
G3 X2.7665 Y1.0524 I2.237 J3.2915
G3 X3.1223 Y0.8831 I1.8179 J3.3605
G3 X3.4937 Y0.7512 I1.4621 J3.5299
G3 X3.8842 Y0.6561 I1.1361 J3.814
G3 X4.2818 Y0.6001 I0.7761 J4.0689
G3 X4.7057 Y0.5806 I0.4238 J4.6197
G1 X18.9831 Y0.5806
G1 X19.4831 Y0.5806
G1 X20.3277 Y0.5806
G3 X20.7516 Y0.6001 I0 J4.6391
G3 X21.1492 Y0.6561 I-0.3785 J4.125
G3 X21.5397 Y0.7512 I-0.7457 J3.9092
G3 X21.9111 Y0.8831 I-1.0908 J3.6617
G3 X22.2669 Y1.0524 I-1.4621 J3.5299
G3 X22.6103 Y1.2613 I-1.8936 J3.5003
G3 X22.9311 Y1.5028 I-2.3284 J3.426
G3 X23.2445 Y1.7888 I-2.9669 J3.5664
G3 X23.5305 Y2.1023 I-3.2804 J3.2804
G3 X23.7721 Y2.4231 I-3.1844 J2.6492
G3 X23.9809 Y2.7665 I-3.2915 J2.237
G3 X24.1503 Y3.1223 I-3.3605 J1.8179
G3 X24.2821 Y3.4936 I-3.5299 J1.4621
G3 X24.3773 Y3.8841 I-3.814 J1.1361
G3 X24.4333 Y4.2818 I-4.0689 J0.7761
G3 X24.4527 Y4.7056 I-4.6197 J0.4238
G1 X24.4527 Y26.5305
G1 X24.4527 Y27.0305
G1 X24.4527 Y32.7056
G3 X24.4333 Y33.1295 I-4.6391 J0
G3 X24.3773 Y33.5272 I-4.125 J-0.3785
G3 X24.2821 Y33.9177 I-3.9092 J-0.7457
G3 X24.1503 Y34.289 I-3.6617 J-1.0908
G3 X23.9809 Y34.6448 I-3.5299 J-1.4621
G3 X23.7721 Y34.9882 I-3.5003 J-1.8936
G3 X23.5305 Y35.309 I-3.426 J-2.3284
G3 X23.2445 Y35.6225 I-3.5664 J-2.9669
G3 X22.9311 Y35.9085 I-3.2804 J-3.2804
G3 X22.6103 Y36.15 I-2.6492 J-3.1844
G3 X22.2669 Y36.3589 I-2.237 J-3.2915
G3 X21.9111 Y36.5282 I-1.8179 J-3.3605
G3 X21.5397 Y36.6601 I-1.4621 J-3.5299
G3 X21.1492 Y36.7552 I-1.1361 J-3.814
G3 X20.7516 Y36.8112 I-0.7761 J-4.0689
G3 X20.3277 Y36.8306 I-0.4238 J-4.6197
G1 X6.5031 Y36.8306
G1 X6.0031 Y36.8306
G1 X4.7057 Y36.8306
G3 X4.2818 Y36.8112 I0 J-4.6391
G3 X3.8842 Y36.7552 I0.3785 J-4.125
G3 X3.4937 Y36.6601 I0.7457 J-3.9092
G3 X3.1223 Y36.5282 I1.0908 J-3.6617
G3 X2.7665 Y36.3589 I1.4621 J-3.5299
G3 X2.4231 Y36.15 I1.8936 J-3.5003
G3 X2.1023 Y35.9085 I2.3284 J-3.426
G3 X1.7889 Y35.6225 I2.9669 J-3.5664
G3 X1.5029 Y35.309 I3.2804 J-3.2804
G3 X1.2613 Y34.9882 I3.1844 J-2.6492
G3 X1.0525 Y34.6448 I3.2915 J-2.237
G3 X0.8831 Y34.289 I3.3605 J-1.8179
G3 X0.7513 Y33.9177 I3.5299 J-1.4621
G3 X0.6561 Y33.5272 I3.814 J-1.1361
G3 X0.6001 Y33.1295 I4.0689 J-0.7761
G3 X0.5807 Y32.7056 I4.6197 J-0.4238
G1 Z-0.32 F30
G1 X0.5807 Y7.7056 F60
G1 X0.5807 Y7.2056
G1 X0.5807 Y4.7056
G3 X0.6001 Y4.2818 I4.6391 J0
G3 X0.6561 Y3.8841 I4.125 J0.3785
G3 X0.7513 Y3.4936 I3.9092 J0.7457
G3 X0.8831 Y3.1223 I3.6617 J1.0908
G3 X1.0525 Y2.7665 I3.5299 J1.4621
G3 X1.2613 Y2.4231 I3.5003 J1.8936
G3 X1.5029 Y2.1023 I3.426 J2.3284
G3 X1.7889 Y1.7888 I3.5664 J2.9669
G3 X2.1023 Y1.5028 I3.2804 J3.2804
G3 X2.4231 Y1.2613 I2.6492 J3.1844
G3 X2.7665 Y1.0524 I2.237 J3.2915
G3 X3.1223 Y0.8831 I1.8179 J3.3605
G3 X3.4937 Y0.7512 I1.4621 J3.5299
G3 X3.8842 Y0.6561 I1.1361 J3.814
G3 X4.2818 Y0.6001 I0.7761 J4.0689
G3 X4.7057 Y0.5806 I0.4238 J4.6197
G1 X18.9831 Y0.5806
G1 X19.4831 Y0.5806
G1 X20.3277 Y0.5806
G3 X20.7516 Y0.6001 I0 J4.6391
G3 X21.1492 Y0.6561 I-0.3785 J4.125
G3 X21.5397 Y0.7512 I-0.7457 J3.9092
G3 X21.9111 Y0.8831 I-1.0908 J3.6617
G3 X22.2669 Y1.0524 I-1.4621 J3.5299
G3 X22.6103 Y1.2613 I-1.8936 J3.5003
G3 X22.9311 Y1.5028 I-2.3284 J3.426
G3 X23.2445 Y1.7888 I-2.9669 J3.5664
G3 X23.5305 Y2.1023 I-3.2804 J3.2804
G3 X23.7721 Y2.4231 I-3.1844 J2.6492
G3 X23.9809 Y2.7665 I-3.2915 J2.237
G3 X24.1503 Y3.1223 I-3.3605 J1.8179
G3 X24.2821 Y3.4936 I-3.5299 J1.4621
G3 X24.3773 Y3.8841 I-3.814 J1.1361
G3 X24.4333 Y4.2818 I-4.0689 J0.7761
G3 X24.4527 Y4.7056 I-4.6197 J0.4238
G1 X24.4527 Y26.5305
G1 X24.4527 Y27.0305
G1 X24.4527 Y32.7056
G3 X24.4333 Y33.1295 I-4.6391 J0
G3 X24.3773 Y33.5272 I-4.125 J-0.3785
G3 X24.2821 Y33.9177 I-3.9092 J-0.7457
G3 X24.1503 Y34.289 I-3.6617 J-1.0908
G3 X23.9809 Y34.6448 I-3.5299 J-1.4621
G3 X23.7721 Y34.9882 I-3.5003 J-1.8936
G3 X23.5305 Y35.309 I-3.426 J-2.3284
G3 X23.2445 Y35.6225 I-3.5664 J-2.9669
G3 X22.9311 Y35.9085 I-3.2804 J-3.2804
G3 X22.6103 Y36.15 I-2.6492 J-3.1844
G3 X22.2669 Y36.3589 I-2.237 J-3.2915
G3 X21.9111 Y36.5282 I-1.8179 J-3.3605
G3 X21.5397 Y36.6601 I-1.4621 J-3.5299
G3 X21.1492 Y36.7552 I-1.1361 J-3.814
G3 X20.7516 Y36.8112 I-0.7761 J-4.0689
G3 X20.3277 Y36.8306 I-0.4238 J-4.6197
G1 X6.5031 Y36.8306
G1 X6.0031 Y36.8306
G1 X4.7057 Y36.8306
G3 X4.2818 Y36.8112 I0 J-4.6391
G3 X3.8842 Y36.7552 I0.3785 J-4.125
G3 X3.4937 Y36.6601 I0.7457 J-3.9092
G3 X3.1223 Y36.5282 I1.0908 J-3.6617
G3 X2.7665 Y36.3589 I1.4621 J-3.5299
G3 X2.4231 Y36.15 I1.8936 J-3.5003
G3 X2.1023 Y35.9085 I2.3284 J-3.426
G3 X1.7889 Y35.6225 I2.9669 J-3.5664
G3 X1.5029 Y35.309 I3.2804 J-3.2804
G3 X1.2613 Y34.9882 I3.1844 J-2.6492
G3 X1.0525 Y34.6448 I3.2915 J-2.237
G3 X0.8831 Y34.289 I3.3605 J-1.8179
G3 X0.7513 Y33.9177 I3.5299 J-1.4621
G3 X0.6561 Y33.5272 I3.814 J-1.1361
G3 X0.6001 Y33.1295 I4.0689 J-0.7761
G3 X0.5807 Y32.7056 I4.6197 J-0.4238
G1 Z-0.48 F30
G1 X0.5807 Y7.7056 F60
G1 X0.5807 Y7.2056
G1 X0.5807 Y4.7056
G3 X0.6001 Y4.2818 I4.6391 J0
G3 X0.6561 Y3.8841 I4.125 J0.3785
G3 X0.7513 Y3.4936 I3.9092 J0.7457
G3 X0.8831 Y3.1223 I3.6617 J1.0908
G3 X1.0525 Y2.7665 I3.5299 J1.4621
G3 X1.2613 Y2.4231 I3.5003 J1.8936
G3 X1.5029 Y2.1023 I3.426 J2.3284
G3 X1.7889 Y1.7888 I3.5664 J2.9669
G3 X2.1023 Y1.5028 I3.2804 J3.2804
G3 X2.4231 Y1.2613 I2.6492 J3.1844
G3 X2.7665 Y1.0524 I2.237 J3.2915
G3 X3.1223 Y0.8831 I1.8179 J3.3605
G3 X3.4937 Y0.7512 I1.4621 J3.5299
G3 X3.8842 Y0.6561 I1.1361 J3.814
G3 X4.2818 Y0.6001 I0.7761 J4.0689
G3 X4.7057 Y0.5806 I0.4238 J4.6197
G1 X18.9831 Y0.5806
G1 X19.4831 Y0.5806
G1 X20.3277 Y0.5806
G3 X20.7516 Y0.6001 I0 J4.6391
G3 X21.1492 Y0.6561 I-0.3785 J4.125
G3 X21.5397 Y0.7512 I-0.7457 J3.9092
G3 X21.9111 Y0.8831 I-1.0908 J3.6617
G3 X22.2669 Y1.0524 I-1.4621 J3.5299
G3 X22.6103 Y1.2613 I-1.8936 J3.5003
G3 X22.9311 Y1.5028 I-2.3284 J3.426
G3 X23.2445 Y1.7888 I-2.9669 J3.5664
G3 X23.5305 Y2.1023 I-3.2804 J3.2804
G3 X23.7721 Y2.4231 I-3.1844 J2.6492
G3 X23.9809 Y2.7665 I-3.2915 J2.237
G3 X24.1503 Y3.1223 I-3.3605 J1.8179
G3 X24.2821 Y3.4936 I-3.5299 J1.4621
G3 X24.3773 Y3.8841 I-3.814 J1.1361
G3 X24.4333 Y4.2818 I-4.0689 J0.7761
G3 X24.4527 Y4.7056 I-4.6197 J0.4238
G1 X24.4527 Y26.5305
G1 X24.4527 Y27.0305
G1 X24.4527 Y32.7056
G3 X24.4333 Y33.1295 I-4.6391 J0
G3 X24.3773 Y33.5272 I-4.125 J-0.3785
G3 X24.2821 Y33.9177 I-3.9092 J-0.7457
G3 X24.1503 Y34.289 I-3.6617 J-1.0908
G3 X23.9809 Y34.6448 I-3.5299 J-1.4621
G3 X23.7721 Y34.9882 I-3.5003 J-1.8936
G3 X23.5305 Y35.309 I-3.426 J-2.3284
G3 X23.2445 Y35.6225 I-3.5664 J-2.9669
G3 X22.9311 Y35.9085 I-3.2804 J-3.2804
G3 X22.6103 Y36.15 I-2.6492 J-3.1844
G3 X22.2669 Y36.3589 I-2.237 J-3.2915
G3 X21.9111 Y36.5282 I-1.8179 J-3.3605
G3 X21.5397 Y36.6601 I-1.4621 J-3.5299
G3 X21.1492 Y36.7552 I-1.1361 J-3.814
G3 X20.7516 Y36.8112 I-0.7761 J-4.0689
G3 X20.3277 Y36.8306 I-0.4238 J-4.6197
G1 X6.5031 Y36.8306
G1 X6.0031 Y36.8306
G1 X4.7057 Y36.8306
G3 X4.2818 Y36.8112 I0 J-4.6391
G3 X3.8842 Y36.7552 I0.3785 J-4.125
G3 X3.4937 Y36.6601 I0.7457 J-3.9092
G3 X3.1223 Y36.5282 I1.0908 J-3.6617
G3 X2.7665 Y36.3589 I1.4621 J-3.5299
G3 X2.4231 Y36.15 I1.8936 J-3.5003
G3 X2.1023 Y35.9085 I2.3284 J-3.426
G3 X1.7889 Y35.6225 I2.9669 J-3.5664
G3 X1.5029 Y35.309 I3.2804 J-3.2804
G3 X1.2613 Y34.9882 I3.1844 J-2.6492
G3 X1.0525 Y34.6448 I3.2915 J-2.237
G3 X0.8831 Y34.289 I3.3605 J-1.8179
G3 X0.7513 Y33.9177 I3.5299 J-1.4621
G3 X0.6561 Y33.5272 I3.814 J-1.1361
G3 X0.6001 Y33.1295 I4.0689 J-0.7761
G3 X0.5807 Y32.7056 I4.6197 J-0.4238
G1 Z-0.64 F30
G1 X0.5807 Y7.7056 F60
G1 Z-0.55 F30
G1 X0.5807 Y7.2056 F60
G1 Z-0.64 F30
G1 X0.5807 Y4.7056 F60
G3 X0.6001 Y4.2818 I4.6391 J0
G3 X0.6561 Y3.8841 I4.125 J0.3785
G3 X0.7513 Y3.4936 I3.9092 J0.7457
G3 X0.8831 Y3.1223 I3.6617 J1.0908
G3 X1.0525 Y2.7665 I3.5299 J1.4621
G3 X1.2613 Y2.4231 I3.5003 J1.8936
G3 X1.5029 Y2.1023 I3.426 J2.3284
G3 X1.7889 Y1.7888 I3.5664 J2.9669
G3 X2.1023 Y1.5028 I3.2804 J3.2804
G3 X2.4231 Y1.2613 I2.6492 J3.1844
G3 X2.7665 Y1.0524 I2.237 J3.2915
G3 X3.1223 Y0.8831 I1.8179 J3.3605
G3 X3.4937 Y0.7512 I1.4621 J3.5299
G3 X3.8842 Y0.6561 I1.1361 J3.814
G3 X4.2818 Y0.6001 I0.7761 J4.0689
G3 X4.7057 Y0.5806 I0.4238 J4.6197
G1 X18.9831 Y0.5806
G1 Z-0.55 F30
G1 X19.4831 Y0.5806 F60
G1 Z-0.64 F30
G1 X20.3277 Y0.5806 F60
G3 X20.7516 Y0.6001 I0 J4.6391
G3 X21.1492 Y0.6561 I-0.3785 J4.125
G3 X21.5397 Y0.7512 I-0.7457 J3.9092
G3 X21.9111 Y0.8831 I-1.0908 J3.6617
G3 X22.2669 Y1.0524 I-1.4621 J3.5299
G3 X22.6103 Y1.2613 I-1.8936 J3.5003
G3 X22.9311 Y1.5028 I-2.3284 J3.426
G3 X23.2445 Y1.7888 I-2.9669 J3.5664
G3 X23.5305 Y2.1023 I-3.2804 J3.2804
G3 X23.7721 Y2.4231 I-3.1844 J2.6492
G3 X23.9809 Y2.7665 I-3.2915 J2.237
G3 X24.1503 Y3.1223 I-3.3605 J1.8179
G3 X24.2821 Y3.4936 I-3.5299 J1.4621
G3 X24.3773 Y3.8841 I-3.814 J1.1361
G3 X24.4333 Y4.2818 I-4.0689 J0.7761
G3 X24.4527 Y4.7056 I-4.6197 J0.4238
G1 X24.4527 Y26.5305
G1 Z-0.55 F30
G1 X24.4527 Y27.0305 F60
G1 Z-0.64 F30
G1 X24.4527 Y32.7056 F60
G3 X24.4333 Y33.1295 I-4.6391 J0
G3 X24.3773 Y33.5272 I-4.125 J-0.3785
G3 X24.2821 Y33.9177 I-3.9092 J-0.7457
G3 X24.1503 Y34.289 I-3.6617 J-1.0908
G3 X23.9809 Y34.6448 I-3.5299 J-1.4621
G3 X23.7721 Y34.9882 I-3.5003 J-1.8936
G3 X23.5305 Y35.309 I-3.426 J-2.3284
G3 X23.2445 Y35.6225 I-3.5664 J-2.9669
G3 X22.9311 Y35.9085 I-3.2804 J-3.2804
G3 X22.6103 Y36.15 I-2.6492 J-3.1844
G3 X22.2669 Y36.3589 I-2.237 J-3.2915
G3 X21.9111 Y36.5282 I-1.8179 J-3.3605
G3 X21.5397 Y36.6601 I-1.4621 J-3.5299
G3 X21.1492 Y36.7552 I-1.1361 J-3.814
G3 X20.7516 Y36.8112 I-0.7761 J-4.0689
G3 X20.3277 Y36.8306 I-0.4238 J-4.6197
G1 X6.5031 Y36.8306
G1 Z-0.55 F30
G1 X6.0031 Y36.8306 F60
G1 Z-0.64 F30
G1 X4.7057 Y36.8306 F60
G3 X4.2818 Y36.8112 I0 J-4.6391
G3 X3.8842 Y36.7552 I0.3785 J-4.125
G3 X3.4937 Y36.6601 I0.7457 J-3.9092
G3 X3.1223 Y36.5282 I1.0908 J-3.6617
G3 X2.7665 Y36.3589 I1.4621 J-3.5299
G3 X2.4231 Y36.15 I1.8936 J-3.5003
G3 X2.1023 Y35.9085 I2.3284 J-3.426
G3 X1.7889 Y35.6225 I2.9669 J-3.5664
G3 X1.5029 Y35.309 I3.2804 J-3.2804
G3 X1.2613 Y34.9882 I3.1844 J-2.6492
G3 X1.0525 Y34.6448 I3.2915 J-2.237
G3 X0.8831 Y34.289 I3.3605 J-1.8179
G3 X0.7513 Y33.9177 I3.5299 J-1.4621
G3 X0.6561 Y33.5272 I3.814 J-1.1361
G3 X0.6001 Y33.1295 I4.0689 J-0.7761
G3 X0.5807 Y32.7056 I4.6197 J-0.4238
G1 Z-0.8 F30
G1 X0.5807 Y7.7056 F60
G1 Z-0.55 F30
G1 X0.5807 Y7.2056 F60
G1 Z-0.8 F30
G1 X0.5807 Y4.7056 F60
G3 X0.6001 Y4.2818 I4.6391 J0
G3 X0.6561 Y3.8841 I4.125 J0.3785
G3 X0.7513 Y3.4936 I3.9092 J0.7457
G3 X0.8831 Y3.1223 I3.6617 J1.0908
G3 X1.0525 Y2.7665 I3.5299 J1.4621
G3 X1.2613 Y2.4231 I3.5003 J1.8936
G3 X1.5029 Y2.1023 I3.426 J2.3284
G3 X1.7889 Y1.7888 I3.5664 J2.9669
G3 X2.1023 Y1.5028 I3.2804 J3.2804
G3 X2.4231 Y1.2613 I2.6492 J3.1844
G3 X2.7665 Y1.0524 I2.237 J3.2915
G3 X3.1223 Y0.8831 I1.8179 J3.3605
G3 X3.4937 Y0.7512 I1.4621 J3.5299
G3 X3.8842 Y0.6561 I1.1361 J3.814
G3 X4.2818 Y0.6001 I0.7761 J4.0689
G3 X4.7057 Y0.5806 I0.4238 J4.6197
G1 X18.9831 Y0.5806
G1 Z-0.55 F30
G1 X19.4831 Y0.5806 F60
G1 Z-0.8 F30
G1 X20.3277 Y0.5806 F60
G3 X20.7516 Y0.6001 I0 J4.6391
G3 X21.1492 Y0.6561 I-0.3785 J4.125
G3 X21.5397 Y0.7512 I-0.7457 J3.9092
G3 X21.9111 Y0.8831 I-1.0908 J3.6617
G3 X22.2669 Y1.0524 I-1.4621 J3.5299
G3 X22.6103 Y1.2613 I-1.8936 J3.5003
G3 X22.9311 Y1.5028 I-2.3284 J3.426
G3 X23.2445 Y1.7888 I-2.9669 J3.5664
G3 X23.5305 Y2.1023 I-3.2804 J3.2804
G3 X23.7721 Y2.4231 I-3.1844 J2.6492
G3 X23.9809 Y2.7665 I-3.2915 J2.237
G3 X24.1503 Y3.1223 I-3.3605 J1.8179
G3 X24.2821 Y3.4936 I-3.5299 J1.4621
G3 X24.3773 Y3.8841 I-3.814 J1.1361
G3 X24.4333 Y4.2818 I-4.0689 J0.7761
G3 X24.4527 Y4.7056 I-4.6197 J0.4238
G1 X24.4527 Y26.5305
G1 Z-0.55 F30
G1 X24.4527 Y27.0305 F60
G1 Z-0.8 F30
G1 X24.4527 Y32.7056 F60
G3 X24.4333 Y33.1295 I-4.6391 J0
G3 X24.3773 Y33.5272 I-4.125 J-0.3785
G3 X24.2821 Y33.9177 I-3.9092 J-0.7457
G3 X24.1503 Y34.289 I-3.6617 J-1.0908
G3 X23.9809 Y34.6448 I-3.5299 J-1.4621
G3 X23.7721 Y34.9882 I-3.5003 J-1.8936
G3 X23.5305 Y35.309 I-3.426 J-2.3284
G3 X23.2445 Y35.6225 I-3.5664 J-2.9669
G3 X22.9311 Y35.9085 I-3.2804 J-3.2804
G3 X22.6103 Y36.15 I-2.6492 J-3.1844
G3 X22.2669 Y36.3589 I-2.237 J-3.2915
G3 X21.9111 Y36.5282 I-1.8179 J-3.3605
G3 X21.5397 Y36.6601 I-1.4621 J-3.5299
G3 X21.1492 Y36.7552 I-1.1361 J-3.814
G3 X20.7516 Y36.8112 I-0.7761 J-4.0689
G3 X20.3277 Y36.8306 I-0.4238 J-4.6197
G1 X6.5031 Y36.8306
G1 Z-0.55 F30
G1 X6.0031 Y36.8306 F60
G1 Z-0.8 F30
G1 X4.7057 Y36.8306 F60
G3 X4.2818 Y36.8112 I0 J-4.6391
G3 X3.8842 Y36.7552 I0.3785 J-4.125
G3 X3.4937 Y36.6601 I0.7457 J-3.9092
G3 X3.1223 Y36.5282 I1.0908 J-3.6617
G3 X2.7665 Y36.3589 I1.4621 J-3.5299
G3 X2.4231 Y36.15 I1.8936 J-3.5003
G3 X2.1023 Y35.9085 I2.3284 J-3.426
G3 X1.7889 Y35.6225 I2.9669 J-3.5664
G3 X1.5029 Y35.309 I3.2804 J-3.2804
G3 X1.2613 Y34.9882 I3.1844 J-2.6492
G3 X1.0525 Y34.6448 I3.2915 J-2.237
G3 X0.8831 Y34.289 I3.3605 J-1.8179
G3 X0.7513 Y33.9177 I3.5299 J-1.4621
G3 X0.6561 Y33.5272 I3.814 J-1.1361
G3 X0.6001 Y33.1295 I4.0689 J-0.7761
G3 X0.5807 Y32.7056 I4.6197 J-0.4238
G0 Z0.15
M5
M30
